projects/Week 3/res/luts/warm.cube
#Created by: Adobe Photoshop Export Color Lookup Plugin
TITLE "warm"
#LUT size
LUT_3D_SIZE 8
#data domain
#LUT data points
DOMAIN_MIN 0.000000 0.000000 0.000000
DOMAIN_MAX 0.903226 0.903226 0.903226
0.000000 0.000000 0.000000
0.097931 0.013306 0.013306
0.205353 0.022614 0.022614
0.312592 0.031921 0.031921
0.419983 0.041229 0.041229
0.527222 0.050537 0.050537
0.634552 0.059845 0.059845
0.741791 0.069183 0.069183
0.060303 0.092438 0.031860
0.153351 0.106720 0.053467
0.268646 0.109070 0.078125
0.392059 0.106628 0.106628
0.498474 0.116333 0.116333
0.605133 0.125916 0.125916
0.712097 0.135376 0.135376
0.819031 0.144806 0.144806
0.128906 0.184418 0.043274
0.202209 0.207855 0.069916
0.299988 0.219788 0.090881
0.410675 0.224945 0.113251
0.533875 0.222321 0.143250
0.682648 0.202301 0.196899
0.791809 0.209991 0.209991
0.898163 0.219696 0.219696
0.198273 0.276154 0.054291
0.260498 0.304474 0.084564
0.345856 0.322357 0.107758
0.446014 0.333221 0.128357
0.555511 0.339111 0.150085
0.672699 0.340363 0.175659
0.799988 0.334961 0.209076
0.950897 0.313477 0.264923
0.267181 0.368103 0.065277
0.323273 0.399139 0.097809
0.399261 0.421326 0.123627
0.490723 0.436371 0.145294
0.592316 0.446503 0.165802
0.700745 0.452972 0.187195
0.815430 0.455841 0.211151
0.936401 0.454651 0.239380
0.336456 0.459900 0.076324
0.388184 0.492859 0.110260
0.457275 0.518066 0.138245
0.541351 0.536591 0.161682
0.636230 0.550049 0.182739
0.738434 0.559875 0.203247
0.846466 0.566559 0.224518
0.959442 0.570404 0.247559
0.405609 0.551697 0.087311
0.454742 0.585815 0.122223
0.518433 0.613495 0.152039
0.596344 0.634766 0.177216
0.685059 0.651123 0.199432
0.781921 0.663605 0.220184
0.884766 0.673126 0.240753
0.992279 0.680115 0.261841
0.474548 0.643616 0.098358
0.522003 0.678436 0.133911
0.581665 0.707947 0.165100
0.654419 0.731537 0.191925
0.737854 0.750366 0.215515
0.829651 0.765228 0.237030
0.927795 0.777100 0.257660
1.000000 0.788849 0.349945
0.038483 0.003784 0.003784
0.124969 0.022003 0.022003
0.226013 0.034027 0.034027
0.330841 0.044373 0.044373
0.436890 0.054230 0.054230
0.543518 0.063812 0.063812
0.650391 0.073334 0.073334
0.757416 0.082764 0.082764
0.098755 0.095673 0.038788
0.181152 0.114441 0.065125
0.291229 0.119049 0.092010
0.410248 0.119110 0.119110
0.515472 0.129303 0.129303
0.621460 0.139191 0.139191
0.727905 0.148865 0.148865
0.834656 0.158386 0.158386
0.156830 0.192444 0.053040
0.226318 0.217499 0.081329
0.320648 0.230957 0.103760
0.429901 0.236633 0.127075
0.552551 0.234161 0.158020
0.701385 0.213837 0.212738
0.807648 0.223450 0.223450
0.913696 0.233276 0.233276
0.221252 0.286407 0.065552
0.282043 0.315338 0.096466
0.365570 0.334045 0.120514
0.464386 0.345398 0.141693
0.573059 0.351654 0.163879
0.689758 0.353088 0.189819
0.816986 0.347687 0.223724
0.968964 0.325348 0.281067
0.287659 0.379486 0.077393
0.343048 0.410797 0.110199
0.417999 0.433441 0.136475
0.508575 0.448883 0.158569
0.609314 0.459381 0.179413
0.717438 0.465973 0.201080
0.831757 0.468964 0.225220
0.952545 0.467834 0.253632
0.355377 0.471954 0.088928
0.406952 0.504974 0.122986
0.475311 0.530548 0.151306
0.558746 0.549347 0.175018
0.652924 0.563080 0.196289
0.754852 0.572998 0.216980
0.862549 0.579834 0.238403
0.975342 0.583801 0.261627
0.423431 0.564270 0.100281
0.472534 0.598419 0.135254
0.535950 0.626160 0.165192
0.613281 0.647705 0.190582
0.701630 0.664215 0.212982
0.798126 0.676880 0.233917
0.900696 0.686493 0.254578
1.000000 0.695068 0.289825
0.491943 0.656372 0.111511
0.539185 0.691315 0.147125
0.598724 0.720856 0.178406
0.670959 0.744659 0.205383
0.754150 0.763580 0.229095
0.845703 0.778595 0.250763
0.943573 0.790527 0.271454
1.000000 0.803680 0.399323
0.094666 0.000031 0.000031
0.165253 0.024994 0.024994
0.255493 0.041656 0.041656
0.354980 0.054291 0.054291
0.458282 0.065369 0.065369
0.563202 0.075684 0.075684
0.668854 0.085663 0.085663
0.775146 0.095459 0.095459
0.154724 0.090332 0.043762
0.226440 0.113434 0.076019
0.327393 0.121887 0.107086
0.434296 0.129089 0.129089
0.536621 0.140503 0.140503
0.641052 0.151093 0.151093
0.746399 0.161194 0.161194
0.852386 0.171051 0.171051
0.199249 0.193909 0.058746
0.263062 0.221313 0.089783
0.351074 0.237457 0.114990
0.457214 0.244263 0.140717
0.578400 0.242065 0.173981
0.721558 0.225311 0.225311
0.826111 0.235840 0.235840
0.931427 0.245972 0.245972
0.255493 0.291626 0.073395
0.313690 0.321594 0.105530
0.393158 0.342041 0.131226
0.488983 0.354706 0.153870
0.595856 0.361664 0.177216
0.711426 0.363464 0.204071
0.838348 0.358002 0.239136
0.993805 0.333038 0.300964
0.316925 0.386932 0.086731
0.371002 0.418854 0.120178
0.443451 0.442535 0.147430
0.531769 0.458893 0.170471
0.631012 0.470062 0.192139
0.737793 0.477173 0.214355
0.851440 0.480408 0.239105
0.971832 0.479401 0.268066
0.381287 0.480896 0.099304
0.431946 0.514313 0.133698
0.499054 0.540405 0.162598
0.580963 0.559875 0.187012
0.673920 0.574097 0.208893
0.774689 0.584534 0.230072
0.881653 0.591675 0.251862
0.993713 0.595947 0.275391
0.447083 0.574219 0.111359
0.495697 0.608582 0.146545
0.558197 0.636749 0.176849
0.634430 0.658722 0.202728
0.721832 0.675659 0.225586
0.817474 0.688660 0.246887
0.919342 0.698608 0.267883
1.000000 0.710785 0.334625
0.513916 0.667084 0.123138
0.560822 0.702179 0.158875
0.619751 0.731934 0.190399
0.691284 0.756104 0.217682
0.773712 0.775330 0.241730
0.864471 0.790649 0.263702
0.961884 0.802826 0.284698
1.000000 0.817963 0.451691
0.141876 0.000031 0.000031
0.213348 0.024658 0.024658
0.293304 0.045715 0.045715
0.385834 0.061340 0.061340
0.484802 0.074249 0.074249
0.586853 0.085815 0.085815
0.690643 0.096619 0.096619
0.795593 0.106964 0.106964
0.221619 0.078613 0.053070
0.285095 0.105286 0.088867
0.373260 0.120178 0.120178
0.464813 0.136261 0.136261
0.563110 0.149445 0.149445
0.664673 0.161224 0.161224
0.768219 0.172150 0.172150
0.872803 0.182587 0.182587
0.252655 0.189941 0.063202
0.310944 0.219696 0.096710
0.392029 0.238739 0.125366
0.493256 0.247406 0.154510
0.614044 0.244537 0.192688
0.745087 0.235504 0.235504
0.847778 0.246826 0.246826
0.951782 0.257507 0.257507
0.300018 0.292053 0.078705
0.355042 0.323395 0.112274
0.429626 0.345917 0.140167
0.521027 0.360382 0.164886
0.624878 0.368561 0.190002
0.738861 0.370880 0.218536
0.865417 0.365173 0.255737
1.000000 0.347260 0.337097
0.355072 0.390320 0.093475
0.407318 0.423004 0.127716
0.476532 0.448059 0.156372
0.561554 0.465851 0.180969
0.658234 0.478058 0.203949
0.763214 0.485931 0.227264
0.875336 0.489777 0.252808
0.994965 0.488983 0.282684
0.414764 0.486450 0.107361
0.464569 0.520233 0.142181
0.529480 0.547302 0.172058
0.608887 0.567749 0.197479
0.699707 0.582947 0.220367
0.798767 0.594055 0.242371
0.904327 0.601776 0.264801
1.000000 0.610626 0.308716
0.477112 0.581329 0.120422
0.525116 0.615936 0.155884
0.586212 0.644684 0.186768
0.660858 0.667358 0.213409
0.746521 0.685059 0.237030
0.840668 0.698639 0.258972
0.941376 0.709076 0.280518
1.000000 0.725891 0.382355
0.541382 0.675323 0.132996
0.587982 0.710541 0.168915
0.646027 0.740692 0.200806
0.716339 0.765350 0.228607
0.797363 0.785187 0.253235
0.887024 0.800995 0.275757
0.983429 0.813599 0.297241
1.000000 0.831757 0.506775
0.189209 0.000031 0.000031
0.265900 0.022461 0.022461
0.337402 0.047119 0.047119
0.422668 0.065857 0.065857
0.516357 0.081024 0.081024
0.614746 0.094147 0.094147
0.716003 0.106049 0.106049
0.818970 0.117188 0.117188
0.292969 0.064301 0.064301
0.346039 0.096863 0.096863
0.416748 0.121887 0.121887
0.501282 0.140900 0.140900
0.594513 0.156281 0.156281
0.692474 0.169586 0.169586
0.793396 0.181610 0.181610
0.896240 0.192871 0.192871
0.313324 0.182037 0.069153
0.367676 0.213470 0.104462
0.443298 0.234558 0.136871
0.540100 0.244659 0.170563
0.663361 0.238800 0.217957
0.772614 0.243958 0.243958
0.872925 0.256317 0.256317
0.975128 0.267792 0.267792
0.352142 0.288757 0.083191
0.404236 0.321381 0.117950
0.474182 0.345825 0.148193
0.560760 0.362305 0.175415
0.660797 0.371979 0.202728
0.772522 0.375000 0.233612
0.899750 0.368225 0.274689
1.000000 0.365906 0.365906
0.400635 0.390289 0.098602
0.451019 0.423737 0.133636
0.516785 0.450256 0.163849
0.597992 0.469635 0.190277
0.691162 0.483307 0.214874
0.793610 0.492218 0.239624
0.904022 0.496704 0.266510
1.000000 0.504059 0.317230
0.455200 0.488800 0.113556
0.503784 0.523102 0.148895
0.566254 0.551208 0.179840
0.642700 0.572906 0.206573
0.730652 0.589325 0.230774
0.827484 0.601349 0.253845
0.931274 0.609802 0.277252
1.000000 0.626495 0.352631
0.513550 0.585510 0.127686
0.560669 0.620483 0.163452
0.620209 0.649902 0.195099
0.692566 0.673584 0.222687
0.775940 0.692200 0.247284
0.868195 0.706696 0.270203
0.967224 0.717773 0.292480
1.000000 0.740601 0.432556
0.574463 0.681030 0.141144
0.620575 0.716492 0.177307
0.677460 0.747131 0.209686
0.746216 0.772430 0.238220
0.825500 0.793030 0.263641
0.913513 0.809509 0.286865
1.000000 0.822723 0.332184
1.000000 0.845276 0.563293
0.236542 0.000031 0.000031
0.320648 0.019287 0.019287
0.385681 0.046692 0.046692
0.464325 0.068237 0.068237
0.552521 0.085785 0.085785
0.646729 0.100708 0.100708
0.744904 0.113953 0.113953
0.845490 0.126099 0.126099
0.349945 0.060181 0.060181
0.399902 0.094025 0.094025
0.464508 0.121674 0.121674
0.542755 0.143433 0.143433
0.630463 0.161133 0.161133
0.724335 0.176208 0.176208
0.822266 0.189514 0.189514
0.922699 0.201813 0.201813
0.380402 0.170197 0.078766
0.433044 0.202118 0.116028
0.504791 0.224518 0.152191
0.601288 0.233307 0.193939
0.711243 0.235260 0.235260
0.804382 0.250671 0.250671
0.901581 0.264313 0.264313
1.000000 0.277405 0.277405
0.409607 0.282654 0.088043
0.459625 0.316132 0.123932
0.525452 0.342316 0.156158
0.607452 0.360626 0.186005
0.703674 0.371735 0.216095
0.813995 0.374817 0.250610
0.943726 0.365540 0.298370
1.000000 0.386200 0.386200
0.452026 0.387360 0.103058
0.500671 0.421600 0.138824
0.563293 0.449402 0.170532
0.640411 0.470520 0.198822
0.729797 0.485779 0.225281
0.829437 0.495758 0.251892
0.937805 0.500977 0.280457
1.000000 0.520355 0.358856
0.501221 0.488495 0.118530
0.548767 0.523224 0.154419
0.608795 0.552399 0.186401
0.682190 0.575378 0.214630
0.766968 0.593140 0.240295
0.861084 0.606323 0.264771
0.962677 0.615631 0.289398
1.000000 0.641998 0.398376
0.555328 0.587250 0.133545
0.601715 0.622498 0.169647
0.659393 0.652740 0.202087
0.729309 0.677460 0.230774
0.810272 0.697083 0.256561
0.900055 0.712616 0.280579
0.997131 0.724487 0.303833
1.000000 0.755096 0.483978
0.612762 0.684387 0.147888
0.658203 0.720123 0.184265
0.713837 0.751251 0.217224
0.780701 0.777405 0.246582
0.857971 0.798828 0.272888
0.943909 0.816223 0.297058
1.000000 0.831299 0.415375
1.000000 0.858795 0.619843
0.283844 0.000031 0.000031
0.376373 0.015656 0.015656
0.436768 0.045044 0.045044
0.509735 0.069061 0.069061
0.592682 0.088837 0.088837
0.682495 0.105621 0.105621
0.777222 0.120361 0.120361
0.875092 0.133698 0.133698
0.407318 0.055847 0.055847
0.455017 0.090668 0.090668
0.515167 0.120239 0.120239
0.587860 0.144348 0.144348
0.670502 0.164276 0.164276
0.760071 0.181183 0.181183
0.854523 0.195984 0.195984
0.952240 0.209412 0.209412
0.458618 0.150970 0.097595
0.510223 0.183044 0.136902
0.583679 0.203156 0.180420
0.669037 0.218323 0.218323
0.750824 0.238586 0.238586
0.839813 0.255768 0.255768
0.933655 0.270813 0.270813
1.000000 0.297729 0.297729
0.471832 0.273865 0.094696
0.520264 0.307983 0.131317
0.583038 0.335327 0.165527
0.661224 0.355072 0.198059
0.754517 0.367065 0.231598
0.864197 0.369476 0.271088
1.000000 0.353577 0.338593
1.000000 0.406494 0.406494
0.507751 0.382202 0.107697
0.555084 0.416992 0.144012
0.614929 0.446014 0.177155
0.688446 0.468567 0.207275
0.774200 0.485291 0.235748
0.870697 0.496521 0.264313
0.976990 0.502380 0.295044
1.000000 0.536285 0.402527
0.552094 0.485840 0.122986
0.598511 0.521057 0.159302
0.656311 0.551178 0.192383
0.726593 0.575500 0.222015
0.808105 0.594604 0.249237
0.899261 0.609009 0.275269
0.998444 0.619293 0.301270
1.000000 0.657410 0.444977
0.601959 0.586670 0.138489
0.647491 0.622314 0.174927
0.703491 0.653229 0.208130
0.770905 0.679016 0.237946
0.849030 0.699860 0.264984
0.936188 0.716492 0.290253
1.000000 0.734741 0.370117
1.000000 0.769562 0.535187
0.655609 0.685577 0.153473
0.700592 0.721527 0.190155
0.754822 0.753265 0.223663
0.819733 0.780212 0.253906
0.894684 0.802643 0.281250
0.978424 0.820953 0.306427
1.000000 0.840454 0.495392
1.000000 0.872528 0.675232
0.331085 0.000031 0.000031
0.432861 0.011719 0.011719
0.489685 0.042633 0.042633
0.558075 0.068634 0.068634
0.636169 0.090485 0.090485
0.721710 0.109100 0.109100
0.812744 0.125427 0.125427
0.907623 0.140045 0.140045
0.464935 0.051422 0.051422
0.511047 0.086945 0.086945
0.567810 0.117950 0.117950
0.635956 0.144012 0.144012
0.713806 0.165985 0.165985
0.799133 0.184692 0.184692
0.889954 0.201050 0.201050
0.984711 0.215759 0.215759
0.546539 0.125214 0.125214
0.592468 0.160828 0.160828
0.648865 0.191956 0.191956
0.716461 0.218292 0.218292
0.793732 0.240479 0.240479
0.878601 0.259399 0.259399
0.968994 0.275940 0.275940
1.000000 0.317963 0.317963
0.539062 0.261932 0.104187
0.586273 0.296570 0.141571
0.646820 0.324707 0.177643
0.722260 0.345306 0.213135
0.814362 0.356964 0.251404
0.929077 0.354889 0.301514
1.000000 0.371460 0.371460
1.000000 0.426727 0.426727
0.567444 0.374878 0.113159
0.613739 0.410095 0.150085
0.671234 0.440063 0.184326
0.741486 0.464020 0.216217
0.823883 0.482025 0.246765
0.917572 0.494232 0.277618
1.000000 0.508301 0.329742
1.000000 0.551788 0.448242
0.606812 0.481262 0.127472
0.652374 0.516846 0.164246
0.708038 0.547821 0.198151
0.775421 0.573395 0.229187
0.853943 0.593719 0.258026
0.942139 0.609314 0.285645
1.000000 0.631500 0.360718
1.000000 0.672729 0.491608
0.652405 0.584229 0.142944
0.697449 0.620056 0.179718
0.751648 0.651764 0.213654
0.816681 0.678558 0.244568
0.891968 0.700623 0.272888
0.976562 0.718292 0.299500
1.000000 0.746002 0.438904
1.000000 0.784241 0.585541
0.702545 0.684875 0.158386
0.746979 0.721039 0.195251
0.799896 0.753357 0.229401
0.862823 0.781158 0.260498
0.935394 0.804565 0.288879
1.000000 0.824097 0.360107
1.000000 0.850616 0.569916
1.000000 0.886688 0.728149
