projects/Week 3/res/luts/WarmLut.CUBE
#Created by: Adobe Photoshop Export Color Lookup Plugin
TITLE "Warm"
#LUT size
LUT_3D_SIZE 8
#data domain
#LUT data points
DOMAIN_MIN 0.000000 0.000000 0.000000
DOMAIN_MAX 0.903226 0.903226 0.903226
0.000000 0.000000 0.000000
0.103088 0.011108 0.011108
0.213470 0.019104 0.019104
0.324219 0.026947 0.026947
0.434845 0.034851 0.034851
0.545502 0.042725 0.042725
0.656097 0.050598 0.050598
0.766785 0.058502 0.058502
0.050232 0.098633 0.026031
0.148315 0.111023 0.044098
0.263580 0.114471 0.062958
0.393158 0.108795 0.092102
0.512848 0.110168 0.110168
0.623047 0.118256 0.118256
0.733398 0.126221 0.126221
0.843811 0.134216 0.134216
0.111420 0.195129 0.033478
0.189697 0.216492 0.057495
0.291046 0.227325 0.074860
0.403320 0.232574 0.092438
0.523895 0.232849 0.114105
0.654541 0.226349 0.144470
0.812469 0.201141 0.201141
0.922363 0.209320 0.209320
0.173340 0.291412 0.040558
0.239532 0.318054 0.068817
0.329529 0.334229 0.088776
0.433350 0.343872 0.105713
0.544861 0.349609 0.122955
0.661774 0.352112 0.142303
0.784424 0.350983 0.165588
0.914673 0.344849 0.195526
0.235046 0.387787 0.047577
0.294037 0.417603 0.078522
0.374878 0.437836 0.101471
0.470978 0.451141 0.119751
0.575989 0.460266 0.136536
0.686768 0.466370 0.153625
0.801849 0.470062 0.172058
0.921112 0.471100 0.192871
0.297028 0.484009 0.054626
0.351257 0.515900 0.087280
0.424713 0.539398 0.112823
0.513763 0.555969 0.133087
0.612885 0.567902 0.150665
0.718597 0.576660 0.167419
0.828766 0.583038 0.184357
0.942749 0.587341 0.202301
0.358795 0.580261 0.061584
0.410004 0.613556 0.095490
0.477722 0.639557 0.123108
0.560547 0.658875 0.145386
0.654083 0.673431 0.164307
0.754974 0.684509 0.181549
0.861084 0.693085 0.198273
0.971039 0.699615 0.215149
0.420563 0.676605 0.068634
0.469635 0.710754 0.103333
0.532959 0.738770 0.132660
0.610291 0.760498 0.156738
0.698761 0.777374 0.177216
0.795135 0.790558 0.195404
0.897217 0.801086 0.212433
1.000000 0.809387 0.239685
0.032654 0.002289 0.027802
0.125000 0.018097 0.042877
0.230469 0.028473 0.051697
0.339294 0.037567 0.057770
0.449554 0.046387 0.061859
0.560333 0.055145 0.064606
0.671539 0.064056 0.065369
0.782104 0.072205 0.072205
0.085449 0.100616 0.048492
0.171722 0.118225 0.070465
0.283051 0.123535 0.090118
0.411438 0.118774 0.117676
0.528534 0.122528 0.130127
0.638855 0.131561 0.132782
0.748993 0.139832 0.139832
0.859161 0.147888 0.147888
0.138214 0.203766 0.043304
0.212280 0.226929 0.069122
0.310364 0.239136 0.087769
0.421387 0.244873 0.106079
0.541321 0.245361 0.128418
0.672058 0.238678 0.159515
0.828033 0.214722 0.214722
0.937683 0.223022 0.223022
0.195831 0.301910 0.051910
0.260132 0.329407 0.080872
0.348480 0.346222 0.101654
0.451050 0.356415 0.119080
0.561554 0.362579 0.136658
0.678162 0.365234 0.156372
0.800568 0.364166 0.179871
0.930878 0.357941 0.210144
0.255096 0.399353 0.059723
0.313202 0.429565 0.090973
0.393097 0.450195 0.114441
0.488281 0.463898 0.133118
0.592651 0.473297 0.150208
0.702759 0.479675 0.167419
0.817657 0.483429 0.186066
0.936737 0.484589 0.206970
0.315552 0.496277 0.067261
0.369415 0.528320 0.100067
0.442322 0.552032 0.125916
0.530701 0.568909 0.146484
0.629303 0.581055 0.164307
0.734467 0.590057 0.181183
0.844452 0.596527 0.198242
0.958313 0.600891 0.216339
0.376434 0.592957 0.074585
0.427429 0.626312 0.108551
0.494812 0.652435 0.136353
0.577118 0.671997 0.158813
0.670319 0.686707 0.177948
0.770874 0.697906 0.195282
0.876678 0.706635 0.212128
0.986420 0.713226 0.229065
0.437683 0.689514 0.081818
0.486511 0.723755 0.116577
0.549561 0.751862 0.145996
0.626526 0.773804 0.170288
0.714722 0.790741 0.190826
0.810913 0.804016 0.209137
0.912842 0.814606 0.226288
1.000000 0.822662 0.297394
0.071259 0.000031 0.063538
0.155579 0.016846 0.095184
0.251373 0.031250 0.108582
0.355774 0.042114 0.117584
0.463379 0.051788 0.124268
0.572479 0.060944 0.129456
0.682495 0.069977 0.132629
0.793121 0.079102 0.134155
0.130615 0.091583 0.102875
0.205505 0.113800 0.131134
0.308990 0.122223 0.155579
0.433990 0.118469 0.186798
0.541962 0.127655 0.194824
0.650726 0.137115 0.199707
0.760437 0.146301 0.202942
0.870941 0.155579 0.203674
0.172424 0.199524 0.101807
0.239563 0.225769 0.129974
0.332031 0.240570 0.150208
0.439819 0.247955 0.168335
0.558228 0.249664 0.188324
0.689362 0.243317 0.216522
0.841522 0.223236 0.261383
0.951630 0.232880 0.261017
0.225708 0.305145 0.082153
0.287079 0.333954 0.112000
0.371643 0.352661 0.133118
0.471680 0.364380 0.149170
0.581146 0.371643 0.163574
0.697021 0.375580 0.178375
0.819763 0.375610 0.195251
0.949982 0.369446 0.225189
0.283234 0.407349 0.069122
0.339874 0.438202 0.101105
0.417114 0.459961 0.125610
0.510132 0.474609 0.145264
0.612915 0.484650 0.163025
0.721985 0.491486 0.180756
0.836151 0.495514 0.199768
0.954834 0.496796 0.221069
0.340546 0.505646 0.077667
0.393707 0.538025 0.110901
0.464905 0.562469 0.137390
0.551727 0.579987 0.158630
0.649048 0.592682 0.177002
0.753448 0.602020 0.194366
0.862671 0.608795 0.211731
0.975952 0.613434 0.230072
0.399353 0.603271 0.085724
0.449951 0.636810 0.119934
0.516235 0.663422 0.148163
0.597290 0.683502 0.171112
0.689575 0.698578 0.190643
0.789398 0.710114 0.208405
0.894592 0.719055 0.225464
1.000000 0.726410 0.250763
0.459045 0.700531 0.093506
0.507599 0.734894 0.128387
0.570099 0.763245 0.158112
0.646301 0.785461 0.182678
0.733582 0.802826 0.203644
0.829010 0.816437 0.222229
0.930389 0.827240 0.239594
1.000000 0.835297 0.358765
0.106506 0.000031 0.096588
0.194183 0.011902 0.145477
0.279633 0.030670 0.163635
0.377655 0.044159 0.175964
0.481384 0.055267 0.185425
0.587982 0.065277 0.192871
0.696075 0.074707 0.199219
0.805237 0.083923 0.204163
0.185486 0.076996 0.160339
0.251617 0.102814 0.193359
0.347992 0.113647 0.224091
0.456421 0.119629 0.248352
0.559723 0.130951 0.257843
0.665833 0.141174 0.265656
0.773743 0.150757 0.271851
0.882660 0.160004 0.276917
0.215088 0.190613 0.162018
0.276428 0.219269 0.193207
0.361603 0.237061 0.217346
0.464355 0.246338 0.239014
0.580231 0.248535 0.263489
0.711609 0.240967 0.297516
0.853638 0.226654 0.338898
0.962158 0.236176 0.343719
0.259064 0.297791 0.159485
0.316742 0.328125 0.191193
0.395935 0.348999 0.215363
0.491547 0.362396 0.234741
0.597717 0.370667 0.252747
0.711609 0.374908 0.271332
0.832855 0.374786 0.292999
0.963409 0.368958 0.320282
0.311523 0.403137 0.143524
0.365723 0.435150 0.176056
0.439575 0.458527 0.201233
0.529449 0.474762 0.220612
0.630127 0.486145 0.237061
0.738007 0.494171 0.251678
0.851532 0.499420 0.265991
0.970184 0.501953 0.280731
0.371735 0.510681 0.094849
0.423401 0.543793 0.127930
0.492645 0.569397 0.153748
0.577209 0.588257 0.173798
0.673004 0.602386 0.188873
0.775696 0.612427 0.206726
0.883850 0.619690 0.224701
0.996246 0.624664 0.243469
0.428314 0.610901 0.094879
0.478027 0.644806 0.129395
0.542786 0.672089 0.158264
0.622223 0.692871 0.182037
0.712708 0.708710 0.202332
0.811096 0.720825 0.220642
0.915253 0.730225 0.238220
1.000000 0.740509 0.303986
0.485626 0.709198 0.103424
0.533661 0.743805 0.138519
0.595032 0.772644 0.168671
0.669952 0.795441 0.193878
0.755951 0.813324 0.215363
0.850311 0.827393 0.234467
0.950745 0.838593 0.252258
1.000000 0.847321 0.423157
0.141724 0.000031 0.129425
0.237335 0.005066 0.193817
0.313904 0.027557 0.215881
0.404938 0.043976 0.231506
0.503937 0.057068 0.243439
0.607269 0.068298 0.252960
0.713104 0.078613 0.261139
0.820496 0.088348 0.268005
0.250153 0.056305 0.224152
0.310242 0.084717 0.259583
0.393066 0.102753 0.288971
0.483398 0.119446 0.304871
0.581970 0.132751 0.316864
0.684937 0.144135 0.326630
0.790558 0.154510 0.334747
0.897766 0.164307 0.341797
0.264740 0.178894 0.218719
0.321472 0.209412 0.252258
0.399994 0.229950 0.279755
0.497192 0.241425 0.305023
0.610107 0.244385 0.333282
0.744873 0.233490 0.375885
0.870087 0.230103 0.404541
0.976837 0.240112 0.411682
0.301086 0.289001 0.221100
0.355255 0.320831 0.254272
0.429199 0.343933 0.280975
0.519745 0.359314 0.303162
0.622192 0.369049 0.323822
0.733490 0.374054 0.345093
0.853210 0.374176 0.369690
0.983582 0.367645 0.401337
0.346069 0.395874 0.217346
0.398285 0.428711 0.250977
0.468140 0.453674 0.278229
0.553955 0.471497 0.300293
0.651031 0.484253 0.319397
0.756317 0.492950 0.337341
0.867706 0.498535 0.355621
0.984711 0.501007 0.375031
0.397552 0.501282 0.203705
0.447815 0.534973 0.237854
0.514099 0.561615 0.266022
0.595306 0.581726 0.288544
0.688110 0.596680 0.307404
0.788849 0.607880 0.324219
0.895721 0.616241 0.339813
1.000000 0.624359 0.364014
0.454620 0.607513 0.170471
0.503448 0.641846 0.204956
0.566406 0.670044 0.233795
0.643738 0.692108 0.256744
0.732239 0.709198 0.275421
0.829193 0.722626 0.290955
0.932495 0.733276 0.303955
1.000000 0.748627 0.389526
0.517395 0.715576 0.111633
0.564850 0.750458 0.147034
0.624847 0.779816 0.177734
0.697968 0.803406 0.203705
0.782135 0.822083 0.225983
0.874878 0.836823 0.245789
0.973999 0.848633 0.264221
1.000000 0.859039 0.489380
0.177002 0.000031 0.162445
0.278442 0.000031 0.237732
0.352448 0.022675 0.266235
0.436768 0.041870 0.284851
0.530609 0.057129 0.299255
0.630188 0.069946 0.310791
0.733246 0.081360 0.320618
0.838562 0.091827 0.329010
0.309753 0.039307 0.281799
0.361877 0.072235 0.314575
0.431213 0.097931 0.339966
0.515076 0.117340 0.358765
0.608551 0.132782 0.373230
0.707703 0.145721 0.384979
0.810577 0.157196 0.394806
0.915710 0.167786 0.403351
0.319489 0.164368 0.276215
0.372894 0.196320 0.311218
0.446167 0.218933 0.341949
0.538940 0.231934 0.371338
0.650452 0.234467 0.405334
0.787628 0.220947 0.455933
0.889893 0.232635 0.465973
0.994568 0.243378 0.474670
0.348083 0.278473 0.278412
0.399902 0.311279 0.312775
0.468872 0.336456 0.341858
0.554413 0.353912 0.366699
0.652771 0.365204 0.389862
0.761444 0.371124 0.413757
0.879486 0.371582 0.440979
1.000000 0.368835 0.479340
0.387268 0.387390 0.279480
0.437592 0.421021 0.314026
0.503662 0.447601 0.343079
0.585083 0.467224 0.367340
0.678345 0.481506 0.388580
0.780670 0.491333 0.408569
0.889954 0.497620 0.428894
1.000000 0.502686 0.453522
0.433014 0.493988 0.275208
0.481964 0.528168 0.309998
0.545349 0.556061 0.339600
0.623230 0.577484 0.364197
0.712555 0.593781 0.385132
0.810547 0.606049 0.404053
0.915192 0.615082 0.421997
1.000000 0.629883 0.463379
0.483826 0.599487 0.262787
0.531555 0.634247 0.297943
0.592499 0.663269 0.328033
0.666962 0.686310 0.353271
0.752533 0.704437 0.374573
0.846924 0.718597 0.393158
0.947906 0.729675 0.410248
1.000000 0.751129 0.505157
0.539337 0.705078 0.237061
0.586151 0.740295 0.272491
0.644592 0.770447 0.303345
0.715759 0.795013 0.329163
0.798004 0.814758 0.350891
0.888947 0.830688 0.369385
0.986664 0.843567 0.385773
1.000000 0.862793 0.598419
0.212219 0.000031 0.195374
0.312408 0.000031 0.274048
0.393951 0.016449 0.315247
0.472412 0.038208 0.336517
0.561066 0.055634 0.353271
0.656494 0.070160 0.366791
0.756439 0.082855 0.378235
0.859314 0.094299 0.388062
0.358521 0.029968 0.327881
0.408081 0.063995 0.361816
0.472321 0.091827 0.389404
0.550446 0.113708 0.410797
0.638855 0.131287 0.427643
0.733978 0.145935 0.441315
0.833679 0.158691 0.452759
0.936432 0.170227 0.462738
0.379303 0.146759 0.336548
0.431000 0.179321 0.373077
0.500702 0.203125 0.406952
0.591003 0.216400 0.441681
0.706818 0.214630 0.487122
0.813568 0.221100 0.513153
0.912781 0.234100 0.524872
1.000000 0.253632 0.534180
0.399109 0.266052 0.334961
0.448914 0.299683 0.370361
0.514008 0.326447 0.401306
0.595001 0.345764 0.428650
0.689423 0.358612 0.454468
0.795105 0.365509 0.480927
0.912201 0.365875 0.511719
1.000000 0.378387 0.557098
0.432800 0.377441 0.337646
0.481476 0.411743 0.372955
0.544250 0.439697 0.403564
0.621521 0.461151 0.429810
0.711090 0.476837 0.453217
0.810120 0.488007 0.475159
0.916931 0.495209 0.497375
1.000000 0.511993 0.532562
0.473663 0.485687 0.337799
0.521301 0.520447 0.373199
0.582275 0.549347 0.404114
0.656586 0.572235 0.430328
0.742462 0.589996 0.453125
0.837463 0.603424 0.473785
0.939606 0.613403 0.493408
1.000000 0.638306 0.547333
0.519897 0.592133 0.333069
0.566650 0.627289 0.368652
0.625580 0.657104 0.399841
0.696991 0.681458 0.426575
0.779785 0.700684 0.449493
0.871460 0.715912 0.469788
0.970123 0.727844 0.488617
1.000000 0.758667 0.593628
0.570404 0.697632 0.321350
0.616486 0.733124 0.357178
0.673309 0.763916 0.388947
0.742218 0.789368 0.416168
0.821899 0.810150 0.439636
0.910461 0.826874 0.460052
1.000000 0.840881 0.493073
1.000000 0.869965 0.688904
0.247467 0.000031 0.228241
0.346802 0.000031 0.309296
0.437561 0.009369 0.363373
0.510925 0.033264 0.386902
0.594727 0.052765 0.405792
0.686066 0.069061 0.421265
0.782532 0.083191 0.434387
0.882721 0.095734 0.445648
0.407593 0.020508 0.373749
0.455231 0.055389 0.408539
0.515533 0.084869 0.437836
0.588745 0.108856 0.461426
0.672272 0.128479 0.480469
0.763367 0.144836 0.496033
0.859741 0.158966 0.509155
0.959778 0.171661 0.520508
0.448242 0.123169 0.404358
0.498596 0.156067 0.442261
0.568115 0.179047 0.481262
0.661835 0.188660 0.526276
0.752106 0.203430 0.552734
0.842682 0.220062 0.568604
0.938629 0.234375 0.581848
1.000000 0.267639 0.588074
0.453522 0.251770 0.392120
0.501892 0.286011 0.428314
0.563995 0.313965 0.461029
0.640991 0.334900 0.490723
0.731995 0.348907 0.519226
0.835480 0.356293 0.549194
0.952454 0.355896 0.584534
1.000000 0.388367 0.632599
0.481598 0.366119 0.394440
0.529114 0.400909 0.430389
0.589111 0.429993 0.462280
0.662750 0.452911 0.490387
0.748505 0.470245 0.515778
0.844208 0.482666 0.539734
0.948547 0.490784 0.563904
1.000000 0.522919 0.603088
0.518097 0.476166 0.396667
0.564819 0.511292 0.432587
0.623138 0.541351 0.464508
0.694336 0.565552 0.492371
0.776855 0.584656 0.516907
0.868744 0.599365 0.539215
0.968170 0.610413 0.560455
1.000000 0.648743 0.620514
0.560211 0.583954 0.395996
0.606323 0.619385 0.432037
0.663116 0.650085 0.464172
0.731964 0.675507 0.492188
0.811615 0.696045 0.516571
0.900513 0.712372 0.538574
0.996613 0.725342 0.558746
1.000000 0.768738 0.668701
0.606750 0.690247 0.390778
0.652161 0.726044 0.427002
0.707550 0.757416 0.459442
0.774231 0.783813 0.487823
0.851349 0.805603 0.512665
0.937286 0.823425 0.534546
1.000000 0.842834 0.611603
1.000000 0.880371 0.762177
