projects/Week 3/res/luts/warm.cube
#Created by: Adobe Photoshop Export Color Lookup Plugin
TITLE "warm"
#LUT size
LUT_3D_SIZE 5
#data domain
#LUT data points
DOMAIN_MIN 0.000000 0.000000 0.000000
DOMAIN_MAX 0.903226 0.903226 0.903226
0.000000 0.000000 0.000000
0.178375 0.020355 0.020355
0.366241 0.036560 0.036560
0.554016 0.052887 0.052887
0.741791 0.069183 0.069183
0.111725 0.161469 0.040527
0.263153 0.191589 0.081573
0.467377 0.194153 0.126892
0.691864 0.184143 0.184143
0.878204 0.201019 0.201019
0.232727 0.322113 0.059753
0.350128 0.367828 0.110199
0.519073 0.389862 0.147064
0.714142 0.398132 0.186615
0.933258 0.391174 0.242188
0.353699 0.482849 0.079071
0.453827 0.536316 0.135193
0.600250 0.568970 0.176544
0.775024 0.588196 0.212616
0.966919 0.598267 0.250793
0.474548 0.643616 0.098358
0.565582 0.701080 0.157745
0.694885 0.741516 0.204010
0.853668 0.768463 0.242249
1.000000 0.788849 0.349945
0.081818 0.000427 0.000427
0.222900 0.036713 0.036713
0.400299 0.057465 0.057465
0.584381 0.075378 0.075378
0.770477 0.092407 0.092407
0.174255 0.169220 0.053833
0.308777 0.206573 0.102539
0.506958 0.211121 0.153778
0.722168 0.206665 0.206665
0.906799 0.224274 0.224274
0.276947 0.338287 0.078339
0.388977 0.386322 0.130920
0.553223 0.410309 0.169983
0.745941 0.419495 0.211060
0.964233 0.412750 0.267975
0.390564 0.502289 0.099945
0.489105 0.556427 0.156799
0.632721 0.590271 0.199341
0.805511 0.610352 0.236328
0.996277 0.620941 0.275146
0.507874 0.664673 0.120422
0.597961 0.722504 0.180084
0.725952 0.763519 0.227020
0.883331 0.791077 0.265839
1.000000 0.814453 0.438416
0.165619 0.000031 0.000031
0.294250 0.041595 0.041595
0.451050 0.071198 0.071198
0.625793 0.093109 0.093109
0.806854 0.112244 0.112244
0.273590 0.159149 0.062805
0.388763 0.204468 0.121521
0.578918 0.209839 0.189819
0.763214 0.224487 0.224487
0.943115 0.244171 0.244171
0.350525 0.341064 0.088684
0.453278 0.393005 0.145325
0.606171 0.421783 0.189911
0.792175 0.433624 0.234985
1.000000 0.430176 0.302856
0.449066 0.512024 0.114105
0.543427 0.567963 0.172760
0.680298 0.604614 0.218292
0.847687 0.626984 0.257843
1.000000 0.648071 0.345367
0.557190 0.678528 0.137299
0.645508 0.737152 0.197815
0.769501 0.779846 0.246429
0.923065 0.809052 0.286957
1.000000 0.838531 0.534790
0.248291 0.000031 0.000031
0.380920 0.039978 0.039978
0.517792 0.078094 0.078094
0.679382 0.105621 0.105621
0.852600 0.128143 0.128143
0.399292 0.132965 0.086395
0.508118 0.179321 0.156769
0.656372 0.208984 0.208984
0.816467 0.237183 0.237183
0.988739 0.260132 0.260132
0.444092 0.334106 0.096619
0.538849 0.389435 0.157043
0.678650 0.423645 0.208160
0.856079 0.438629 0.259918
1.000000 0.458344 0.377228
0.526428 0.513031 0.123505
0.616272 0.570801 0.184174
0.744110 0.611420 0.233795
0.903534 0.637054 0.277252
1.000000 0.674896 0.427551
0.623047 0.684875 0.149384
0.708832 0.744568 0.210968
0.827148 0.789703 0.262085
0.974762 0.821411 0.305359
1.000000 0.862183 0.633789
0.331085 0.000031 0.000031
0.474396 0.035400 0.035400
0.596039 0.080017 0.080017
0.744019 0.113342 0.113342
0.907623 0.140045 0.140045
0.525787 0.106903 0.106903
0.613037 0.166260 0.166260
0.733673 0.211334 0.211334
0.880676 0.245117 0.245117
1.000000 0.290802 0.290802
0.551086 0.319733 0.107361
0.640747 0.377167 0.170837
0.770020 0.415497 0.228607
0.940460 0.432190 0.289948
1.000000 0.481781 0.477509
0.617615 0.507324 0.131317
0.703613 0.566742 0.193817
0.822784 0.610962 0.247467
0.973083 0.640381 0.295502
1.000000 0.701416 0.510834
0.702545 0.684875 0.158386
0.785706 0.745728 0.221161
0.897949 0.793396 0.274994
1.000000 0.829559 0.418732
1.000000 0.886688 0.728149
