projects/Week 3/res/luts/WarmLut.CUBE
#Created by: Adobe Photoshop Export Color Lookup Plugin
TITLE "Warm"
#LUT size
LUT_3D_SIZE 5
#data domain
#LUT data points
DOMAIN_MIN 0.000000 0.000000 0.000000
DOMAIN_MAX 0.903226 0.903226 0.903226
0.000000 0.000000 0.000000
0.185638 0.017242 0.017242
0.379395 0.030945 0.030945
0.573120 0.044678 0.044678
0.766785 0.058502 0.058502
0.095947 0.171082 0.031891
0.255219 0.198303 0.067108
0.458679 0.203339 0.101227
0.705872 0.179291 0.172119
0.902557 0.190613 0.190613
0.204041 0.339630 0.044128
0.328583 0.382477 0.090454
0.504608 0.402069 0.121094
0.702087 0.410675 0.152100
0.914703 0.410095 0.191376
0.312347 0.508118 0.056366
0.417999 0.559265 0.109558
0.572876 0.588654 0.145447
0.754211 0.605774 0.175140
0.949280 0.615753 0.205322
0.420563 0.676605 0.068634
0.515625 0.732422 0.125885
0.653290 0.769470 0.167358
0.820251 0.793396 0.199738
1.000000 0.809387 0.239685
0.062592 0.000031 0.055176
0.219788 0.028015 0.091736
0.405182 0.046021 0.105530
0.596832 0.061981 0.113129
0.790741 0.078033 0.114075
0.150635 0.174988 0.087311
0.292145 0.210052 0.129242
0.489655 0.218292 0.162415
0.736053 0.195953 0.226105
0.928925 0.212585 0.226654
0.247162 0.356323 0.062683
0.365723 0.401764 0.111511
0.537231 0.423279 0.144196
0.732452 0.432831 0.176361
0.944061 0.432617 0.216431
0.348358 0.527985 0.077301
0.452057 0.579987 0.131348
0.604309 0.610474 0.168427
0.783630 0.628448 0.198883
0.977783 0.638794 0.229645
0.453217 0.697998 0.090759
0.547424 0.754150 0.148315
0.683533 0.791870 0.190491
0.849152 0.816345 0.223419
1.000000 0.832214 0.343109
0.124207 0.000031 0.113007
0.274200 0.024933 0.185760
0.440735 0.050629 0.209656
0.623749 0.069519 0.225250
0.812500 0.086212 0.236572
0.231201 0.157043 0.189911
0.351135 0.201050 0.242523
0.535126 0.213623 0.289001
0.761322 0.201996 0.350372
0.949036 0.219208 0.361938
0.302460 0.346893 0.188446
0.410980 0.396637 0.241211
0.571320 0.423279 0.277008
0.760773 0.435883 0.308685
0.970184 0.437439 0.345093
0.397491 0.531921 0.148102
0.496674 0.586090 0.203033
0.642120 0.620117 0.239319
0.817322 0.641144 0.264557
1.000000 0.656891 0.298248
0.500916 0.712677 0.107758
0.592804 0.769806 0.166260
0.724762 0.809357 0.210266
0.886536 0.835480 0.244873
1.000000 0.853210 0.456085
0.185760 0.000031 0.170685
0.344025 0.015320 0.272858
0.490753 0.049377 0.305847
0.661743 0.073181 0.327728
0.843445 0.092529 0.343964
0.331085 0.129211 0.292603
0.438232 0.178192 0.353546
0.615723 0.190338 0.420044
0.798676 0.205475 0.455688
0.979553 0.225220 0.472382
0.378357 0.330750 0.293823
0.477081 0.384674 0.351044
0.623688 0.416901 0.394257
0.803741 0.432983 0.432831
1.000000 0.439270 0.479645
0.454712 0.518555 0.289612
0.548279 0.574921 0.347748
0.683777 0.612762 0.390961
0.850464 0.636475 0.425110
1.000000 0.662689 0.492889
0.546295 0.703156 0.260712
0.635406 0.761597 0.320099
0.761292 0.803986 0.365112
0.917419 0.833099 0.399261
1.000000 0.864166 0.623291
0.247467 0.000031 0.228241
0.421082 0.002594 0.356659
0.551666 0.043488 0.396820
0.709717 0.072754 0.424774
0.882721 0.095734 0.445648
0.462219 0.080566 0.421600
0.559631 0.133972 0.485199
0.689209 0.175354 0.525848
0.846222 0.205048 0.554199
1.000000 0.238220 0.572815
0.466095 0.309723 0.392944
0.558350 0.366333 0.453461
0.692596 0.403656 0.503143
0.862762 0.423492 0.548706
1.000000 0.457733 0.606445
0.528198 0.503296 0.396881
0.617004 0.561676 0.457153
0.742737 0.603607 0.505157
0.900116 0.631073 0.544495
1.000000 0.679291 0.629364
0.606750 0.690247 0.390778
0.692566 0.750061 0.451782
0.811462 0.795288 0.500641
0.959961 0.827301 0.539734
1.000000 0.880371 0.762177
