projects/Week 3/res/luts/warm.cube
#Created by: Adobe Photoshop Export Color Lookup Plugin
TITLE "warm"
#LUT size
LUT_3D_SIZE 32
#data domain
DOMAIN_MIN 0.0 0.0 0.0
DOMAIN_MAX 1.0 1.0 1.0
#LUT data points
0.000000 0.000000 0.000000
0.021606 0.004578 0.004578
0.044830 0.008423 0.008423
0.071045 0.011017 0.011017
0.097931 0.013306 0.013306
0.124847 0.015594 0.015594
0.151764 0.017914 0.017914
0.178375 0.020355 0.020355
0.205353 0.022614 0.022614
0.232117 0.024963 0.024963
0.258972 0.027252 0.027252
0.285767 0.029602 0.029602
0.312592 0.031921 0.031921
0.339478 0.034210 0.034210
0.366241 0.036560 0.036560
0.393005 0.038910 0.038910
0.419983 0.041229 0.041229
0.446777 0.043549 0.043549
0.473602 0.045868 0.045868
0.500397 0.048218 0.048218
0.527222 0.050537 0.050537
0.554016 0.052887 0.052887
0.580841 0.055206 0.055206
0.607697 0.057526 0.057526
0.634552 0.059845 0.059845
0.661346 0.062164 0.062164
0.688202 0.064514 0.064514
0.714996 0.066864 0.066864
0.741791 0.069183 0.069183
0.768616 0.071503 0.071503
0.795441 0.073853 0.073853
0.822296 0.076141 0.076141
0.016266 0.021912 0.011261
0.038574 0.025879 0.017090
0.062195 0.029358 0.021942
0.090302 0.030701 0.026123
0.118134 0.032074 0.030640
0.145325 0.034027 0.034027
0.171783 0.036499 0.036499
0.198608 0.038818 0.038818
0.225067 0.041290 0.041290
0.251831 0.043640 0.043640
0.278748 0.045990 0.045990
0.305542 0.048309 0.048309
0.332092 0.050781 0.050781
0.359009 0.053040 0.053040
0.385773 0.055389 0.055389
0.412567 0.057739 0.057739
0.439362 0.060089 0.060089
0.466095 0.062439 0.062439
0.492920 0.064789 0.064789
0.519745 0.067139 0.067139
0.546600 0.069458 0.069458
0.573395 0.071777 0.071777
0.600159 0.074127 0.074127
0.626984 0.076447 0.076447
0.653778 0.078796 0.078796
0.680634 0.081116 0.081116
0.707397 0.083466 0.083466
0.734253 0.085785 0.085785
0.761017 0.088104 0.088104
0.787842 0.090454 0.090454
0.814667 0.092804 0.092804
0.841461 0.095123 0.095123
0.031738 0.044281 0.021790
0.054138 0.048279 0.027191
0.077576 0.051849 0.032166
0.104797 0.053589 0.036713
0.132050 0.055237 0.041504
0.160614 0.056152 0.046844
0.189667 0.056732 0.052307
0.218903 0.057343 0.057343
0.245331 0.059845 0.059845
0.271820 0.062317 0.062317
0.298645 0.064606 0.064606
0.325134 0.067108 0.067108
0.351837 0.069458 0.069458
0.378601 0.071808 0.071808
0.405243 0.074280 0.074280
0.432098 0.076569 0.076569
0.458832 0.078918 0.078918
0.485596 0.081268 0.081268
0.512329 0.083649 0.083649
0.539124 0.085999 0.085999
0.565887 0.088348 0.088348
0.592682 0.090698 0.090698
0.619507 0.093048 0.093048
0.646362 0.095367 0.095367
0.673096 0.097717 0.097717
0.699860 0.100067 0.100067
0.726654 0.102386 0.102386
0.753510 0.104706 0.104706
0.780273 0.107056 0.107056
0.807068 0.109406 0.109406
0.833893 0.111725 0.111725
0.860687 0.114075 0.114075
0.046112 0.068115 0.028046
0.068451 0.072113 0.033447
0.091125 0.076019 0.038757
0.116516 0.078552 0.043823
0.143829 0.080078 0.048981
0.171692 0.081329 0.054443
0.200348 0.082062 0.060089
0.230652 0.081909 0.066620
0.261292 0.081390 0.073669
0.292175 0.080780 0.080780
0.318695 0.083221 0.083221
0.345215 0.085693 0.085693
0.371796 0.088104 0.088104
0.398499 0.090485 0.090485
0.425140 0.092896 0.092896
0.451843 0.095276 0.095276
0.478546 0.097687 0.097687
0.505249 0.100067 0.100067
0.531952 0.102448 0.102448
0.558685 0.104797 0.104797
0.585419 0.107178 0.107178
0.612152 0.109528 0.109528
0.639008 0.111847 0.111847
0.665710 0.114227 0.114227
0.692444 0.116577 0.116577
0.719269 0.118927 0.118927
0.746063 0.121277 0.121277
0.772827 0.123627 0.123627
0.799652 0.125977 0.125977
0.826447 0.128296 0.128296
0.853241 0.130646 0.130646
0.880035 0.132996 0.132996
0.060303 0.092438 0.031860
0.083099 0.096222 0.037323
0.104218 0.100830 0.043030
0.127960 0.104156 0.048340
0.153351 0.106720 0.053467
0.180695 0.108185 0.058777
0.208618 0.109344 0.064392
0.237854 0.109711 0.070801
0.268646 0.109070 0.078125
0.299469 0.108429 0.085510
0.331329 0.107117 0.093689
0.364502 0.104919 0.102936
0.392059 0.106628 0.106628
0.418732 0.109039 0.109039
0.445160 0.111542 0.111542
0.471771 0.113953 0.113953
0.498474 0.116333 0.116333
0.525085 0.118744 0.118744
0.551788 0.121155 0.121155
0.578461 0.123535 0.123535
0.605133 0.125916 0.125916
0.631836 0.128296 0.128296
0.658539 0.130676 0.130676
0.685303 0.133026 0.133026
0.712097 0.135376 0.135376
0.738800 0.137726 0.137726
0.765564 0.140106 0.140106
0.792328 0.142456 0.142456
0.819031 0.144806 0.144806
0.845825 0.147156 0.147156
0.872650 0.149536 0.149536
0.899414 0.151855 0.151855
0.078003 0.115112 0.034912
0.097534 0.120453 0.040894
0.117279 0.125671 0.046967
0.139709 0.129700 0.052551
0.164368 0.132599 0.057648
0.189941 0.135010 0.062775
0.216583 0.136902 0.067932
0.244904 0.137848 0.073669
0.273712 0.138428 0.079803
0.303375 0.138550 0.086456
0.334686 0.137543 0.094208
0.367584 0.135498 0.103455
0.400757 0.133209 0.113098
0.435425 0.130005 0.123810
0.465607 0.129974 0.129974
0.492035 0.132446 0.132446
0.518585 0.134918 0.134918
0.545135 0.137360 0.137360
0.571716 0.139771 0.139771
0.598328 0.142181 0.142181
0.625031 0.144562 0.144562
0.651703 0.146973 0.146973
0.678406 0.149384 0.149384
0.705048 0.151794 0.151794
0.731750 0.154144 0.154144
0.758453 0.156525 0.156525
0.785187 0.158875 0.158875
0.811951 0.161255 0.161255
0.838654 0.163605 0.163605
0.865417 0.165985 0.165985
0.892181 0.168335 0.168335
0.918945 0.170685 0.170685
0.094574 0.138397 0.037842
0.113403 0.144043 0.044189
0.131805 0.149872 0.050690
0.153442 0.154205 0.056488
0.176331 0.157959 0.061890
0.200867 0.160919 0.067047
0.226440 0.163361 0.072083
0.253601 0.164978 0.077454
0.281250 0.166290 0.083038
0.309601 0.167175 0.088837
0.339142 0.167358 0.095245
0.369446 0.166992 0.102448
0.401154 0.165771 0.110687
0.433990 0.163727 0.119934
0.468933 0.160278 0.131226
0.505402 0.155792 0.143677
0.538971 0.153351 0.153351
0.565460 0.155823 0.155823
0.591919 0.158295 0.158295
0.618469 0.160736 0.160736
0.645020 0.163177 0.163177
0.671631 0.165619 0.165619
0.698303 0.167999 0.167999
0.724915 0.170441 0.170441
0.751587 0.172791 0.172791
0.778259 0.175201 0.175201
0.804962 0.177612 0.177612
0.831696 0.179962 0.179962
0.858398 0.182373 0.182373
0.885101 0.184753 0.184753
0.911835 0.187103 0.187103
0.938538 0.189484 0.189484
0.111725 0.161469 0.040527
0.129639 0.167480 0.047424
0.147003 0.173737 0.054260
0.166962 0.178864 0.060425
0.188751 0.183105 0.066040
0.212341 0.186554 0.071167
0.237335 0.189270 0.076355
0.263153 0.191589 0.081573
0.289886 0.193451 0.086731
0.317535 0.194733 0.092255
0.345734 0.195709 0.097992
0.374695 0.196320 0.104126
0.404602 0.196228 0.110931
0.435577 0.195465 0.118469
0.467377 0.194153 0.126892
0.500824 0.191711 0.136627
0.536377 0.187805 0.148438
0.574280 0.182343 0.162506
0.612396 0.176697 0.176697
0.638885 0.179230 0.179230
0.665344 0.181702 0.181702
0.691864 0.184143 0.184143
0.718475 0.186584 0.186584
0.744995 0.189026 0.189026
0.771637 0.191406 0.191406
0.798248 0.193848 0.193848
0.824890 0.196259 0.196259
0.851501 0.198669 0.198669
0.878204 0.201019 0.201019
0.904846 0.203430 0.203430
0.931549 0.205841 0.205841
0.958313 0.208221 0.208221
0.128906 0.184418 0.043274
0.145416 0.191101 0.050476
0.161926 0.197754 0.057648
0.180969 0.203339 0.064148
0.202209 0.207855 0.069916
0.224762 0.211731 0.075409
0.248840 0.214905 0.080658
0.273834 0.217651 0.085693
0.299988 0.219788 0.090881
0.326782 0.221558 0.096191
0.353882 0.223175 0.101593
0.382080 0.224182 0.107208
0.410675 0.224945 0.113251
0.440308 0.225037 0.119781
0.470673 0.224670 0.126892
0.501648 0.223938 0.134552
0.533875 0.222321 0.143250
0.567596 0.219696 0.153351
0.603027 0.215912 0.165070
0.642456 0.209351 0.180603
0.682648 0.202301 0.196899
0.712280 0.202576 0.202576
0.738739 0.205048 0.205048
0.765228 0.207550 0.207550
0.791809 0.209991 0.209991
0.818329 0.212433 0.212433
0.844940 0.214844 0.214844
0.871582 0.217255 0.217255
0.898163 0.219696 0.219696
0.924835 0.222076 0.222076
0.951477 0.224487 0.224487
0.978119 0.226868 0.226868
0.146576 0.207214 0.045959
0.161743 0.214508 0.053558
0.178314 0.221069 0.060944
0.196045 0.227203 0.067627
0.216278 0.232178 0.073822
0.237640 0.236664 0.079437
0.260864 0.240234 0.084839
0.285156 0.243408 0.089996
0.310486 0.245941 0.095123
0.336304 0.248260 0.100189
0.363098 0.250031 0.105499
0.390350 0.251617 0.110840
0.418335 0.252716 0.116516
0.446777 0.253540 0.122406
0.476105 0.253845 0.128754
0.505768 0.253906 0.135376
0.536377 0.253448 0.142700
0.568115 0.252197 0.150879
0.600616 0.250366 0.159821
0.634003 0.247955 0.169739
0.669891 0.243866 0.181793
0.708923 0.237579 0.197021
0.751373 0.228943 0.215607
0.785706 0.225952 0.225952
0.812134 0.228424 0.228424
0.838654 0.230865 0.230865
0.865143 0.233368 0.233368
0.891724 0.235809 0.235809
0.918274 0.238251 0.238251
0.944885 0.240662 0.240662
0.971466 0.243103 0.243103
0.998108 0.245514 0.245514
0.163605 0.230286 0.048828
0.178558 0.237640 0.056549
0.193787 0.244904 0.064209
0.211456 0.251007 0.071106
0.230530 0.256500 0.077484
0.251373 0.261230 0.083374
0.273865 0.265167 0.088867
0.297211 0.268677 0.094177
0.321625 0.271729 0.099396
0.346710 0.274414 0.104431
0.372894 0.276550 0.109558
0.399445 0.278503 0.114838
0.426971 0.279907 0.120270
0.454681 0.281189 0.125824
0.482971 0.282104 0.131653
0.511963 0.282623 0.137756
0.541473 0.282806 0.144257
0.571686 0.282501 0.151276
0.602417 0.281891 0.158722
0.634125 0.280670 0.166962
0.666779 0.278778 0.176086
0.700806 0.275940 0.186432
0.736877 0.271698 0.198669
0.775726 0.265564 0.213684
0.818848 0.256439 0.233002
0.859070 0.249359 0.249359
0.885529 0.251831 0.251831
0.912048 0.254272 0.254272
0.938538 0.256744 0.256744
0.965027 0.259216 0.259216
0.991638 0.261627 0.261627
1.000000 0.271942 0.271942
0.181091 0.253143 0.051544
0.195465 0.260742 0.059479
0.210144 0.268219 0.067322
0.226807 0.274841 0.074554
0.245209 0.280640 0.081146
0.265564 0.285583 0.087219
0.286957 0.290039 0.092896
0.309631 0.293854 0.098358
0.333557 0.297150 0.103638
0.358032 0.300110 0.108704
0.383331 0.302704 0.113800
0.409454 0.304871 0.118988
0.436127 0.306732 0.124237
0.463379 0.308258 0.129578
0.490845 0.309662 0.135010
0.519165 0.310638 0.140839
0.548065 0.311218 0.146881
0.577179 0.311646 0.153168
0.607056 0.311584 0.159912
0.637512 0.311157 0.167114
0.668579 0.310303 0.174835
0.700531 0.308868 0.183319
0.733459 0.306824 0.192596
0.767456 0.304016 0.203003
0.803467 0.299835 0.215210
0.841888 0.294006 0.229858
0.885284 0.284668 0.249390
0.932495 0.272705 0.272705
0.958954 0.275177 0.275177
0.985413 0.277679 0.277679
1.000000 0.285309 0.285309
1.000000 0.299103 0.299103
0.198273 0.276154 0.054291
0.212219 0.283936 0.062378
0.226410 0.291626 0.070374
0.242462 0.298492 0.077789
0.260498 0.304474 0.084564
0.279846 0.309845 0.090881
0.300598 0.314606 0.096771
0.322815 0.318695 0.102356
0.345856 0.322357 0.107758
0.369690 0.325684 0.112946
0.394409 0.328583 0.118073
0.419922 0.331024 0.123199
0.446014 0.333221 0.128357
0.472717 0.335022 0.133575
0.499573 0.336792 0.138824
0.527405 0.338013 0.144379
0.555511 0.339111 0.150085
0.584137 0.339844 0.156067
0.613037 0.340393 0.162170
0.642639 0.340515 0.168732
0.672699 0.340363 0.175659
0.703369 0.339752 0.183044
0.734955 0.338623 0.191101
0.766754 0.337250 0.199493
0.799988 0.334961 0.209076
0.834137 0.332031 0.219604
0.870026 0.327942 0.231720
0.908386 0.322174 0.246307
0.950897 0.313477 0.264923
0.999664 0.300446 0.289856
1.000000 0.312469 0.312469
1.000000 0.326324 0.326324
0.215576 0.299133 0.057037
0.229156 0.307068 0.065277
0.243195 0.314819 0.073456
0.258514 0.322021 0.080994
0.275665 0.328369 0.088013
0.294617 0.333954 0.094513
0.314880 0.338898 0.100616
0.335999 0.343475 0.106323
0.358612 0.347351 0.111816
0.381897 0.350952 0.117126
0.406158 0.354034 0.122345
0.430969 0.356873 0.127441
0.456512 0.359344 0.132568
0.482513 0.361572 0.137726
0.509186 0.363434 0.142944
0.536285 0.365051 0.148224
0.563812 0.366425 0.153687
0.591827 0.367523 0.159363
0.620178 0.368439 0.165222
0.649048 0.369049 0.171265
0.678375 0.369385 0.177673
0.708160 0.369354 0.184387
0.738556 0.368958 0.191528
0.769501 0.368225 0.199127
0.800934 0.367126 0.207153
0.833313 0.365448 0.215973
0.866669 0.363037 0.225677
0.900940 0.360046 0.236328
0.937042 0.355804 0.248596
0.974945 0.350281 0.262787
1.000000 0.348938 0.289642
1.000000 0.356659 0.336548
0.232727 0.322113 0.059753
0.245911 0.330231 0.068207
0.259644 0.338104 0.076416
0.274750 0.345398 0.084167
0.291626 0.351929 0.091339
0.309570 0.357941 0.097992
0.329224 0.363190 0.104309
0.350128 0.367828 0.110199
0.371735 0.372192 0.115814
0.394592 0.375977 0.121246
0.418152 0.379425 0.126526
0.442566 0.382416 0.131714
0.467407 0.385254 0.136780
0.492920 0.387726 0.141907
0.519073 0.389862 0.147064
0.545746 0.391785 0.152344
0.572754 0.393463 0.157623
0.600220 0.394867 0.163025
0.628143 0.396027 0.168640
0.656464 0.396942 0.174438
0.685120 0.397644 0.180420
0.714142 0.398132 0.186615
0.743744 0.398254 0.193207
0.773865 0.398102 0.200134
0.804413 0.397583 0.207428
0.835632 0.396667 0.215210
0.867371 0.395386 0.223480
0.899719 0.393677 0.232330
0.933258 0.391174 0.242188
0.967682 0.388062 0.252930
1.000000 0.385376 0.267426
1.000000 0.394897 0.304413
0.250305 0.344940 0.062500
0.262970 0.353302 0.071045
0.276184 0.361450 0.079437
0.291138 0.368774 0.087250
0.307251 0.375580 0.094604
0.324860 0.381775 0.101501
0.343750 0.387360 0.107910
0.364075 0.392273 0.113983
0.385345 0.396851 0.119812
0.407440 0.400940 0.125305
0.430664 0.404572 0.130676
0.454559 0.407837 0.135925
0.478882 0.410889 0.141083
0.503906 0.413605 0.146149
0.529602 0.416016 0.151276
0.555725 0.418121 0.156433
0.582306 0.420105 0.161682
0.609192 0.421844 0.166931
0.636627 0.423279 0.172363
0.664398 0.424500 0.177917
0.692688 0.425446 0.183655
0.721252 0.426239 0.189606
0.750122 0.426788 0.195709
0.779541 0.427032 0.202118
0.809357 0.427032 0.208862
0.839691 0.426697 0.215942
0.870331 0.426117 0.223328
0.901825 0.425079 0.231354
0.933624 0.423737 0.239746
0.966248 0.421844 0.248779
0.999695 0.419403 0.258636
1.000000 0.429169 0.293671
0.267181 0.368103 0.065277
0.280090 0.376373 0.073883
0.292969 0.384613 0.082336
0.307343 0.392212 0.090332
0.323273 0.399139 0.097809
0.340393 0.405548 0.104858
0.358765 0.411377 0.111450
0.378571 0.416534 0.117676
0.399261 0.421326 0.123627
0.420837 0.425690 0.129272
0.443329 0.429626 0.134735
0.466705 0.433136 0.140076
0.490723 0.436371 0.145294
0.515381 0.439240 0.150421
0.540375 0.442017 0.155518
0.566193 0.444305 0.160645
0.592316 0.446503 0.165802
0.618774 0.448517 0.170990
0.645752 0.450195 0.176270
0.673096 0.451660 0.181671
0.700745 0.452972 0.187195
0.728851 0.454010 0.192902
0.757355 0.454865 0.198761
0.786194 0.455444 0.204865
0.815430 0.455841 0.211151
0.844971 0.455994 0.217712
0.875092 0.455811 0.224640
0.905457 0.455414 0.231812
0.936401 0.454651 0.239380
0.967896 0.453522 0.247467
1.000000 0.452057 0.256165
1.000000 0.461914 0.291168
0.284668 0.390991 0.068024
0.297150 0.399445 0.076691
0.309753 0.407806 0.085297
0.323853 0.415558 0.093353
0.339172 0.422729 0.100983
0.356049 0.429199 0.108124
0.374084 0.435150 0.114899
0.393036 0.440735 0.121307
0.413391 0.445679 0.127380
0.434601 0.450226 0.133209
0.456604 0.454407 0.138794
0.479401 0.458191 0.144165
0.502930 0.461670 0.149475
0.527130 0.464783 0.154663
0.551788 0.467682 0.159821
0.576935 0.470337 0.164886
0.602722 0.472656 0.169983
0.628784 0.474915 0.175201
0.655457 0.476746 0.180389
0.682373 0.478485 0.185699
0.709534 0.480072 0.191010
0.737183 0.481384 0.196533
0.765228 0.482483 0.202209
0.793549 0.483368 0.207977
0.822235 0.484070 0.213989
0.851349 0.484497 0.220215
0.880707 0.484802 0.226654
0.910461 0.484802 0.233307
0.940643 0.484619 0.240326
0.971375 0.483978 0.247711
1.000000 0.484009 0.257782
1.000000 0.493713 0.293579
0.301910 0.413940 0.070801
0.314209 0.422485 0.079529
0.326691 0.430939 0.088165
0.340424 0.438812 0.096375
0.355621 0.446045 0.104095
0.371857 0.452820 0.111420
0.389313 0.459045 0.118317
0.408142 0.464691 0.124878
0.427826 0.469910 0.131104
0.448425 0.474731 0.137024
0.469910 0.479126 0.142700
0.492340 0.483093 0.148224
0.515442 0.486755 0.153595
0.539215 0.490112 0.158875
0.563538 0.493164 0.164032
0.588287 0.496033 0.169159
0.613556 0.498627 0.174255
0.639191 0.501038 0.179352
0.665344 0.503174 0.184509
0.691895 0.505127 0.189728
0.718872 0.506836 0.195007
0.746033 0.508453 0.200409
0.773712 0.509735 0.205902
0.801544 0.510925 0.211487
0.829803 0.511902 0.217224
0.858337 0.512695 0.223145
0.887238 0.513245 0.229248
0.916534 0.513580 0.235626
0.946136 0.513672 0.242188
0.976135 0.513580 0.249023
1.000000 0.515320 0.262695
1.000000 0.524872 0.299469
0.319061 0.436981 0.073578
0.331177 0.445557 0.082336
0.343628 0.454010 0.091064
0.357300 0.461945 0.099335
0.371826 0.469482 0.107178
0.387909 0.476349 0.114624
0.404938 0.482788 0.121735
0.423248 0.488586 0.128387
0.442505 0.494019 0.134705
0.462769 0.498993 0.140778
0.483673 0.503662 0.146606
0.505524 0.507935 0.152222
0.528290 0.511719 0.157654
0.551514 0.515320 0.162994
0.575409 0.518585 0.168213
0.599762 0.521667 0.173370
0.624664 0.524475 0.178497
0.650024 0.527039 0.183655
0.675781 0.529358 0.188751
0.701965 0.531494 0.193909
0.728546 0.533417 0.199127
0.755310 0.535217 0.204346
0.782532 0.536774 0.209717
0.810089 0.538147 0.215179
0.837921 0.539337 0.220764
0.866058 0.540405 0.226501
0.894531 0.541229 0.232361
0.923248 0.541931 0.238403
0.952362 0.542358 0.244629
0.981903 0.542511 0.251129
1.000000 0.546082 0.270630
1.000000 0.555450 0.308502
0.336456 0.459900 0.076324
0.348541 0.468506 0.085175
0.360657 0.477081 0.093903
0.373810 0.485260 0.102295
0.388184 0.492859 0.110260
0.403900 0.499847 0.117798
0.420654 0.506378 0.124969
0.438446 0.512451 0.131805
0.457275 0.518066 0.138245
0.477142 0.523254 0.144501
0.497772 0.528076 0.150452
0.519165 0.532532 0.156158
0.541351 0.536591 0.161682
0.564301 0.540344 0.167114
0.587708 0.543854 0.172424
0.611633 0.547119 0.177612
0.636230 0.550049 0.182739
0.661224 0.552795 0.187897
0.686615 0.555328 0.192993
0.712402 0.557648 0.198120
0.738434 0.559875 0.203247
0.764984 0.561829 0.208466
0.791901 0.563538 0.213745
0.819031 0.565155 0.219086
0.846466 0.566559 0.224518
0.874207 0.567841 0.230042
0.902374 0.568848 0.235748
0.930664 0.569763 0.241547
0.959442 0.570404 0.247559
0.988373 0.570984 0.253723
1.000000 0.576416 0.281006
1.000000 0.585571 0.320129
0.353699 0.482849 0.079071
0.365387 0.491699 0.088013
0.377655 0.500214 0.096802
0.390717 0.508392 0.105255
0.404999 0.516022 0.113281
0.420105 0.523285 0.120941
0.436523 0.529968 0.128235
0.453827 0.536316 0.135193
0.472351 0.542053 0.141815
0.491760 0.547394 0.148132
0.511932 0.552399 0.154175
0.533051 0.556976 0.160034
0.554718 0.561310 0.165649
0.577240 0.565247 0.171143
0.600250 0.568970 0.176544
0.623901 0.572357 0.181824
0.648132 0.575470 0.187012
0.672638 0.578430 0.192108
0.697693 0.581146 0.197235
0.723114 0.583649 0.202332
0.748901 0.585999 0.207489
0.775024 0.588196 0.212616
0.801544 0.590149 0.217865
0.828369 0.591919 0.223083
0.855591 0.593475 0.228455
0.882996 0.594940 0.233887
0.910675 0.596222 0.239380
0.938599 0.597351 0.244995
0.966919 0.598267 0.250793
0.995514 0.599060 0.256744
1.000000 0.606232 0.294037
1.000000 0.615112 0.334320
0.371033 0.505768 0.081818
0.382568 0.514648 0.090790
0.394592 0.523285 0.099609
0.407471 0.531525 0.108124
0.421509 0.539307 0.116272
0.436462 0.546661 0.124054
0.452454 0.553558 0.131470
0.469635 0.559906 0.138519
0.487640 0.565887 0.145264
0.506531 0.571472 0.151672
0.526337 0.576660 0.157867
0.547028 0.581421 0.163818
0.568420 0.585876 0.169586
0.590485 0.589996 0.175140
0.613129 0.593872 0.180603
0.636292 0.597504 0.185913
0.660095 0.600891 0.191193
0.684418 0.603912 0.196350
0.709045 0.606842 0.201477
0.734161 0.609528 0.206604
0.759583 0.612030 0.211700
0.785461 0.614349 0.216858
0.811615 0.616455 0.222015
0.838135 0.618408 0.227203
0.864838 0.620239 0.232422
0.892029 0.621887 0.237793
0.919373 0.623352 0.243164
0.947083 0.624664 0.248718
0.975006 0.625793 0.254303
1.000000 0.627625 0.264618
1.000000 0.635620 0.309570
1.000000 0.644257 0.351135
0.388245 0.528809 0.084595
0.399933 0.537567 0.093567
0.411682 0.546356 0.102478
0.424377 0.554688 0.111053
0.438141 0.562531 0.119232
0.452850 0.570007 0.127136
0.468536 0.577026 0.134613
0.485352 0.583527 0.141785
0.502930 0.589722 0.148651
0.521576 0.595459 0.155243
0.540985 0.600800 0.161530
0.561279 0.605774 0.167603
0.582306 0.610382 0.173462
0.603790 0.614777 0.179108
0.626251 0.618713 0.184601
0.649139 0.622467 0.190002
0.672424 0.626038 0.195312
0.696381 0.629333 0.200562
0.720734 0.632385 0.205719
0.745514 0.635223 0.210846
0.770660 0.637909 0.216003
0.796143 0.640381 0.221100
0.821930 0.642700 0.226196
0.848145 0.644836 0.231354
0.874603 0.646790 0.236542
0.901428 0.648560 0.241791
0.928497 0.650208 0.247101
0.955780 0.651733 0.252502
0.983459 0.653015 0.257996
1.000000 0.656769 0.281311
1.000000 0.664551 0.327515
1.000000 0.672943 0.370331
0.405609 0.551697 0.087311
0.416931 0.560638 0.096344
0.428711 0.569427 0.105347
0.441284 0.577820 0.113922
0.454742 0.585815 0.122223
0.469177 0.593384 0.130188
0.484833 0.600433 0.137787
0.501099 0.607178 0.145050
0.518433 0.613495 0.152039
0.536713 0.619324 0.158661
0.555847 0.624786 0.165100
0.575562 0.630005 0.171265
0.596344 0.634766 0.177216
0.617584 0.639313 0.183014
0.639587 0.643494 0.188629
0.662048 0.647461 0.194092
0.685059 0.651123 0.199432
0.708649 0.654572 0.204742
0.732666 0.657745 0.209930
0.757172 0.660736 0.215088
0.781921 0.663605 0.220184
0.807159 0.666260 0.225342
0.832703 0.668732 0.230469
0.858582 0.670990 0.235565
0.884766 0.673126 0.240753
0.911224 0.675110 0.245911
0.937988 0.676910 0.251190
0.965027 0.678558 0.256470
0.992279 0.680115 0.261841
1.000000 0.685394 0.300476
1.000000 0.692932 0.348206
1.000000 0.701111 0.392212
0.422882 0.574677 0.090088
0.434113 0.583649 0.099152
0.445740 0.592468 0.108154
0.458191 0.600922 0.116791
0.471436 0.609009 0.125153
0.485809 0.616608 0.133179
0.501068 0.623871 0.140930
0.517059 0.630737 0.148285
0.534149 0.637115 0.155334
0.552032 0.643188 0.162140
0.570801 0.648804 0.168640
0.590302 0.654144 0.174927
0.610565 0.659088 0.180969
0.631561 0.663727 0.186829
0.653076 0.668121 0.192535
0.675201 0.672241 0.198090
0.698029 0.676056 0.203522
0.721130 0.679688 0.208862
0.744934 0.683014 0.214111
0.769073 0.686188 0.219330
0.793457 0.689209 0.224426
0.818359 0.692017 0.229584
0.843628 0.694580 0.234680
0.869232 0.697021 0.239807
0.895111 0.699310 0.244934
0.921295 0.701477 0.250092
0.947784 0.703430 0.255310
0.974518 0.705261 0.260529
1.000000 0.707214 0.268829
1.000000 0.713562 0.322571
1.000000 0.720825 0.371674
1.000000 0.728760 0.416870
0.440125 0.597656 0.092865
0.451416 0.606598 0.101929
0.462830 0.615509 0.110931
0.475128 0.624023 0.119659
0.488220 0.632202 0.128113
0.502350 0.639893 0.136169
0.517334 0.647217 0.143982
0.533081 0.654236 0.151459
0.549896 0.660736 0.158600
0.567505 0.666901 0.165497
0.585846 0.672791 0.172150
0.605072 0.678223 0.178528
0.625000 0.683350 0.184692
0.645660 0.688141 0.190643
0.666840 0.692688 0.196442
0.688599 0.696960 0.202057
0.711060 0.700928 0.207550
0.733948 0.704681 0.212952
0.757294 0.708252 0.218262
0.781158 0.711517 0.223511
0.805267 0.714691 0.228668
0.829865 0.717621 0.233826
0.854919 0.720337 0.238953
0.880157 0.722961 0.244080
0.905731 0.725372 0.249146
0.931610 0.727661 0.254272
0.957886 0.729767 0.259460
0.984283 0.731750 0.264618
1.000000 0.735077 0.292236
1.000000 0.741150 0.347748
1.000000 0.748138 0.398224
1.000000 0.755890 0.444550
0.457397 0.620605 0.095581
0.468567 0.629578 0.104706
0.479950 0.638550 0.113770
0.492249 0.647095 0.122559
0.505157 0.655304 0.131012
0.518982 0.663177 0.139221
0.533752 0.670593 0.147034
0.549316 0.677643 0.154602
0.565674 0.684387 0.161865
0.583008 0.690674 0.168884
0.601166 0.696594 0.175568
0.620056 0.702148 0.182037
0.639648 0.707428 0.188293
0.659851 0.712433 0.194366
0.680786 0.717163 0.200256
0.702271 0.721527 0.205963
0.724335 0.725677 0.211548
0.746857 0.729614 0.217010
