projects/Week 3/res/luts/WarmLut.CUBE
#Created by: Adobe Photoshop Export Color Lookup Plugin
TITLE "Warm"
#LUT size
LUT_3D_SIZE 32
#data domain
DOMAIN_MIN 0.0 0.0 0.0
DOMAIN_MAX 1.0 1.0 1.0
#LUT data points
0.000000 0.000000 0.000000
0.022827 0.004059 0.004059
0.047241 0.007416 0.007416
0.075378 0.009155 0.009155
0.103088 0.011108 0.011108
0.130310 0.013245 0.013245
0.158051 0.015228 0.015228
0.185638 0.017242 0.017242
0.213470 0.019104 0.019104
0.241241 0.021057 0.021057
0.268799 0.023041 0.023041
0.296478 0.024994 0.024994
0.324219 0.026947 0.026947
0.351776 0.028961 0.028961
0.379395 0.030945 0.030945
0.407104 0.032867 0.032867
0.434845 0.034851 0.034851
0.462494 0.036804 0.036804
0.490173 0.038788 0.038788
0.517822 0.040771 0.040771
0.545502 0.042725 0.042725
0.573120 0.044678 0.044678
0.600800 0.046661 0.046661
0.628448 0.048645 0.048645
0.656097 0.050598 0.050598
0.683777 0.052551 0.052551
0.711456 0.054565 0.054565
0.739075 0.056519 0.056519
0.766785 0.058502 0.058502
0.794434 0.060455 0.060455
0.822083 0.062408 0.062408
0.849792 0.064392 0.064392
0.013733 0.023499 0.009705
0.037354 0.026947 0.014557
0.063049 0.029480 0.018921
0.090668 0.031189 0.022400
0.120483 0.031677 0.026367
0.149902 0.032318 0.030792
0.178040 0.033844 0.033844
0.205627 0.035828 0.035828
0.233124 0.037872 0.037872
0.260803 0.039825 0.039825
0.288391 0.041840 0.041840
0.316101 0.043823 0.043823
0.343567 0.045868 0.045868
0.371277 0.047791 0.047791
0.398865 0.049805 0.049805
0.426483 0.051758 0.051758
0.454254 0.053711 0.053711
0.481781 0.055725 0.055725
0.509460 0.057709 0.057709
0.537140 0.059662 0.059662
0.564728 0.061676 0.061676
0.592438 0.063629 0.063629
0.620056 0.065613 0.065613
0.647705 0.067596 0.067596
0.675354 0.069550 0.069550
0.703003 0.071533 0.071533
0.730621 0.073517 0.073517
0.758301 0.075470 0.075470
0.785950 0.077423 0.077423
0.813629 0.079407 0.079407
0.841309 0.081390 0.081390
0.868927 0.083374 0.083374
0.026886 0.047394 0.018494
0.050507 0.050873 0.023346
0.075989 0.053497 0.027710
0.103607 0.055206 0.031494
0.131439 0.056732 0.035370
0.161163 0.057129 0.039948
0.190948 0.057495 0.044769
0.221436 0.057373 0.050354
0.252869 0.056671 0.056183
0.280701 0.058502 0.058502
0.308044 0.060608 0.060608
0.335663 0.062561 0.062561
0.363190 0.064606 0.064606
0.390686 0.066650 0.066650
0.418304 0.068665 0.068665
0.445892 0.070648 0.070648
0.473572 0.072601 0.072601
0.501190 0.074615 0.074615
0.528809 0.076599 0.076599
0.556427 0.078552 0.078552
0.584045 0.080566 0.080566
0.611694 0.082550 0.082550
0.639343 0.084564 0.084564
0.666992 0.086517 0.086517
0.694580 0.088531 0.088531
0.722229 0.090485 0.090485
0.749908 0.092438 0.092438
0.777557 0.094421 0.094421
0.805176 0.096405 0.096405
0.832794 0.098358 0.098358
0.860443 0.100342 0.100342
0.888123 0.102325 0.102325
0.038635 0.072906 0.022736
0.062042 0.076477 0.027496
0.086578 0.079559 0.032135
0.112305 0.082123 0.036255
0.140137 0.083557 0.040588
0.168701 0.084625 0.044952
0.198242 0.085052 0.049927
0.228912 0.084839 0.055695
0.259705 0.084473 0.061493
0.291595 0.083435 0.068054
0.323975 0.082062 0.075104
0.355621 0.081238 0.081238
0.382904 0.083344 0.083344
0.410522 0.085358 0.085358
0.437988 0.087372 0.087372
0.465546 0.089417 0.089417
0.493195 0.091431 0.091431
0.520660 0.093445 0.093445
0.548309 0.095428 0.095428
0.575867 0.097443 0.097443
0.603455 0.099426 0.099426
0.631073 0.101440 0.101440
0.658691 0.103394 0.103394
0.686310 0.105408 0.105408
0.713928 0.107391 0.107391
0.741547 0.109344 0.109344
0.769196 0.111389 0.111389
0.796844 0.113342 0.113342
0.824493 0.115326 0.115326
0.852112 0.117310 0.117310
0.879730 0.119293 0.119293
0.907349 0.121277 0.121277
0.050232 0.098633 0.026031
0.074432 0.101929 0.030487
0.096741 0.106079 0.035309
0.121704 0.108917 0.039795
0.148315 0.111023 0.044098
0.175812 0.112671 0.048187
0.204163 0.113831 0.052643
0.233154 0.114563 0.057373
0.263580 0.114471 0.062958
0.294739 0.113861 0.069061
0.326294 0.113007 0.075836
0.359772 0.110901 0.083923
0.393158 0.108795 0.092102
0.427612 0.105988 0.101196
0.457886 0.106049 0.106049
0.485382 0.108124 0.108124
0.512848 0.110168 0.110168
0.540375 0.112183 0.112183
0.567902 0.114227 0.114227
0.595490 0.116241 0.116241
0.623047 0.118256 0.118256
0.650635 0.120270 0.120270
0.678162 0.122253 0.122253
0.705780 0.124237 0.124237
0.733398 0.126221 0.126221
0.761017 0.128235 0.128235
0.788605 0.130219 0.130219
0.816223 0.132202 0.132202
0.843811 0.134216 0.134216
0.871460 0.136169 0.136169
0.899078 0.138184 0.138184
0.926697 0.140167 0.140167
0.066040 0.122467 0.028107
0.087280 0.127106 0.033081
0.108002 0.131927 0.038635
0.132324 0.135162 0.043335
0.157349 0.138062 0.047546
0.184204 0.139984 0.051788
0.211639 0.141632 0.056000
0.239655 0.142975 0.060333
0.268524 0.143860 0.065002
0.298279 0.144196 0.070068
0.328186 0.144348 0.075439
0.359680 0.143524 0.081848
0.391724 0.142365 0.088837
0.425598 0.139923 0.097412
0.460236 0.136993 0.106903
0.496460 0.132935 0.117706
0.532806 0.128784 0.128784
0.560303 0.130859 0.130859
0.587708 0.132935 0.132935
0.615234 0.134918 0.134918
0.642761 0.136963 0.136963
0.670288 0.139008 0.139008
0.697906 0.141022 0.141022
0.725433 0.143036 0.143036
0.752960 0.145050 0.145050
0.780579 0.147064 0.147064
0.808167 0.149048 0.149048
0.835724 0.151031 0.151031
0.863281 0.153046 0.153046
0.890930 0.155029 0.155029
0.918518 0.157043 0.157043
0.946136 0.159027 0.159027
0.080750 0.146881 0.030090
0.100464 0.152222 0.035706
0.120544 0.157288 0.041534
0.143127 0.161285 0.046478
0.167450 0.164490 0.050995
0.193024 0.167114 0.055176
0.219910 0.169037 0.059509
0.247131 0.170837 0.063690
0.275177 0.172180 0.068024
0.304016 0.173065 0.072632
0.333008 0.173828 0.077423
0.363159 0.173889 0.082764
0.393616 0.173737 0.088409
0.424713 0.173157 0.094666
0.456909 0.171875 0.101776
0.490143 0.169830 0.109863
0.525177 0.166687 0.119568
0.562653 0.161774 0.131683
0.600098 0.156860 0.143890
0.635223 0.153595 0.153595
0.662598 0.155670 0.155670
0.690125 0.157684 0.157684
0.717590 0.159729 0.159729
0.745148 0.161743 0.161743
0.772675 0.163788 0.163788
0.800171 0.165802 0.165802
0.827789 0.167847 0.167847
0.855347 0.169830 0.169830
0.882904 0.171875 0.171875
0.910522 0.173859 0.173859
0.938080 0.175873 0.175873
0.965637 0.177856 0.177856
0.095947 0.171082 0.031891
0.114685 0.176788 0.038086
0.133789 0.182343 0.044128
0.155029 0.186951 0.049622
0.177979 0.190765 0.054352
0.202667 0.193817 0.058655
0.228729 0.196167 0.063019
0.255219 0.198303 0.067108
0.282501 0.200073 0.071320
0.310638 0.201355 0.075653
0.338898 0.202545 0.080109
0.368225 0.203156 0.084930
0.397705 0.203644 0.089905
0.428162 0.203522 0.095490
0.458679 0.203339 0.101227
0.490082 0.202576 0.107635
0.522156 0.201324 0.114685
0.555634 0.199188 0.122955
0.590057 0.196350 0.132202
0.626312 0.192322 0.143188
0.665588 0.186127 0.157135
0.705872 0.179291 0.172119
0.737549 0.178375 0.178375
0.764954 0.180450 0.180450
0.792511 0.182465 0.182465
0.820038 0.184509 0.184509
0.847504 0.186554 0.186554
0.875000 0.188568 0.188568
0.902557 0.190613 0.190613
0.930084 0.192627 0.192627
0.957672 0.194641 0.194641
0.985260 0.196655 0.196655
0.111420 0.195129 0.033478
0.129089 0.201324 0.040131
0.146606 0.207611 0.046722
0.166931 0.212616 0.052521
0.189697 0.216492 0.057495
0.213074 0.220154 0.062134
0.238068 0.223053 0.066467
0.263885 0.225525 0.070648
0.291046 0.227325 0.074860
0.318207 0.229126 0.079071
0.346100 0.230560 0.083344
0.374695 0.231567 0.087860
0.403320 0.232574 0.092438
0.432678 0.233124 0.097321
0.462524 0.233368 0.102539
0.492920 0.233307 0.108124
0.523895 0.232849 0.114105
0.555176 0.232147 0.120544
0.587555 0.230743 0.127747
0.620789 0.228729 0.135803
0.654541 0.226349 0.144470
0.690613 0.222382 0.155212
0.728577 0.217133 0.167908
0.770081 0.209442 0.184113
0.812469 0.201141 0.201141
0.839935 0.203186 0.203186
0.867371 0.205231 0.205231
0.894897 0.207275 0.207275
0.922363 0.209320 0.209320
0.949890 0.211334 0.211334
0.977417 0.213348 0.213348
1.000000 0.217499 0.217499
0.127197 0.219086 0.035278
0.143402 0.225922 0.042297
0.160553 0.232330 0.049194
0.179993 0.237701 0.055145
0.201447 0.242218 0.060516
0.223969 0.246216 0.065369
0.248444 0.249359 0.069946
0.273560 0.252197 0.074219
0.299866 0.254456 0.078400
0.326660 0.256439 0.082550
0.353729 0.258301 0.086731
0.381744 0.259674 0.091064
0.409973 0.260895 0.095428
0.438538 0.261932 0.099976
0.467743 0.262573 0.104797
0.497314 0.262970 0.109833
0.527466 0.263092 0.115173
0.558136 0.262817 0.120972
0.588898 0.262451 0.126923
0.620605 0.261505 0.133575
0.652863 0.260162 0.140747
0.685760 0.258392 0.148529
0.719635 0.255951 0.157257
0.754730 0.252655 0.167175
0.792053 0.247803 0.179169
0.831970 0.241180 0.193787
0.876282 0.231537 0.212769
0.914856 0.225922 0.225922
0.942291 0.227966 0.227966
0.969757 0.230011 0.230011
0.997284 0.232056 0.232056
1.000000 0.244720 0.244720
0.142365 0.243317 0.037109
0.157959 0.250427 0.044373
0.174744 0.256958 0.051453
0.192993 0.262878 0.057770
0.213562 0.267792 0.063446
0.235931 0.271851 0.068512
0.259155 0.275574 0.073181
0.283813 0.278595 0.077667
0.309174 0.281281 0.081909
0.335419 0.283569 0.086090
0.362152 0.285614 0.090240
0.389465 0.287384 0.094513
0.417175 0.288910 0.098724
0.445374 0.290131 0.103149
0.473846 0.291199 0.107605
0.503021 0.291870 0.112396
0.532501 0.292389 0.117340
0.562256 0.292664 0.122467
0.592255 0.292816 0.127808
0.623016 0.292542 0.133698
0.654175 0.291962 0.139893
0.685669 0.291107 0.146454
0.717834 0.289825 0.153564
0.751007 0.287872 0.161499
0.784790 0.285461 0.170105
0.819397 0.282532 0.179596
0.855835 0.278290 0.190704
0.894623 0.272491 0.204163
0.937500 0.263794 0.221680
0.984711 0.252106 0.243622
1.000000 0.258057 0.258057
1.000000 0.271912 0.271912
0.158142 0.267212 0.038757
0.173065 0.274597 0.046265
0.188843 0.281586 0.053650
0.206360 0.287872 0.060303
0.226196 0.293121 0.066223
0.247803 0.297546 0.071533
0.270569 0.301453 0.076447
0.294281 0.304901 0.081024
0.319061 0.307892 0.085388
0.344757 0.310455 0.089630
0.370941 0.312714 0.093842
0.397736 0.314758 0.097992
0.425110 0.316406 0.102203
0.452850 0.317932 0.106445
0.480835 0.319305 0.110748
0.509521 0.320312 0.115356
0.538300 0.321198 0.119965
0.567474 0.321869 0.124756
0.596893 0.322388 0.129700
0.626923 0.322510 0.135010
0.657318 0.322449 0.140625
0.687958 0.322144 0.146423
0.719177 0.321503 0.152649
0.750977 0.320526 0.159424
0.783234 0.319183 0.166595
0.815979 0.317505 0.174255
0.849762 0.315125 0.182831
0.884308 0.312225 0.192169
0.920105 0.308441 0.202759
0.957916 0.303314 0.215240
0.998291 0.296356 0.230347
1.000000 0.304016 0.272827
0.173340 0.291412 0.040558
0.188019 0.298889 0.048309
0.203278 0.306122 0.055786
0.220459 0.312531 0.062683
0.239532 0.318054 0.068817
0.259888 0.323059 0.074402
0.281952 0.327271 0.079498
0.305389 0.330933 0.084259
0.329529 0.334229 0.088776
0.354645 0.337036 0.093109
0.380310 0.339569 0.097351
0.406616 0.341858 0.101532
0.433350 0.343872 0.105713
0.460602 0.345612 0.109863
0.488190 0.347198 0.114075
0.516418 0.348450 0.118500
0.544861 0.349609 0.122955
0.573456 0.350586 0.127502
0.602661 0.351257 0.132263
0.631989 0.351807 0.137146
0.661774 0.352112 0.142303
0.691772 0.352264 0.147644
0.722321 0.352081 0.153381
0.753052 0.351715 0.159271
0.784424 0.350983 0.165588
0.816101 0.350067 0.172302
0.848297 0.348755 0.179443
0.881073 0.347076 0.187103
0.914673 0.344849 0.195526
0.949066 0.342041 0.204712
0.984619 0.338440 0.214996
1.000000 0.342407 0.240021
0.188690 0.315552 0.042358
0.202911 0.323212 0.050262
0.217682 0.330658 0.058014
0.234375 0.337280 0.065002
0.252563 0.343231 0.071381
0.272797 0.348267 0.077148
0.294159 0.352814 0.082458
0.316864 0.356750 0.087463
0.340454 0.360260 0.092102
0.364624 0.363525 0.096527
0.389984 0.366241 0.100861
0.415863 0.368774 0.105072
0.442291 0.370911 0.109253
0.468994 0.372955 0.113403
0.496399 0.374634 0.117615
0.524017 0.376221 0.121857
0.551941 0.377594 0.126160
0.580231 0.378784 0.130554
0.608887 0.379791 0.135132
0.637787 0.380646 0.139771
0.667053 0.381256 0.144623
0.696564 0.381714 0.149628
0.726532 0.381927 0.154938
0.756683 0.381958 0.160370
0.787231 0.381775 0.166107
0.818298 0.381226 0.172180
0.849579 0.380524 0.178497
0.881317 0.379547 0.185242
0.913574 0.378174 0.192444
0.946289 0.376556 0.200043
0.979767 0.374390 0.208344
1.000000 0.377014 0.227417
0.204041 0.339630 0.044128
0.218201 0.347321 0.052094
0.232300 0.355072 0.059998
0.248627 0.361816 0.067200
0.266327 0.368042 0.073792
0.285675 0.373505 0.079865
0.306488 0.378296 0.085388
0.328583 0.382477 0.090454
0.351379 0.386383 0.095306
0.375427 0.389709 0.099884
0.400269 0.392670 0.104309
0.425446 0.395447 0.108582
0.451447 0.397827 0.112793
0.477844 0.400024 0.116943
0.504608 0.402069 0.121094
0.531982 0.403778 0.125336
0.559509 0.405396 0.129547
0.587433 0.406799 0.133850
0.615662 0.408020 0.138245
0.644196 0.409088 0.142731
0.673035 0.409943 0.147339
0.702087 0.410675 0.152100
0.731567 0.411163 0.157074
0.761353 0.411530 0.162231
0.791351 0.411652 0.167542
0.821625 0.411652 0.173065
0.852356 0.411346 0.178925
0.883270 0.410858 0.184937
0.914703 0.410095 0.191376
0.946503 0.409058 0.198151
0.978790 0.407715 0.205353
1.000000 0.410217 0.222198
0.219727 0.363617 0.045807
0.233246 0.371582 0.053986
0.247070 0.379456 0.062012
0.262665 0.386566 0.069458
0.280060 0.392853 0.076172
0.298828 0.398560 0.082428
0.319000 0.403595 0.088135
0.340363 0.408142 0.093445
0.363007 0.412140 0.098480
0.386383 0.415802 0.103149
0.410706 0.418976 0.107666
0.435608 0.421906 0.112000
0.461029 0.424591 0.116333
0.487030 0.427002 0.120514
0.513489 0.429138 0.124664
0.540344 0.431091 0.128845
0.567688 0.432892 0.133057
0.595093 0.434540 0.137268
0.623077 0.435913 0.141571
0.651215 0.437195 0.145905
0.679565 0.438324 0.150360
0.708344 0.439240 0.154938
0.737427 0.439972 0.159698
0.766632 0.440613 0.164520
0.796204 0.441040 0.169556
0.826111 0.441284 0.174805
0.856171 0.441376 0.180176
0.886688 0.441254 0.185852
0.917358 0.440979 0.191681
0.948425 0.440399 0.197815
0.979889 0.439636 0.204285
1.000000 0.442627 0.221344
0.235046 0.387787 0.047577
0.248230 0.395905 0.055878
0.262146 0.403717 0.063965
0.277191 0.411072 0.071564
0.294037 0.417603 0.078522
0.312134 0.423615 0.084930
0.331940 0.428833 0.090881
0.352966 0.433563 0.096344
0.374878 0.437836 0.101471
0.397858 0.441650 0.106323
0.421417 0.445190 0.110962
0.445984 0.448273 0.115417
0.470978 0.451141 0.119751
0.496460 0.453796 0.123993
0.522552 0.456146 0.128204
0.549042 0.458282 0.132355
0.575989 0.460266 0.136536
0.603180 0.462067 0.140717
0.630707 0.463684 0.144958
0.658600 0.465088 0.149231
0.686768 0.466370 0.153625
0.715057 0.467529 0.158020
0.743652 0.468536 0.162537
0.772522 0.469391 0.167206
0.801849 0.470062 0.172058
0.831207 0.470612 0.177002
0.860931 0.470917 0.182129
0.890869 0.471130 0.187408
0.921112 0.471100 0.192871
0.951599 0.470917 0.198578
0.982452 0.470551 0.204529
1.000000 0.474457 0.223724
0.250763 0.411713 0.049316
0.263580 0.420013 0.057709
0.276978 0.428101 0.066010
0.291656 0.435577 0.073700
0.308075 0.442291 0.080811
0.325867 0.448425 0.087372
0.345184 0.453857 0.093475
0.365479 0.458893 0.099152
0.386871 0.463409 0.104431
0.409393 0.467468 0.109467
0.432648 0.471161 0.114197
0.456604 0.474518 0.118805
0.481201 0.477600 0.123199
0.506378 0.480377 0.127502
0.532104 0.482910 0.131744
0.558228 0.485260 0.135925
0.584808 0.487366 0.140076
0.611572 0.489410 0.144257
0.638855 0.491150 0.148438
0.666321 0.492798 0.152679
0.694153 0.494232 0.156952
0.722168 0.495605 0.161285
0.750549 0.496735 0.165710
0.779053 0.497803 0.170197
0.807983 0.498627 0.174866
0.836975 0.499390 0.179565
0.866241 0.500000 0.184418
0.895844 0.500427 0.189484
0.925690 0.500702 0.194672
0.955780 0.500824 0.200073
0.986115 0.500763 0.205627
1.000000 0.505798 0.228729
0.266022 0.435852 0.051086
0.278656 0.444275 0.059601
0.291809 0.452454 0.067963
0.306549 0.459900 0.075745
0.322388 0.466888 0.083008
0.339874 0.473114 0.089722
0.358551 0.478882 0.096008
0.378357 0.484100 0.101837
0.399323 0.488831 0.107300
0.421143 0.493164 0.112457
0.443939 0.497070 0.117371
0.467621 0.500549 0.122040
0.491760 0.503815 0.126526
0.516724 0.506775 0.130981
0.542023 0.509491 0.135254
0.567810 0.511993 0.139496
0.593933 0.514343 0.143677
0.620453 0.516479 0.147827
0.647217 0.518494 0.151947
0.674469 0.520233 0.156158
0.701965 0.521881 0.160370
0.729706 0.523407 0.164642
0.757751 0.524750 0.169006
0.785980 0.525970 0.173401
0.814484 0.527039 0.177887
0.843231 0.527954 0.182434
0.872192 0.528778 0.187134
0.901337 0.529419 0.191925
0.930817 0.529938 0.196899
0.960480 0.530273 0.201965
0.990417 0.530487 0.207245
1.000000 0.536652 0.236206
0.281555 0.459930 0.052826
0.293915 0.468414 0.061401
0.307007 0.476593 0.069824
0.321259 0.484253 0.077728
0.336609 0.491486 0.085175
0.353882 0.497864 0.092041
0.371918 0.503876 0.098511
0.391296 0.509308 0.104523
0.412018 0.514099 0.110107
0.433319 0.518707 0.115417
0.455780 0.522736 0.120453
0.478851 0.526489 0.125214
0.502747 0.529907 0.129852
0.527039 0.533112 0.134338
0.552002 0.536011 0.138702
0.577393 0.538696 0.142975
0.603302 0.541168 0.147186
0.629517 0.543457 0.151367
0.656067 0.545593 0.155548
0.682831 0.547577 0.159668
0.710022 0.549377 0.163849
0.737457 0.551056 0.168060
0.765289 0.552490 0.172333
0.793213 0.553894 0.176636
0.821442 0.555145 0.181030
0.849854 0.556274 0.185486
0.878632 0.557190 0.190063
0.907410 0.558105 0.194702
0.936554 0.558777 0.199463
0.965881 0.559357 0.204346
0.995453 0.559814 0.209381
1.000000 0.567169 0.245667
0.297028 0.484009 0.054626
0.309357 0.492523 0.063263
0.321960 0.500916 0.071777
0.335938 0.508698 0.079742
0.351257 0.515900 0.087280
0.367645 0.522644 0.094330
0.385742 0.528625 0.100891
0.404663 0.534241 0.107025
0.424713 0.539398 0.112823
0.445679 0.544128 0.118286
0.467590 0.548431 0.123444
0.490417 0.552338 0.128387
0.513763 0.555969 0.133087
0.537781 0.559296 0.137634
0.562378 0.562378 0.142090
0.587402 0.565216 0.146393
0.612885 0.567902 0.150665
0.638794 0.570374 0.154938
0.665131 0.572601 0.159119
0.691681 0.574707 0.163239
0.718597 0.576660 0.167419
0.745728 0.578491 0.171600
0.773132 0.580139 0.175781
0.800781 0.581696 0.180023
0.828766 0.583038 0.184357
0.856903 0.584320 0.188690
0.885254 0.585480 0.193115
0.913879 0.586487 0.197662
0.942749 0.587341 0.202301
0.971771 0.588135 0.207031
1.000000 0.589050 0.213348
1.000000 0.597260 0.257172
0.312347 0.508118 0.056366
0.324554 0.516693 0.065063
0.337158 0.525116 0.073608
0.350891 0.533020 0.081757
0.365753 0.540436 0.089386
0.382080 0.547180 0.096558
0.399353 0.553558 0.103302
0.417999 0.559265 0.109558
0.437744 0.564545 0.115509
0.458405 0.569397 0.121094
0.479767 0.573944 0.126404
0.502167 0.578003 0.131439
0.525116 0.581848 0.136261
0.548798 0.585358 0.140930
0.572876 0.588654 0.145447
0.597626 0.591675 0.149872
0.622833 0.594421 0.154144
0.648407 0.597046 0.158417
0.674347 0.599457 0.162598
0.700684 0.601685 0.166779
0.727234 0.603821 0.170929
0.754211 0.605774 0.175140
0.781342 0.607605 0.179321
0.808807 0.609222 0.183502
0.836456 0.610779 0.187744
0.864319 0.612213 0.192047
0.892487 0.613495 0.196411
0.920776 0.614655 0.200836
0.949280 0.615753 0.205322
0.978088 0.616638 0.209930
1.000000 0.619080 0.225067
1.000000 0.626923 0.270966
0.327881 0.532135 0.058075
0.339966 0.540771 0.066864
0.352234 0.549316 0.075500
0.365906 0.557251 0.083679
0.380493 0.564789 0.091431
0.396362 0.571777 0.098755
0.413544 0.578156 0.105560
0.431671 0.584137 0.112000
0.450897 0.589630 0.118073
0.471039 0.594727 0.123810
0.492188 0.599335 0.129242
0.513977 0.603699 0.134430
0.536774 0.607605 0.139374
0.559937 0.611328 0.144135
0.583801 0.614716 0.148743
0.608093 0.617950 0.153198
0.633026 0.620911 0.157623
0.658234 0.623657 0.161896
0.683990 0.626190 0.166138
0.709869 0.628632 0.170319
0.736237 0.630859 0.174500
0.762878 0.632904 0.178650
0.789825 0.634827 0.182800
0.816956 0.636658 0.186981
0.844360 0.638336 0.191193
0.872070 0.639923 0.195496
0.899902 0.641357 0.199768
0.928009 0.642639 0.204102
0.956238 0.643860 0.208466
0.984711 0.644958 0.212952
1.000000 0.648712 0.239258
1.000000 0.656189 0.287140
0.343384 0.556213 0.059875
0.355316 0.564911 0.068695
0.367432 0.573517 0.077362
0.380768 0.581604 0.085632
0.395203 0.589172 0.093475
0.410675 0.596313 0.100861
0.427643 0.602814 0.107849
0.445374 0.608948 0.114410
0.464203 0.614624 0.120605
0.484009 0.619904 0.126526
0.504700 0.624756 0.132080
0.526184 0.629211 0.137360
0.548492 0.633331 0.142395
0.571320 0.637238 0.147278
0.594818 0.640808 0.151978
0.618835 0.644135 0.156525
0.643341 0.647247 0.160980
0.668396 0.650146 0.165375
0.693817 0.652802 0.169647
0.719513 0.655365 0.173859
0.745483 0.657745 0.178040
0.771881 0.659943 0.182190
0.798523 0.662048 0.186371
0.825378 0.664001 0.190521
0.852631 0.665771 0.194733
0.880035 0.667450 0.198944
0.907623 0.669006 0.203156
0.935425 0.670471 0.207428
0.963501 0.671814 0.211761
0.991760 0.673065 0.216187
1.000000 0.677917 0.255768
1.000000 0.684998 0.305725
0.358795 0.580261 0.061584
0.370514 0.589081 0.070465
0.382599 0.597717 0.079224
0.395752 0.605865 0.087555
0.410004 0.613556 0.095490
0.425171 0.620819 0.102997
0.441833 0.627441 0.110077
0.459229 0.633728 0.116760
0.477722 0.639557 0.123108
0.497070 0.644989 0.129120
0.517487 0.649933 0.134796
0.538513 0.654663 0.140228
0.560547 0.658875 0.145386
0.582947 0.662994 0.150360
0.606201 0.666687 0.155151
0.629913 0.670166 0.159790
0.654083 0.673431 0.164307
0.678802 0.676453 0.168762
0.703827 0.679291 0.173065
0.729279 0.681976 0.177338
0.754974 0.684509 0.181549
0.781128 0.686859 0.185760
0.807465 0.689087 0.189911
0.834167 0.691132 0.194092
0.861084 0.693085 0.198273
0.888275 0.694885 0.202423
0.915680 0.696533 0.206635
0.943207 0.698181 0.210876
0.971039 0.699615 0.215149
0.999023 0.700989 0.219482
1.000000 0.706604 0.274719
1.000000 0.713318 0.326569
0.374390 0.604309 0.063354
0.386047 0.613098 0.072235
0.397797 0.621887 0.081085
0.410797 0.630127 0.089478
0.424774 0.637878 0.097473
0.439850 0.645233 0.105072
0.456085 0.652069 0.112305
0.473175 0.658478 0.119110
0.491302 0.664490 0.125580
0.510437 0.670013 0.131683
0.530365 0.675171 0.137512
0.551147 0.679993 0.143036
0.572662 0.684448 0.148315
0.594849 0.688629 0.153381
0.617706 0.692505 0.158295
0.641052 0.696136 0.162994
0.664948 0.699585 0.167633
0.689331 0.702728 0.172119
0.714111 0.705719 0.176514
0.739227 0.708527 0.180817
0.764740 0.711151 0.185059
0.790527 0.713654 0.189270
0.816742 0.715973 0.193451
0.843140 0.718140 0.197632
0.869751 0.720215 0.201782
0.896729 0.722168 0.205963
0.923920 0.723969 0.210144
0.951263 0.725708 0.214355
0.978790 0.727295 0.218567
1.000000 0.729523 0.237091
1.000000 0.734802 0.296631
1.000000 0.741150 0.350464
0.389679 0.628479 0.065155
0.401245 0.637299 0.074066
0.413147 0.645996 0.082855
0.425964 0.654327 0.091370
0.439636 0.662231 0.099426
0.454437 0.669678 0.107147
0.470398 0.676605 0.114441
0.487183 0.683167 0.121368
0.505096 0.689240 0.127960
0.523804 0.694977 0.134186
0.543427 0.700317 0.140167
0.563873 0.705292 0.145813
0.584991 0.709900 0.151184
0.606964 0.714172 0.156372
0.629456 0.718231 0.161377
0.652496 0.722015 0.166199
0.676025 0.725555 0.170868
0.700073 0.728882 0.175415
0.724548 0.732025 0.179871
0.749390 0.734985 0.184235
0.774658 0.737732 0.188538
0.800201 0.740356 0.192780
0.826141 0.742798 0.197021
0.852264 0.745117 0.201172
0.878754 0.747253 0.205322
0.905457 0.749298 0.209503
0.932343 0.751251 0.213654
0.959503 0.753082 0.217865
0.986816 0.754822 0.222046
1.000000 0.757629 0.259430
1.000000 0.762451 0.321625
1.000000 0.768372 0.377563
0.405090 0.652527 0.066864
0.416595 0.661407 0.075836
0.428375 0.670197 0.084747
0.441071 0.678558 0.093262
0.454681 0.686493 0.101410
0.469177 0.694092 0.109222
0.484863 0.701141 0.116608
0.501465 0.707764 0.123627
0.518951 0.714020 0.130310
0.537323 0.719879 0.136658
0.556610 0.725372 0.142731
0.576782 0.730408 0.148468
0.597595 0.735199 0.153961
0.619141 0.739685 0.159271
0.641327 0.743896 0.164398
0.664062 0.747803 0.169281
0.687286 0.751495 0.174042
0.711029 0.754974 0.178680
