projects/Intermediate Assingment 01/res/luts/CoolLut.cube
#Created by: Adobe Photoshop Export Color Lookup Plugin
TITLE "Cool"
#LUT size
LUT_3D_SIZE 8
#data domain
#LUT data points
DOMAIN_MIN 0.000000 0.000000 0.000000
DOMAIN_MAX 0.903226 0.903226 0.903226
0.000000 0.000000 0.000000
0.085480 0.018066 0.021851
0.183319 0.029755 0.044342
0.280060 0.040649 0.073822
0.376129 0.050781 0.109436
0.472107 0.060944 0.145081
0.568146 0.071045 0.180695
0.664215 0.081177 0.216644
0.035828 0.099152 0.062653
0.120300 0.117188 0.087219
0.221405 0.127014 0.110596
0.322845 0.135193 0.142181
0.427155 0.140808 0.179535
0.534851 0.143585 0.222931
0.642731 0.145966 0.267700
0.739044 0.156311 0.301483
0.057098 0.202911 0.139954
0.136322 0.223846 0.163666
0.239594 0.233643 0.181458
0.340118 0.243896 0.204071
0.441010 0.253052 0.231659
0.542755 0.261108 0.262909
0.645538 0.268036 0.297546
0.750214 0.273224 0.336121
0.078125 0.306793 0.217682
0.146484 0.332489 0.245300
0.255798 0.340240 0.257690
0.358063 0.350311 0.276367
0.459106 0.360443 0.298492
0.559937 0.370026 0.323944
0.660919 0.378998 0.352264
0.762329 0.387238 0.383453
0.099182 0.410583 0.295654
0.149811 0.443970 0.330231
0.270447 0.447083 0.336823
0.375122 0.456573 0.352203
0.476898 0.466888 0.371246
0.577972 0.477051 0.393097
0.678711 0.486908 0.417389
0.779510 0.496246 0.444214
0.120270 0.514435 0.373444
0.158966 0.552948 0.412964
0.281219 0.555450 0.417938
0.390594 0.563202 0.430237
0.494110 0.573059 0.446808
0.595734 0.583466 0.466064
0.696777 0.593597 0.487732
0.797546 0.603546 0.511353
0.141235 0.618256 0.451263
0.180023 0.656830 0.490692
0.287170 0.665894 0.501678
0.403992 0.670502 0.509979
0.510010 0.679596 0.524292
0.612885 0.689667 0.541534
0.714600 0.699951 0.560974
0.815643 0.710144 0.582458
0.162262 0.722076 0.529114
0.201019 0.760651 0.568329
0.283844 0.780243 0.589600
0.415131 0.778778 0.591034
0.524597 0.786499 0.603119
0.629150 0.796051 0.618591
0.731812 0.806152 0.636322
0.833374 0.816467 0.655975
0.000031 0.003113 0.112549
0.039215 0.034485 0.188995
0.164398 0.035339 0.194916
0.269684 0.044586 0.210114
0.370728 0.055298 0.229065
0.470184 0.066284 0.250824
0.568726 0.077271 0.274811
0.666626 0.088257 0.300903
0.033478 0.099335 0.197235
0.074310 0.136719 0.236938
0.202606 0.135986 0.242950
0.312378 0.142303 0.261719
0.421082 0.147827 0.287354
0.531433 0.151337 0.319733
0.643829 0.152771 0.357178
0.741821 0.163757 0.382751
0.059235 0.206665 0.243164
0.098328 0.244904 0.283325
0.224365 0.245483 0.288422
0.333099 0.252899 0.303894
0.438202 0.261261 0.324524
0.542114 0.269470 0.348907
0.646729 0.276611 0.377197
0.752716 0.282288 0.409454
0.083466 0.313019 0.298706
0.122345 0.351410 0.338684
0.243195 0.354401 0.344910
0.353790 0.361298 0.358093
0.458130 0.370544 0.376129
0.561127 0.379730 0.397644
0.663757 0.388580 0.422089
0.766541 0.396912 0.449158
0.106598 0.418640 0.361267
0.145416 0.457092 0.400909
0.257568 0.463959 0.410309
0.371979 0.469452 0.420563
0.477661 0.478363 0.436707
0.580780 0.487915 0.455933
0.682892 0.497559 0.477875
0.784851 0.506805 0.502136
0.129028 0.523743 0.428528
0.167816 0.562286 0.467834
0.266846 0.574768 0.482605
0.388306 0.577454 0.489105
0.495819 0.585724 0.503143
0.599731 0.595306 0.520599
0.702118 0.605103 0.540588
0.803833 0.614929 0.562622
0.151123 0.628448 0.498718
0.189850 0.667053 0.538055
0.267517 0.688751 0.561493
0.402252 0.685791 0.561829
0.512512 0.693115 0.573914
0.617523 0.702362 0.589661
0.720581 0.712219 0.607971
0.822540 0.722198 0.628113
0.172882 0.732941 0.571014
0.211609 0.771545 0.610168
0.250397 0.809998 0.650116
0.412720 0.795258 0.638184
0.527557 0.800751 0.647675
0.634491 0.809357 0.661835
0.738342 0.819000 0.678467
0.840851 0.829041 0.697266
0.000031 0.010040 0.204376
0.026459 0.038849 0.329254
0.083618 0.068634 0.365692
0.238495 0.055939 0.363220
0.350830 0.062439 0.373993
0.456024 0.071747 0.388977
0.558258 0.082092 0.406494
0.658966 0.092865 0.426056
0.027771 0.100769 0.334106
0.067017 0.138916 0.374084
0.120270 0.170624 0.410522
0.277130 0.157227 0.406677
0.395721 0.159424 0.423462
0.510956 0.161804 0.448364
0.627655 0.162109 0.480164
0.734467 0.168671 0.505554
0.056702 0.207672 0.373627
0.095917 0.245941 0.413422
0.140961 0.281433 0.451965
0.300690 0.267365 0.443604
0.416962 0.271515 0.456512
0.526733 0.277802 0.475159
0.634949 0.284149 0.497894
0.743103 0.289825 0.524384
0.083191 0.314972 0.417938
0.122101 0.353394 0.457489
0.161316 0.391541 0.498016
0.322723 0.376984 0.487885
0.439270 0.381287 0.498871
0.547821 0.388611 0.515350
0.653870 0.396606 0.535004
0.759247 0.404449 0.557831
0.108276 0.421936 0.467957
0.147186 0.460449 0.507416
0.186157 0.498718 0.547638
0.341736 0.486755 0.539246
0.460175 0.490479 0.548523
0.569122 0.497894 0.563446
0.674866 0.506348 0.581604
0.779083 0.515076 0.602295
0.132507 0.528351 0.523315
0.171265 0.566925 0.562531
0.210144 0.605255 0.602661
0.357788 0.596832 0.597290
0.479462 0.599243 0.604340
0.589417 0.606445 0.617920
0.695221 0.615082 0.634796
0.799316 0.624237 0.654022
0.156006 0.634277 0.583069
0.194763 0.672882 0.622314
0.233612 0.711304 0.662140
0.369904 0.707733 0.661316
0.496765 0.708099 0.665588
0.608307 0.714691 0.677734
0.714935 0.723206 0.693390
0.819214 0.732422 0.711212
0.178986 0.739807 0.646454
0.217712 0.778412 0.685516
0.256531 0.816895 0.725311
0.376892 0.820251 0.730988
0.512177 0.817047 0.731323
0.625946 0.822815 0.741852
0.733643 0.830994 0.756195
0.838501 0.840149 0.773010
0.000031 0.020508 0.277191
0.013214 0.044708 0.463043
0.054688 0.081329 0.505524
0.133331 0.101196 0.536377
0.306793 0.079590 0.531067
0.427765 0.081909 0.540741
0.536987 0.089630 0.553101
0.642151 0.098969 0.568176
0.018982 0.103729 0.471008
0.058228 0.141998 0.510620
0.098785 0.179230 0.552216
0.172424 0.201874 0.581879
0.345215 0.181244 0.572998
0.472809 0.179047 0.588898
0.595154 0.177734 0.614197
0.717773 0.174927 0.646545
0.051788 0.208710 0.510437
0.090790 0.247162 0.549835
0.130249 0.285156 0.590210
0.195801 0.311584 0.621490
0.371246 0.290588 0.607666
0.494537 0.291504 0.618408
0.609589 0.295410 0.635895
0.722015 0.299744 0.657715
0.080200 0.315857 0.550415
0.119049 0.354370 0.589600
0.158295 0.392578 0.629822
0.211517 0.424469 0.665283
0.395111 0.400299 0.646515
0.517944 0.401764 0.655304
0.631073 0.407043 0.670258
0.740753 0.413483 0.688843
0.106812 0.423279 0.593811
0.145721 0.461823 0.633057
0.184723 0.500153 0.672974
0.224060 0.538116 0.713867
0.416595 0.510223 0.690430
0.540344 0.511536 0.697723
0.653381 0.517151 0.711212
0.762146 0.524292 0.728180
0.132446 0.530426 0.641327
0.171295 0.569000 0.680511
0.210236 0.607391 0.720306
0.249390 0.645508 0.761017
0.435883 0.620331 0.739532
0.561554 0.620911 0.745270
0.674957 0.626556 0.757568
0.783691 0.633972 0.773407
0.157257 0.637238 0.692871
0.196045 0.675873 0.731934
0.234894 0.714294 0.771606
0.273926 0.752502 0.812042
0.452423 0.730804 0.793732
0.581177 0.730194 0.797699
0.695618 0.735535 0.808868
0.804596 0.742981 0.823608
0.181458 0.743683 0.748077
0.220215 0.782257 0.787170
0.259094 0.820770 0.826752
0.298004 0.859070 0.867004
0.465851 0.841980 0.852875
0.599243 0.839478 0.854431
0.715179 0.844208 0.864441
0.824860 0.851532 0.878235
0.000031 0.033203 0.338165
0.000031 0.054993 0.573334
0.037018 0.090302 0.634705
0.080109 0.125702 0.679016
0.182098 0.135010 0.703125
0.368164 0.107239 0.696198
0.501556 0.102631 0.709229
0.614899 0.108704 0.719360
0.008209 0.108002 0.606720
0.047363 0.146332 0.646118
0.087463 0.183929 0.686920
0.128906 0.220520 0.729614
0.226044 0.232697 0.751282
0.409515 0.207153 0.739838
0.544342 0.201508 0.754242
0.674072 0.196228 0.780670
0.044769 0.210693 0.647919
0.083893 0.249084 0.687347
0.123322 0.287170 0.727417
0.163452 0.324615 0.768799
0.253998 0.340179 0.790497
0.437683 0.315399 0.774414
0.568176 0.312958 0.783630
0.688232 0.314423 0.800018
0.075378 0.316925 0.686798
0.114380 0.355408 0.726044
0.153595 0.393646 0.765930
0.193268 0.431427 0.806793
0.274261 0.451355 0.831177
0.462921 0.424805 0.810913
0.592285 0.423309 0.817810
0.710144 0.426483 0.831451
0.103577 0.424133 0.727112
0.142487 0.462677 0.766266
0.181488 0.501038 0.805939
0.220795 0.539093 0.846375
0.284790 0.566437 0.877502
0.486237 0.534546 0.850769
0.615936 0.533234 0.856232
0.733093 0.536987 0.868317
0.130432 0.531525 0.770142
0.169189 0.570099 0.809143
0.208221 0.608521 0.848816
0.247345 0.646729 0.889069
0.286743 0.684631 0.930176
0.507507 0.644623 0.894623
0.638306 0.642944 0.898590
0.755615 0.646881 0.909576
0.156372 0.638794 0.816284
0.195099 0.677399 0.855255
0.233978 0.715851 0.894745
0.273071 0.754120 0.934906
0.312286 0.792175 0.975769
0.526489 0.755066 0.942505
0.659546 0.752563 0.945068
0.777405 0.756317 0.955048
0.181549 0.745789 0.865479
0.220306 0.784424 0.904510
0.259155 0.822937 0.943909
0.298126 0.861237 0.983948
0.373077 0.885773 1.000000
0.543243 0.865845 0.994537
0.679352 0.862122 0.995361
0.800232 0.865417 1.000000
0.000031 0.045624 0.400543
0.000031 0.069946 0.622070
0.018829 0.099609 0.763458
0.060822 0.135834 0.806366
0.104736 0.170654 0.851715
0.228333 0.170502 0.867371
0.425415 0.137421 0.859467
0.573212 0.124268 0.878723
0.000031 0.114532 0.723053
0.034882 0.151703 0.780365
0.074707 0.189545 0.820709
0.115540 0.226593 0.862488
0.157867 0.262543 0.906189
0.277588 0.264771 0.919708
0.469543 0.235352 0.905579
0.612274 0.225861 0.919342
0.036255 0.213531 0.785034
0.075256 0.252045 0.824249
0.114685 0.290100 0.864197
0.154907 0.327637 0.905334
0.195740 0.364594 0.947571
0.310059 0.369720 0.960297
0.501251 0.341522 0.942047
0.638062 0.336090 0.949646
0.069275 0.318451 0.824310
0.108185 0.356964 0.863403
0.147369 0.395294 0.903107
0.187073 0.433136 0.943756
0.227234 0.470612 0.985260
0.334106 0.479218 0.999420
0.528259 0.450134 0.977722
0.663574 0.446014 0.982880
0.099030 0.425110 0.863342
0.137878 0.463715 0.902374
0.176941 0.502075 0.941956
0.216309 0.540131 0.982239
0.269012 0.575684 1.000000
0.370758 0.589508 1.000000
0.554932 0.561554 1.000000
0.685883 0.560516 1.000000
0.127014 0.532410 0.903809
0.165802 0.570953 0.942810
0.204803 0.609406 0.982269
0.259888 0.643707 1.000000
0.328186 0.674622 1.000000
0.418457 0.694336 1.000000
0.591888 0.671753 1.000000
0.713501 0.675568 1.000000
0.153931 0.639801 0.946533
0.192688 0.678406 0.985474
0.253815 0.710236 1.000000
0.328217 0.738037 1.000000
0.402832 0.765656 1.000000
0.480988 0.791565 1.000000
0.644531 0.773987 1.000000
0.755554 0.783173 1.000000
0.180023 0.747070 0.991730
0.252380 0.774414 1.000000
0.334076 0.798462 1.000000
0.415955 0.822418 1.000000
0.498169 0.846252 1.000000
0.580261 0.870087 1.000000
0.719818 0.864777 1.000000
0.819641 0.879608 1.000000
0.000031 0.057617 0.465149
0.000031 0.083466 0.678741
0.001190 0.108490 0.892883
0.042419 0.145264 0.934875
0.084839 0.181244 0.978394
0.134277 0.217712 1.000000
0.276398 0.211060 1.000000
0.474731 0.175812 1.000000
0.000031 0.123932 0.801666
0.020905 0.158051 0.913269
0.060577 0.196045 0.953339
0.101257 0.233215 0.994781
0.152100 0.272095 1.000000
0.205231 0.310699 1.000000
0.336243 0.309631 1.000000
0.517303 0.283203 1.000000
0.026184 0.217316 0.921173
0.065247 0.255768 0.960388
0.104767 0.293945 1.000000
0.157135 0.332977 1.000000
0.210297 0.371490 1.000000
0.263947 0.409851 1.000000
0.385010 0.413910 1.000000
0.552612 0.394257 1.000000
0.061829 0.320709 0.961731
0.101196 0.359161 1.000000
0.155670 0.397095 1.000000
0.210693 0.434692 1.000000
0.266113 0.472137 1.000000
0.321991 0.509308 1.000000
0.433563 0.518250 1.000000
0.589417 0.504578 1.000000
0.093628 0.426483 1.000000
0.151428 0.462677 1.000000
0.209503 0.498749 1.000000
0.267914 0.534607 1.000000
0.326843 0.570312 1.000000
0.385834 0.605927 1.000000
0.487610 0.619812 1.000000
0.632385 0.611816 1.000000
0.146423 0.528656 1.000000
0.208466 0.562714 1.000000
0.270874 0.596588 1.000000
0.333527 0.630341 1.000000
0.396454 0.663971 1.000000
0.459503 0.697510 1.000000
0.551544 0.716309 1.000000
0.684753 0.714233 1.000000
0.208984 0.625885 1.000000
0.276031 0.657410 1.000000
0.343262 0.688782 1.000000
0.410828 0.720062 1.000000
0.478485 0.751251 1.000000
0.546234 0.782440 1.000000
0.629883 0.805511 1.000000
0.750580 0.809753 1.000000
0.284821 0.716339 1.000000
0.357452 0.745026 1.000000
0.430298 0.773590 1.000000
0.503326 0.802032 1.000000
0.576477 0.830505 1.000000
0.649506 0.858917 1.000000
0.726105 0.885620 1.000000
0.834412 0.896149 1.000000
0.000031 0.071167 0.521637
0.000031 0.098511 0.726990
0.000031 0.125122 0.936005
0.035126 0.160919 1.000000
0.086365 0.200531 1.000000
0.138641 0.239532 1.000000
0.192169 0.277924 1.000000
0.334473 0.271179 1.000000
0.000031 0.136993 0.860535
0.013275 0.169861 1.000000
0.063019 0.210236 1.000000
0.113556 0.250122 1.000000
0.164703 0.289734 1.000000
0.216583 0.328949 1.000000
0.269348 0.367706 1.000000
0.400330 0.366730 1.000000
0.025513 0.227112 1.000000
0.076294 0.266876 1.000000
0.127472 0.306427 1.000000
0.179169 0.345795 1.000000
0.231384 0.384827 1.000000
0.284088 0.423676 1.000000
0.337158 0.462250 1.000000
0.457458 0.466705 1.000000
0.079865 0.328461 1.000000
0.133118 0.366943 1.000000
0.186676 0.405365 1.000000
0.240509 0.443634 1.000000
0.294769 0.481659 1.000000
0.349304 0.519501 1.000000
0.404022 0.557312 1.000000
0.514526 0.566711 1.000000
0.134003 0.429962 1.000000
0.190521 0.466888 1.000000
0.247131 0.503662 1.000000
0.303986 0.540344 1.000000
0.361145 0.576935 1.000000
0.418457 0.613373 1.000000
0.475861 0.649811 1.000000
0.576660 0.664185 1.000000
0.192200 0.529419 1.000000
0.252441 0.564392 1.000000
0.312897 0.599274 1.000000
0.373566 0.634033 1.000000
0.434387 0.668732 1.000000
0.495239 0.703369 1.000000
0.556091 0.738037 1.000000
0.647858 0.756989 1.000000
0.257385 0.625336 1.000000
0.322205 0.657959 1.000000
0.387177 0.690521 1.000000
0.452362 0.723022 1.000000
0.517578 0.755432 1.000000
0.582825 0.787872 1.000000
0.648071 0.820312 1.000000
0.731995 0.843231 1.000000
0.332306 0.716248 1.000000
0.402710 0.746063 1.000000
0.473175 0.775848 1.000000
0.543671 0.805573 1.000000
0.614319 0.835297 1.000000
0.684845 0.865021 1.000000
0.755371 0.894806 1.000000
0.833771 0.920502 1.000000
