projects/Intermediate Assingment 01/res/luts/CoolLut.cube
#Created by: Adobe Photoshop Export Color Lookup Plugin
TITLE "Cool"
#LUT size
LUT_3D_SIZE 5
#data domain
#LUT data points
DOMAIN_MIN 0.000000 0.000000 0.000000
DOMAIN_MAX 0.903226 0.903226 0.903226
0.000000 0.000000 0.000000
0.158997 0.026947 0.037811
0.328033 0.045776 0.091309
0.496094 0.063507 0.153961
0.664215 0.081177 0.216644
0.051788 0.177032 0.120361
0.209503 0.204681 0.157715
0.386200 0.221527 0.201294
0.564911 0.234802 0.258667
0.750153 0.242310 0.328918
0.088623 0.358704 0.256592
0.236755 0.391296 0.293610
0.417480 0.408600 0.323639
0.594116 0.426086 0.364075
0.770844 0.441956 0.412842
0.125458 0.540405 0.392883
0.252380 0.582367 0.437469
0.446442 0.594757 0.457672
0.625397 0.612579 0.489838
0.802094 0.630249 0.528900
0.162262 0.722076 0.529114
0.234802 0.787506 0.596375
0.470764 0.782288 0.596527
0.654968 0.798553 0.622864
0.833374 0.816467 0.655975
0.000031 0.007843 0.183990
0.071503 0.060547 0.321838
0.304382 0.055603 0.329132
0.486176 0.072723 0.357361
0.661713 0.091736 0.392609
0.050873 0.180573 0.329437
0.123901 0.245453 0.398407
0.363586 0.237518 0.403076
0.554199 0.248779 0.438660
0.745117 0.257263 0.488159
0.096069 0.368103 0.411743
0.164215 0.435242 0.481567
0.401245 0.429169 0.483429
0.589478 0.442963 0.512054
0.771606 0.458130 0.549896
0.137848 0.553986 0.511871
0.205841 0.621338 0.581177
0.433441 0.619629 0.585327
0.624695 0.632721 0.609375
0.806427 0.649017 0.642273
0.177856 0.738464 0.624664
0.245697 0.805908 0.693573
0.458282 0.810883 0.703064
0.656525 0.821381 0.721985
0.840118 0.837463 0.750946
0.000031 0.027161 0.306061
0.035645 0.076538 0.559540
0.157593 0.118073 0.620239
0.435913 0.090942 0.622650
0.630005 0.103271 0.642731
0.040558 0.183197 0.569489
0.109283 0.250092 0.639099
0.219635 0.298187 0.695862
0.495148 0.274170 0.689178
0.702667 0.277405 0.721863
0.091888 0.370026 0.638702
0.160065 0.437256 0.707733
0.247894 0.495544 0.771484
0.537109 0.466766 0.752960
0.738220 0.474823 0.777161
0.138062 0.557831 0.716644
0.206055 0.625275 0.785400
0.274536 0.692017 0.856293
0.575378 0.658661 0.830688
0.776703 0.667267 0.851288
0.181763 0.744904 0.805359
0.249603 0.812378 0.873901
0.317841 0.879425 0.944305
0.608826 0.850494 0.921753
0.813263 0.858063 0.939087
0.000031 0.048676 0.416351
0.004456 0.092377 0.785706
0.077728 0.155975 0.860596
0.239899 0.179382 0.908569
0.553467 0.133759 0.913788
0.024536 0.188812 0.808777
0.093109 0.255920 0.877869
0.163757 0.321289 0.950134
0.316254 0.350647 0.992859
0.615479 0.315674 0.980316
0.082886 0.372070 0.878021
0.151062 0.439392 0.946716
0.228638 0.504852 1.000000
0.381287 0.542084 1.000000
0.656464 0.516937 1.000000
0.132843 0.559448 0.947968
0.212738 0.623901 1.000000
0.331268 0.678497 1.000000
0.471283 0.722137 1.000000
0.715393 0.712860 1.000000
0.204346 0.739197 1.000000
0.342285 0.783875 1.000000
0.481079 0.828125 1.000000
0.620026 0.872345 1.000000
0.823700 0.883545 1.000000
0.000031 0.071167 0.521637
0.000031 0.118561 0.883362
0.060638 0.180725 1.000000
0.151886 0.249176 1.000000
0.334473 0.271179 1.000000
0.011261 0.202087 1.000000
0.099457 0.272034 1.000000
0.189423 0.341095 1.000000
0.280975 0.409393 1.000000
0.443420 0.441620 1.000000
0.106598 0.379333 1.000000
0.202667 0.445343 1.000000
0.299500 0.510925 1.000000
0.397095 0.576111 1.000000
0.544678 0.615906 1.000000
0.207794 0.553802 1.000000
0.315155 0.613953 1.000000
0.423187 0.673859 1.000000
0.531464 0.733643 1.000000
0.667572 0.779205 1.000000
0.332306 0.716248 1.000000
0.455536 0.768402 1.000000
0.578949 0.820435 1.000000
0.702484 0.872437 1.000000
0.833771 0.920502 1.000000
