projects/Intermediate Assingment 01/res/luts/CoolLut.cube
#Created by: Adobe Photoshop Export Color Lookup Plugin
TITLE "Cool"
#LUT size
LUT_3D_SIZE 32
#data domain
DOMAIN_MIN 0.0 0.0 0.0
DOMAIN_MAX 1.0 1.0 1.0
#LUT data points
0.000000 0.000000 0.000000
0.018585 0.005798 0.006104
0.037506 0.011353 0.012726
0.060791 0.015015 0.017395
0.085480 0.018066 0.021851
0.110199 0.021027 0.026550
0.134521 0.024048 0.032013
0.158997 0.026947 0.037811
0.183319 0.029755 0.044342
0.207611 0.032562 0.050995
0.231873 0.035339 0.057922
0.255920 0.038055 0.065552
0.280060 0.040649 0.073822
0.304138 0.043182 0.082458
0.328033 0.045776 0.091309
0.352112 0.048279 0.100311
0.376129 0.050781 0.109436
0.400146 0.053345 0.118256
0.424225 0.055847 0.127106
0.448090 0.058411 0.136169
0.472107 0.060944 0.145081
0.496094 0.063507 0.153961
0.520203 0.065979 0.162781
0.544128 0.068512 0.171844
0.568146 0.071045 0.180695
0.592194 0.073578 0.189697
0.616211 0.076141 0.198639
0.640167 0.078674 0.207581
0.664215 0.081177 0.216644
0.688232 0.083679 0.225433
0.712189 0.086243 0.234375
0.736206 0.088745 0.243408
0.011688 0.023285 0.016479
0.029694 0.029205 0.023407
0.049500 0.034241 0.030273
0.072968 0.037811 0.035095
0.098297 0.040436 0.040039
0.123810 0.042847 0.045471
0.148621 0.045502 0.051483
0.173950 0.047791 0.058014
0.199005 0.050079 0.065247
0.224335 0.052185 0.072876
0.249817 0.054169 0.080994
0.274414 0.056580 0.088928
0.298431 0.059265 0.096924
0.322510 0.061798 0.105682
0.346527 0.064392 0.114319
0.370667 0.066925 0.122620
0.394775 0.069489 0.131195
0.418701 0.072052 0.140076
0.442810 0.074615 0.149017
0.466888 0.077179 0.157379
0.490875 0.079712 0.166382
0.514893 0.082245 0.175110
0.538879 0.084778 0.184052
0.562866 0.087311 0.192993
0.586914 0.089874 0.201752
0.610901 0.092407 0.210602
0.634949 0.094971 0.219299
0.658997 0.097443 0.228302
0.682983 0.100037 0.237122
0.707001 0.102539 0.246002
0.731049 0.105103 0.254913
0.755035 0.107666 0.263763
0.022888 0.046753 0.032837
0.040588 0.052826 0.039856
0.059509 0.058380 0.046448
0.083008 0.061951 0.051300
0.109283 0.064087 0.056152
0.134125 0.066864 0.061493
0.158997 0.069550 0.067383
0.184387 0.071777 0.073883
0.209503 0.074097 0.081116
0.235413 0.075806 0.089203
0.260864 0.077759 0.097321
0.286346 0.079468 0.106476
0.312134 0.081024 0.115723
0.337646 0.082611 0.125610
0.363586 0.083984 0.135773
0.389160 0.085571 0.145294
0.413208 0.088104 0.154114
0.437286 0.090759 0.162201
0.461365 0.093292 0.170837
0.485413 0.095886 0.179413
0.509521 0.098450 0.187958
0.533508 0.100983 0.196747
0.557587 0.103577 0.205383
0.581604 0.106140 0.214203
0.605652 0.108704 0.222809
0.629700 0.111237 0.231598
0.653748 0.113800 0.240204
0.677765 0.116302 0.249084
0.701782 0.118835 0.257935
0.725800 0.121399 0.266663
0.749847 0.123932 0.275452
0.773834 0.126465 0.284332
0.029999 0.072662 0.047516
0.047089 0.079010 0.054779
0.065887 0.084564 0.061707
0.090576 0.087646 0.065918
0.115875 0.090179 0.071198
0.140839 0.092957 0.076080
0.166412 0.095184 0.082367
0.191315 0.097748 0.088806
0.216492 0.100006 0.096069
0.241913 0.102051 0.103790
0.268005 0.103577 0.112427
0.293365 0.105499 0.120850
0.319305 0.106995 0.130035
0.344971 0.108643 0.139099
0.371185 0.109772 0.149414
0.397339 0.111053 0.159180
0.423431 0.112366 0.169434
0.450562 0.112915 0.180328
0.477081 0.113770 0.191315
0.503906 0.114532 0.202026
0.528015 0.117096 0.210632
0.552063 0.119659 0.219025
0.576111 0.122223 0.227661
0.600189 0.124756 0.236298
0.624268 0.127350 0.244751
0.648315 0.129913 0.253357
0.672424 0.132538 0.261902
0.696442 0.135071 0.270691
0.720490 0.137634 0.279327
0.744537 0.140167 0.288025
0.768555 0.142761 0.296722
0.792603 0.145294 0.305389
0.035828 0.099152 0.062653
0.051361 0.106049 0.071228
0.071442 0.111176 0.077057
0.094666 0.114685 0.082642
0.120300 0.117188 0.087219
0.145386 0.119934 0.092010
0.170868 0.122253 0.098083
0.196320 0.124603 0.104004
0.221405 0.127014 0.110596
0.246643 0.129272 0.117798
0.271912 0.131378 0.125671
0.297180 0.133362 0.134003
0.322845 0.135193 0.142181
0.348724 0.136719 0.151367
0.374725 0.138306 0.160004
0.401001 0.139435 0.170044
0.427155 0.140808 0.179535
0.453888 0.141602 0.190247
0.480896 0.142303 0.200928
0.507385 0.143280 0.211609
0.534851 0.143585 0.222931
0.562164 0.143951 0.234436
0.589722 0.144135 0.246185
0.617371 0.144318 0.257782
0.642731 0.145966 0.267700
0.666809 0.148560 0.276001
0.690887 0.151154 0.284515
0.714935 0.153717 0.293121
0.739044 0.156311 0.301483
0.763092 0.158844 0.310181
0.787140 0.161438 0.318787
0.811279 0.164001 0.327209
0.041138 0.125153 0.081512
0.055450 0.132721 0.089783
0.075195 0.137878 0.096405
0.098816 0.141449 0.101044
0.124695 0.143890 0.105347
0.150421 0.146301 0.110077
0.175415 0.148987 0.115479
0.200775 0.151428 0.121277
0.225769 0.153931 0.127594
0.250946 0.156311 0.134125
0.276154 0.158600 0.140991
0.301636 0.160645 0.148346
0.326691 0.162903 0.156006
0.352295 0.164764 0.164032
0.377808 0.166687 0.172333
0.403748 0.168304 0.180939
0.429718 0.169769 0.190186
0.455383 0.171387 0.199371
0.481750 0.172607 0.209045
0.508026 0.173767 0.219025
0.534729 0.174652 0.229370
0.561798 0.175323 0.239960
0.589111 0.175751 0.251312
0.616791 0.175903 0.263092
0.644867 0.175751 0.275116
0.672791 0.175720 0.287201
0.701599 0.175079 0.300018
0.730164 0.174530 0.312897
0.757507 0.174896 0.324524
0.781586 0.177460 0.332947
0.805695 0.180023 0.341370
0.829742 0.182648 0.349823
0.046722 0.150970 0.101044
0.058685 0.159607 0.109955
0.079468 0.164368 0.115784
0.103058 0.167908 0.120209
0.129150 0.170319 0.124176
0.154907 0.172729 0.128937
0.180115 0.175446 0.133575
0.205414 0.177979 0.139252
0.230499 0.180573 0.144745
0.255615 0.183044 0.151062
0.280731 0.185425 0.157593
0.305908 0.187897 0.163879
0.331177 0.190033 0.171417
0.356323 0.192322 0.178345
0.381897 0.194275 0.186127
0.407196 0.196320 0.194122
0.432892 0.198120 0.202576
0.458496 0.199890 0.211182
0.484161 0.201630 0.219879
0.510315 0.203003 0.229126
0.536072 0.204590 0.238434
0.562317 0.205872 0.247833
0.588654 0.207031 0.257660
0.615417 0.207855 0.268219
0.642395 0.208557 0.278870
0.669434 0.209137 0.289978
0.697449 0.209137 0.301788
0.725220 0.209229 0.313538
0.753906 0.208649 0.326385
0.783051 0.207764 0.339478
0.812378 0.206726 0.353027
0.841705 0.205688 0.366669
0.051788 0.177032 0.120361
0.063202 0.185852 0.130005
0.083038 0.191040 0.135925
0.105682 0.195099 0.140564
0.133179 0.196899 0.143860
0.158142 0.199768 0.148163
0.183990 0.202179 0.152832
0.209503 0.204681 0.157715
0.235077 0.207092 0.162811
0.259918 0.209839 0.168488
0.285309 0.212128 0.174713
0.310486 0.214691 0.180634
0.336029 0.216888 0.187256
0.360809 0.219391 0.194122
0.386200 0.221527 0.201294
0.411469 0.223694 0.208801
0.436646 0.225861 0.216400
0.462311 0.227692 0.224640
0.487732 0.229614 0.232727
0.513367 0.231537 0.240906
0.539062 0.233185 0.249939
0.564911 0.234802 0.258667
0.590790 0.236328 0.267792
0.616974 0.237640 0.277374
0.643219 0.238861 0.287170
0.669525 0.240051 0.297119
0.695923 0.241150 0.307098
0.723022 0.241730 0.317871
0.750153 0.242310 0.328918
0.777344 0.242828 0.339935
0.805084 0.242981 0.351593
0.833557 0.242554 0.364197
0.057098 0.202911 0.139954
0.066742 0.212585 0.149719
0.085693 0.218170 0.156189
0.109833 0.221527 0.160522
0.136322 0.223846 0.163666
0.162323 0.226318 0.167419
0.188812 0.228485 0.171722
0.213654 0.231384 0.176270
0.239594 0.233643 0.181458
0.264801 0.236206 0.186676
0.289703 0.238922 0.192169
0.315063 0.241333 0.198059
0.340118 0.243896 0.204071
0.365356 0.246216 0.210693
0.390717 0.248444 0.217438
0.415649 0.250916 0.224335
0.441010 0.253052 0.231659
0.466370 0.255219 0.238953
0.491669 0.257355 0.246552
0.517242 0.259216 0.254547
0.542755 0.261108 0.262909
0.568329 0.262939 0.271210
0.593994 0.264679 0.279785
0.619873 0.266327 0.288757
0.645538 0.268036 0.297546
0.671631 0.269379 0.306946
0.697723 0.270782 0.316467
0.723755 0.272125 0.326019
0.750214 0.273224 0.336121
0.776886 0.274139 0.346375
0.803619 0.274994 0.356842
0.830475 0.275726 0.367554
0.062408 0.228912 0.159241
0.071991 0.238525 0.169434
0.088226 0.245331 0.176575
0.111572 0.248993 0.181305
0.139282 0.250793 0.184082
0.166351 0.252777 0.187317
0.192322 0.255280 0.191040
0.218201 0.257782 0.195404
0.243622 0.260406 0.199951
0.268951 0.263000 0.204895
0.294403 0.265411 0.210388
0.319366 0.268158 0.215668
0.344788 0.270477 0.221832
0.369904 0.273010 0.227539
0.395020 0.275452 0.233887
0.420288 0.277740 0.240662
0.445648 0.280029 0.247467
0.470673 0.282379 0.254517
0.496094 0.284515 0.261749
0.521210 0.286774 0.269073
0.546722 0.288727 0.276947
0.572174 0.290741 0.284851
0.597595 0.292664 0.293030
0.623138 0.294586 0.301117
0.648773 0.296326 0.309753
0.674591 0.297943 0.318604
0.700195 0.299713 0.327362
0.726135 0.301208 0.336670
0.752197 0.302673 0.345856
0.778320 0.303986 0.355530
0.804565 0.305176 0.365326
0.831055 0.306274 0.375153
0.067627 0.254883 0.178864
0.077240 0.264526 0.188751
0.090210 0.272705 0.197449
0.115143 0.275696 0.201477
0.142670 0.277618 0.204071
0.169617 0.279724 0.207123
0.196381 0.281860 0.210632
0.222046 0.284454 0.214600
0.247620 0.287018 0.219055
0.273346 0.289429 0.223846
0.298737 0.292053 0.228729
0.324127 0.294525 0.234192
0.349213 0.297180 0.239594
0.374481 0.299622 0.245514
0.399445 0.302246 0.251251
0.424774 0.304626 0.257538
0.450073 0.306976 0.263916
0.475250 0.309326 0.270599
0.500397 0.311646 0.277435
0.525818 0.313812 0.284760
0.551117 0.315979 0.292053
0.576416 0.318085 0.299622
0.601593 0.320282 0.307159
0.627136 0.322266 0.314911
0.652618 0.324158 0.323181
0.678131 0.326050 0.331421
0.703796 0.327759 0.340027
0.729370 0.329590 0.348572
0.755157 0.331238 0.357208
0.780853 0.332886 0.366333
0.806946 0.334290 0.375641
0.832947 0.335815 0.384827
0.072876 0.280792 0.198395
0.082520 0.290436 0.208130
0.092621 0.299866 0.218170
0.116241 0.303528 0.222260
0.144806 0.304993 0.224518
0.173187 0.306488 0.227020
0.199829 0.308716 0.230377
0.226044 0.311035 0.234344
0.251862 0.313538 0.238403
0.277771 0.315948 0.242767
0.303162 0.318542 0.247620
0.328430 0.321167 0.252594
0.353760 0.323700 0.257690
0.379089 0.326202 0.263336
0.404053 0.328857 0.268982
0.429382 0.331299 0.274994
0.454681 0.333710 0.280914
0.479706 0.336182 0.287292
0.504974 0.338501 0.293945
0.530151 0.340851 0.300720
0.555359 0.343140 0.307556
0.580475 0.345428 0.314789
0.605927 0.347534 0.322113
0.631195 0.349701 0.329712
0.656616 0.351746 0.337372
0.682098 0.353699 0.345367
0.707581 0.355652 0.353424
0.732971 0.357605 0.361572
0.758545 0.359406 0.370026
0.784363 0.361084 0.378632
0.809937 0.362854 0.387268
0.835754 0.364441 0.396240
0.078125 0.306793 0.217682
0.087830 0.316345 0.227814
0.097504 0.326050 0.237549
0.117798 0.331085 0.243042
0.146484 0.332489 0.245300
0.175873 0.333557 0.247284
0.203125 0.335571 0.250153
0.229736 0.337799 0.253845
0.255798 0.340240 0.257690
0.281769 0.342590 0.261963
0.307373 0.345154 0.266418
0.332947 0.347656 0.271179
0.358063 0.350311 0.276367
0.383545 0.352814 0.281433
0.408508 0.355499 0.286835
0.433807 0.357971 0.292511
0.459106 0.360443 0.298492
0.484131 0.363007 0.304626
0.509399 0.365387 0.310822
0.534729 0.367706 0.317322
0.559937 0.370026 0.323944
0.585022 0.372406 0.330658
0.610352 0.374573 0.337982
0.635468 0.376923 0.344849
0.660919 0.378998 0.352264
0.686218 0.381134 0.359863
0.711548 0.383179 0.367554
0.736908 0.385315 0.375366
0.762329 0.387238 0.383453
0.788025 0.389038 0.391693
0.813599 0.390900 0.400055
0.839294 0.392639 0.408691
0.083405 0.332733 0.237244
0.093140 0.342346 0.247223
0.102753 0.351990 0.257050
0.119629 0.358521 0.263977
0.147797 0.360168 0.266388
0.178436 0.360748 0.267639
0.206268 0.362488 0.270325
0.233307 0.364532 0.273560
0.259827 0.366730 0.277344
0.285767 0.369171 0.281342
0.311493 0.371704 0.285614
0.337219 0.374237 0.290222
0.362457 0.376892 0.295044
0.387970 0.379425 0.299896
0.412994 0.382111 0.305206
0.438354 0.384583 0.310516
0.463654 0.387054 0.316223
0.488831 0.389557 0.322144
0.514069 0.391998 0.328125
0.539276 0.394470 0.334381
0.564453 0.396881 0.340759
0.589539 0.399323 0.347076
0.614716 0.401672 0.354004
0.639893 0.403992 0.360840
0.665161 0.406219 0.367889
0.690521 0.408356 0.375183
0.715820 0.410522 0.382507
0.741150 0.412628 0.389984
0.766541 0.414642 0.397827
0.791962 0.416687 0.405731
0.817413 0.418640 0.413727
0.842804 0.420685 0.421783
0.088623 0.358704 0.256592
0.098328 0.368286 0.266510
0.108032 0.377899 0.276459
0.121033 0.386108 0.285095
0.149414 0.387726 0.287140
0.180298 0.388184 0.288391
0.209778 0.389221 0.290527
0.236755 0.391296 0.293610
0.263367 0.393524 0.296967
0.289581 0.395905 0.300781
0.315430 0.398376 0.304993
0.341309 0.400818 0.309174
0.366638 0.403473 0.313995
0.392181 0.405975 0.318634
0.417480 0.408600 0.323639
0.442902 0.411133 0.328949
0.468079 0.413727 0.334381
0.493408 0.416168 0.340027
0.518555 0.418732 0.345795
0.543701 0.421204 0.351807
0.568909 0.423645 0.357880
0.594116 0.426086 0.364075
0.619293 0.428467 0.370483
0.644592 0.430817 0.377258
0.669800 0.433105 0.384125
0.694885 0.435455 0.391052
0.720245 0.437653 0.398041
0.745514 0.439819 0.405334
0.770844 0.441956 0.412842
0.796112 0.444122 0.420319
0.821442 0.446198 0.427979
0.846924 0.448151 0.435974
0.093903 0.384644 0.276062
0.103577 0.394318 0.285919
0.113251 0.403900 0.295929
0.123016 0.413513 0.305878
0.149353 0.415955 0.308716
0.182098 0.415619 0.309204
0.211975 0.416473 0.311005
0.239777 0.418243 0.313660
0.266968 0.420258 0.316864
0.293427 0.422546 0.320465
0.319458 0.424957 0.324432
0.345245 0.427490 0.328522
0.370972 0.430023 0.332825
0.396576 0.432526 0.337585
0.421906 0.435120 0.342438
0.447205 0.437714 0.347382
0.472595 0.440277 0.352692
0.497711 0.442902 0.358093
0.523010 0.445404 0.363617
0.548218 0.447937 0.369293
0.573486 0.450348 0.375366
0.598694 0.452789 0.381317
0.623871 0.455231 0.387512
0.649017 0.457672 0.394012
0.674072 0.460083 0.400513
0.699371 0.462372 0.407288
0.724579 0.464661 0.414032
0.749756 0.467041 0.421021
0.775024 0.469238 0.428223
0.800446 0.471344 0.435577
0.825745 0.473511 0.442963
0.850922 0.475677 0.450500
0.099182 0.410583 0.295654
0.108826 0.420258 0.305573
0.118530 0.429871 0.315338
0.128265 0.439453 0.325348
0.149811 0.443970 0.330231
0.183533 0.443298 0.330139
0.214539 0.443726 0.331451
0.242462 0.445435 0.333893
0.270447 0.447083 0.336823
0.297150 0.449280 0.340210
0.323151 0.451752 0.343964
0.349304 0.454102 0.347931
0.375122 0.456573 0.352203
0.400635 0.459167 0.356689
0.426270 0.461670 0.361328
0.451508 0.464355 0.366058
0.476898 0.466888 0.371246
0.502228 0.469452 0.376373
0.527405 0.472046 0.381714
0.552734 0.474518 0.387360
0.577972 0.477051 0.393097
0.603149 0.479523 0.398895
0.628326 0.481995 0.404999
0.653442 0.484467 0.411072
0.678711 0.486908 0.417389
0.703949 0.489258 0.423920
0.729156 0.491608 0.430573
0.754272 0.493988 0.437256
0.779510 0.496246 0.444214
0.804779 0.498474 0.451263
0.830017 0.500702 0.458435
0.855225 0.502899 0.465759
0.104431 0.436554 0.315125
0.114105 0.446259 0.324860
0.123779 0.455841 0.334808
0.133453 0.465485 0.344727
0.148926 0.472595 0.352295
0.183380 0.471558 0.351837
0.215668 0.471436 0.352386
0.245239 0.472473 0.354279
0.273346 0.474060 0.357025
0.300446 0.476135 0.360229
0.326965 0.478363 0.363708
0.353271 0.480682 0.367523
0.379059 0.483215 0.371521
0.404846 0.485687 0.375885
0.430267 0.488342 0.380371
0.455872 0.490875 0.384979
0.481354 0.493408 0.389771
0.506592 0.496063 0.394897
0.531952 0.498596 0.400177
0.557312 0.501099 0.405487
0.582428 0.503693 0.410950
0.607635 0.506195 0.416718
0.632812 0.508728 0.422485
0.657959 0.511230 0.428497
0.683197 0.513672 0.434601
0.708405 0.516052 0.440918
0.733582 0.518463 0.447357
0.758789 0.520813 0.453857
0.783936 0.523193 0.460602
0.809265 0.525452 0.467407
0.834503 0.527740 0.474365
0.859619 0.530060 0.481476
0.109680 0.462524 0.334473
0.119415 0.472168 0.344391
0.129059 0.481842 0.354156
0.138794 0.491425 0.364136
0.148438 0.501068 0.374084
0.182709 0.500092 0.373749
0.217133 0.499084 0.373291
0.247528 0.499725 0.374817
0.276031 0.501221 0.377167
0.303680 0.502991 0.380096
0.330475 0.505127 0.383484
0.357025 0.507385 0.387054
0.382904 0.509857 0.391083
0.408936 0.512329 0.395142
0.434570 0.514862 0.399506
0.460236 0.517365 0.404053
0.485626 0.519958 0.408752
0.510925 0.522614 0.413666
0.536316 0.525146 0.418640
0.561707 0.527649 0.423828
0.586975 0.530212 0.429260
0.612274 0.532776 0.434723
0.637451 0.535309 0.440308
0.662628 0.537842 0.446167
0.687714 0.540375 0.451996
0.712921 0.542786 0.458191
0.738129 0.545227 0.464355
0.763336 0.547638 0.470703
0.788422 0.550079 0.477173
0.813751 0.552368 0.483826
0.838928 0.554688 0.490509
0.864136 0.557007 0.497467
0.114960 0.488464 0.353943
0.124634 0.498108 0.363861
0.134369 0.507721 0.373657
0.144043 0.517365 0.383514
0.153656 0.526978 0.393585
0.181854 0.528717 0.395844
0.217865 0.526978 0.394653
0.249603 0.527100 0.395538
0.279083 0.528168 0.397461
0.306641 0.529999 0.400208
0.333771 0.532043 0.403412
0.360565 0.534180 0.406769
0.386627 0.536591 0.410645
0.412781 0.538971 0.414551
0.438721 0.541412 0.418732
0.464294 0.543945 0.423126
0.489807 0.546570 0.427734
0.515411 0.549072 0.432526
0.540741 0.551666 0.437378
0.566101 0.554260 0.442352
0.591370 0.556824 0.447632
0.616638 0.559387 0.452942
0.641846 0.561920 0.458466
0.667145 0.564423 0.463959
0.692352 0.566925 0.469788
0.717529 0.569458 0.475739
0.742706 0.571930 0.481750
0.767883 0.574371 0.488007
0.793030 0.576843 0.494141
0.818237 0.579224 0.500549
0.843414 0.581604 0.507080
0.868652 0.583893 0.513794
0.120270 0.514435 0.373444
0.129883 0.524078 0.383270
0.139618 0.533722 0.393066
0.149261 0.543365 0.402985
0.158966 0.552948 0.412964
0.180176 0.557587 0.418152
0.218018 0.555115 0.416229
0.251251 0.554596 0.416412
0.281219 0.555450 0.417938
0.309357 0.557129 0.420471
0.337036 0.558899 0.423370
0.363861 0.561035 0.426697
0.390594 0.563202 0.430237
0.416656 0.565613 0.434082
0.442535 0.568085 0.438171
0.468414 0.570526 0.442413
0.494110 0.573059 0.446808
0.519592 0.575684 0.451355
0.545135 0.578217 0.456055
0.570465 0.580811 0.461090
0.595734 0.583466 0.466064
0.621002 0.586029 0.471313
0.646362 0.588531 0.476624
0.671570 0.591095 0.482117
0.696777 0.593597 0.487732
0.721985 0.596130 0.493347
0.747253 0.598602 0.499329
0.772339 0.601105 0.505280
0.797546 0.603546 0.511353
0.822784 0.606018 0.517670
0.847961 0.608429 0.524048
0.873108 0.610809 0.530487
0.125458 0.540405 0.392883
0.135193 0.550049 0.402679
0.144836 0.559723 0.412506
0.154541 0.569336 0.422424
0.164246 0.578918 0.432373
0.177551 0.587006 0.440796
0.217194 0.583710 0.438141
0.252380 0.582367 0.437469
0.283173 0.582886 0.438751
0.312195 0.584106 0.440826
0.340088 0.585815 0.443481
0.367188 0.587860 0.446625
0.394104 0.589935 0.450073
0.420410 0.592316 0.453735
0.446442 0.594757 0.457672
0.472473 0.597168 0.461731
0.498108 0.599701 0.466064
0.523743 0.602234 0.470520
0.549347 0.604767 0.475098
0.574646 0.607391 0.479889
0.600159 0.609924 0.484772
0.625397 0.612579 0.489838
0.650848 0.615112 0.495026
0.676025 0.617676 0.500366
0.701233 0.620270 0.505737
0.726501 0.622772 0.511353
0.751678 0.625305 0.517090
0.776917 0.627777 0.522919
0.802094 0.630249 0.528900
0.827301 0.632721 0.534943
0.852478 0.635162 0.541107
0.877686 0.637543 0.547516
0.130737 0.566376 0.412323
0.140411 0.575989 0.422150
0.150116 0.585632 0.431976
0.159790 0.595276 0.441803
0.169495 0.604889 0.451752
0.179230 0.614502 0.461853
0.215118 0.612854 0.460693
0.252960 0.610352 0.458801
0.285034 0.610321 0.459442
0.314697 0.611298 0.461212
0.343018 0.612854 0.463745
0.370636 0.614685 0.466644
0.397583 0.616760 0.469971
0.423889 0.619110 0.473450
0.450287 0.621399 0.477203
0.476227 0.623871 0.481201
0.502167 0.626343 0.485413
0.527863 0.628845 0.489746
0.553406 0.631409 0.494202
0.578918 0.633972 0.498840
0.604370 0.636536 0.503632
0.629791 0.639130 0.508484
0.655121 0.641693 0.513489
0.680450 0.644226 0.518677
0.705750 0.646790 0.524078
0.730988 0.649384 0.529510
0.756226 0.651917 0.535034
0.781433 0.654419 0.540710
0.806610 0.656921 0.546539
0.831757 0.659454 0.552429
0.856964 0.661926 0.558441
0.882172 0.664337 0.564667
0.136017 0.592316 0.431885
0.145721 0.601959 0.441650
0.155334 0.611603 0.451416
0.165009 0.621246 0.461273
0.174713 0.630859 0.471191
0.184448 0.640472 0.481201
0.211548 0.642609 0.483795
0.252594 0.638733 0.480530
0.286316 0.638000 0.480530
0.316833 0.638641 0.481934
0.345703 0.639954 0.484100
0.373474 0.641724 0.486847
0.400818 0.643677 0.489868
0.427612 0.645782 0.493286
0.453857 0.648163 0.496918
0.480133 0.650482 0.500702
0.506165 0.652893 0.504700
0.531982 0.655426 0.509003
0.557587 0.657990 0.513397
0.583191 0.660553 0.517883
0.608582 0.663147 0.522461
0.634155 0.665649 0.527313
0.659546 0.668243 0.532227
0.684814 0.670837 0.537292
0.710144 0.673401 0.542450
0.735443 0.675903 0.547791
0.760681 0.678467 0.553223
0.785858 0.681061 0.558746
0.811157 0.683533 0.564484
0.836395 0.686035 0.570221
0.861572 0.688538 0.576111
0.886719 0.691040 0.582184
0.141235 0.618256 0.451263
0.150909 0.627869 0.461121
0.160675 0.637573 0.470917
0.170319 0.647217 0.480713
0.180023 0.656830 0.490692
0.189667 0.666443 0.500641
0.208466 0.672150 0.506744
0.251770 0.667328 0.502533
0.287170 0.665894 0.501678
0.318634 0.666107 0.502625
0.348114 0.667145 0.504486
0.376282 0.668762 0.507019
0.403992 0.670502 0.509979
0.431000 0.672638 0.513153
0.457550 0.674896 0.516663
0.483978 0.677155 0.520355
0.510010 0.679596 0.524292
0.535889 0.682068 0.528442
0.561615 0.684570 0.532654
0.587280 0.687103 0.537018
0.612885 0.689667 0.541534
0.638489 0.692200 0.546265
0.663910 0.694794 0.551056
0.689240 0.697357 0.555969
0.714600 0.699951 0.560974
0.739868 0.702515 0.566162
0.765137 0.705078 0.571503
0.790375 0.707642 0.576935
0.815643 0.710144 0.582458
0.840851 0.712677 0.588013
0.866058 0.715210 0.593781
0.891235 0.717712 0.599701
0.146515 0.644226 0.470795
0.156189 0.653870 0.480499
0.165894 0.663513 0.490387
0.175568 0.673157 0.500183
0.185211 0.682800 0.510010
0.194916 0.692383 0.519989
0.204681 0.702026 0.530090
0.249603 0.696472 0.525085
0.287506 0.693970 0.523193
0.320099 0.693695 0.523621
0.350281 0.694458 0.525146
0.378967 0.695862 0.527466
0.406952 0.697540 0.530090
0.434265 0.699463 0.533173
0.460999 0.701630 0.536530
0.487640 0.703857 0.540070
0.513824 0.706268 0.543823
0.539825 0.708710 0.547852
0.565765 0.711121 0.551971
0.591400 0.713715 0.556274
0.617157 0.716187 0.560669
0.642700 0.718750 0.565277
0.668182 0.721313 0.569946
0.693573 0.723907 0.574799
0.718933 0.726471 0.579681
0.744263 0.729095 0.584778
0.769592 0.731659 0.589966
0.794861 0.734222 0.595276
0.820129 0.736755 0.600708
0.845337 0.739288 0.606171
0.870483 0.741852 0.611755
0.895752 0.744354 0.617554
0.151764 0.670197 0.490173
0.161469 0.679840 0.500031
0.171143 0.689514 0.509735
0.180817 0.699127 0.519623
0.190521 0.708740 0.529510
0.200195 0.718384 0.539490
0.209900 0.727966 0.549530
0.245544 0.726410 0.548401
0.287140 0.722351 0.544861
0.321228 0.721466 0.544647
0.352234 0.721893 0.545776
0.381378 0.723083 0.547882
0.409729 0.724609 0.550385
0.437408 0.726410 0.553253
0.464386 0.728485 0.556396
0.491150 0.730652 0.559906
0.517487 0.732971 0.563538
0.543610 0.735352 0.567413
0.569733 0.737793 0.571442
0.595428 0.740326 0.575592
0.621246 0.742798 0.579865
0.646851 0.745331 0.584381
0.672394 0.747894 0.588928
0.697845 0.750488 0.593628
0.723175 0.753082 0.598511
0.748627 0.755646 0.603363
0.773926 0.758209 0.608459
0.799255 0.760773 0.613647
0.824554 0.763336 0.618927
0.849823 0.765900 0.624390
0.874969 0.768494 0.629883
0.900330 0.770966 0.635437
0.157013 0.696106 0.509644
0.166718 0.705750 0.519501
0.176392 0.715454 0.529175
0.186096 0.725067 0.539093
0.195770 0.734741 0.548950
0.205444 0.744324 0.558899
0.215149 0.753967 0.568909
0.240479 0.756866 0.572174
0.286285 0.750946 0.566895
0.321716 0.749481 0.566010
0.354034 0.749359 0.566620
0.383759 0.750305 0.568420
0.412506 0.751648 0.570618
0.440460 0.753326 0.573395
0.467712 0.755341 0.576385
0.494568 0.757477 0.579773
0.521179 0.759705 0.583252
0.547455 0.762024 0.587006
