projects/Intermediate Assingment 01/res/luts/CustomLut.cube
#Created by: Adobe Photoshop Export Color Lookup Plugin
TITLE "CustomLut"
#LUT size
LUT_3D_SIZE 8
#data domain
#LUT data points
DOMAIN_MIN 0.000000 0.000000 0.000000
DOMAIN_MAX 0.903226 0.903226 0.903226
0.000000 0.000000 0.000000
0.054382 0.034271 0.019531
0.113922 0.070068 0.017456
0.169952 0.108337 0.011047
0.225830 0.146729 0.004730
0.281250 0.185059 0.000031
0.334564 0.223541 0.000031
0.388123 0.261932 0.000031
0.027893 0.109650 0.027893
0.061676 0.151794 0.061676
0.140076 0.176544 0.066803
0.212463 0.205322 0.066986
0.277618 0.238068 0.065552
0.339111 0.273010 0.062531
0.399109 0.308807 0.058594
0.457764 0.345428 0.054016
0.047668 0.224945 0.047668
0.083801 0.265472 0.083801
0.116333 0.308441 0.116333
0.217590 0.323029 0.113647
0.300079 0.346680 0.113770
0.372345 0.375458 0.114136
0.439819 0.406921 0.113464
0.504059 0.440186 0.111664
0.067200 0.340393 0.067200
0.104401 0.380157 0.104401
0.139160 0.421600 0.139160
0.171051 0.465057 0.171051
0.289398 0.472198 0.161926
0.381287 0.491394 0.160187
0.459625 0.517029 0.160767
0.532074 0.545776 0.161224
0.086792 0.455811 0.086792
0.124451 0.495270 0.124451
0.160400 0.535919 0.160400
0.194183 0.578003 0.194183
0.225830 0.621674 0.225830
0.356934 0.623260 0.211609
0.458191 0.638214 0.207123
0.542389 0.661011 0.207123
0.106476 0.571198 0.106476
0.144348 0.610474 0.144348
0.180939 0.650635 0.180939
0.215973 0.691925 0.215973
0.249207 0.734436 0.249207
0.280579 0.778229 0.280579
0.421722 0.775452 0.262329
0.531982 0.786407 0.254761
0.126068 0.686584 0.126068
0.164154 0.725739 0.164154
0.201172 0.765594 0.201172
0.236938 0.806366 0.236938
0.271271 0.848114 0.271271
0.304047 0.890930 0.304047
0.335327 0.934845 0.335327
0.483612 0.928955 0.314209
0.145691 0.802002 0.145691
0.183868 0.841064 0.183868
0.221252 0.880737 0.221252
0.257507 0.921112 0.257507
0.292633 0.962341 0.292633
0.332855 1.000000 0.332855
0.427246 1.000000 0.427246
0.521698 1.000000 0.521698
0.016022 0.011658 0.022705
0.069702 0.046692 0.040375
0.128021 0.083893 0.033661
0.184448 0.122711 0.023438
0.240509 0.160889 0.017792
0.296265 0.199249 0.011749
0.352631 0.237305 0.005768
0.408447 0.275665 0.000031
0.040405 0.124207 0.044800
0.076263 0.165833 0.075562
0.156769 0.189911 0.078583
0.227478 0.219391 0.079681
0.292480 0.252106 0.078583
0.353912 0.287018 0.075897
0.413483 0.323059 0.072083
0.472229 0.359589 0.067627
0.061188 0.239563 0.061188
0.097412 0.280029 0.097412
0.130035 0.322937 0.130035
0.233887 0.336456 0.126251
0.315521 0.360443 0.126953
0.387207 0.389496 0.127533
0.454346 0.421082 0.127014
0.518585 0.454315 0.125366
0.081116 0.354797 0.081116
0.118195 0.394623 0.118195
0.153015 0.436035 0.153015
0.184967 0.479401 0.184967
0.305115 0.485840 0.174988
0.396210 0.505371 0.173645
0.474579 0.530975 0.174377
0.546692 0.559845 0.174896
0.100769 0.470154 0.100769
0.138367 0.509613 0.138367
0.174377 0.550262 0.174377
0.208191 0.592346 0.208191
0.239838 0.635986 0.239838
0.372772 0.636810 0.224762
0.473053 0.652191 0.220734
0.557098 0.675018 0.220825
0.120483 0.585510 0.120483
0.158325 0.624786 0.158325
0.194946 0.664948 0.194946
0.229980 0.706238 0.229980
0.263184 0.748749 0.263184
0.294617 0.792572 0.294617
0.437469 0.789032 0.275635
0.547089 0.800293 0.268433
0.140106 0.700867 0.140106
0.178192 0.740051 0.178192
0.215210 0.779907 0.215210
0.251007 0.820648 0.251007
0.285339 0.862427 0.285339
0.318115 0.905212 0.318115
0.349396 0.949097 0.349396
0.499023 0.942657 0.327667
0.159760 0.816254 0.159760
0.197937 0.855316 0.197937
0.235291 0.894989 0.235291
0.271576 0.935364 0.271576
0.306702 0.976593 0.306702
0.367432 1.000000 0.367432
0.461823 1.000000 0.461823
0.556305 1.000000 0.556305
0.033966 0.019958 0.058197
0.086853 0.055237 0.076691
0.140839 0.093842 0.074402
0.196564 0.133484 0.061584
0.254028 0.173462 0.042450
0.311615 0.213287 0.023682
0.367432 0.251526 0.018097
0.423279 0.289856 0.012299
0.047699 0.136261 0.089355
0.096741 0.172150 0.114807
0.172638 0.198792 0.116577
0.242371 0.230286 0.109711
0.307617 0.265564 0.094177
0.369141 0.301117 0.087891
0.428558 0.337128 0.084534
0.487122 0.373688 0.080383
0.072205 0.253082 0.087799
0.108765 0.293701 0.122162
0.146576 0.335480 0.146881
0.252808 0.348969 0.136627
0.332031 0.373932 0.138519
0.402985 0.403229 0.139709
0.469818 0.434937 0.139587
0.533508 0.468384 0.138153
0.094360 0.369629 0.094360
0.131500 0.409424 0.131500
0.166382 0.450806 0.166382
0.198334 0.494171 0.198334
0.323853 0.498291 0.186157
0.412750 0.518738 0.185791
0.490112 0.544739 0.186981
0.561951 0.573700 0.187775
0.114349 0.484802 0.114349
0.152008 0.524261 0.152008
0.187927 0.564880 0.187927
0.221771 0.606964 0.221771
0.253418 0.650574 0.253418
0.390808 0.649475 0.236481
0.489502 0.665527 0.233246
0.572693 0.688721 0.233704
0.134186 0.600037 0.134186
0.172089 0.639282 0.172089
0.208679 0.679443 0.208679
0.243713 0.720764 0.243713
0.276978 0.763245 0.276978
0.308411 0.807037 0.308411
0.455261 0.801788 0.287628
0.563110 0.813812 0.281250
0.153931 0.715302 0.153931
0.191986 0.754517 0.191986
0.229034 0.794342 0.229034
0.264801 0.835083 0.264801
0.299133 0.876862 0.299133
0.331970 0.919647 0.331970
0.363251 0.963562 0.363251
0.517120 0.955292 0.339783
0.173676 0.830658 0.173676
0.211823 0.869751 0.211823
0.249207 0.909393 0.249207
0.285492 0.949768 0.285492
0.320587 0.991028 0.320587
0.402039 1.000000 0.402039
0.496460 1.000000 0.496460
0.590942 1.000000 0.590942
0.056946 0.025940 0.092621
0.103546 0.063751 0.114380
0.154205 0.102722 0.119476
0.208008 0.141876 0.114380
0.264221 0.181061 0.102966
0.321014 0.221313 0.083954
0.379608 0.262604 0.054382
0.438538 0.303986 0.023834
0.067688 0.141815 0.133911
0.124390 0.174164 0.157532
0.190338 0.204468 0.167023
0.254761 0.237396 0.166656
0.317963 0.272430 0.158142
0.380035 0.309723 0.140839
0.442261 0.349121 0.111786
0.502502 0.387756 0.091919
0.077576 0.262604 0.151031
0.113983 0.303223 0.185913
0.176727 0.333893 0.202179
0.268463 0.353760 0.197235
0.345337 0.381897 0.188538
0.417542 0.414215 0.170166
0.485840 0.448730 0.150848
0.549286 0.482208 0.149902
0.103088 0.380981 0.138763
0.140533 0.421051 0.173401
0.176056 0.463135 0.202789
0.220917 0.502686 0.220093
0.345337 0.509705 0.195282
0.430878 0.531555 0.196472
0.506927 0.558105 0.198425
0.577911 0.587433 0.199646
0.127441 0.499756 0.127441
0.165039 0.539246 0.165039
0.200989 0.579834 0.200989
0.234894 0.621857 0.234894
0.266602 0.665466 0.266602
0.412079 0.660889 0.246307
0.507263 0.678467 0.244598
0.589355 0.702118 0.245667
0.147552 0.614807 0.147552
0.185425 0.654083 0.185425
0.222046 0.694275 0.222046
0.257111 0.735504 0.257111
0.290344 0.778015 0.290344
0.321808 0.821777 0.321808
0.475922 0.813416 0.298035
0.580566 0.826782 0.292969
0.167419 0.729980 0.167419
0.205536 0.769135 0.205536
0.242584 0.808990 0.242584
0.278320 0.849731 0.278320
0.312714 0.891479 0.312714
0.345551 0.934265 0.345551
0.376831 0.978180 0.376831
0.537323 0.967041 0.350494
0.187317 0.845215 0.187317
0.225494 0.884308 0.225494
0.262848 0.923950 0.262848
0.299133 0.964325 0.299133
0.342285 1.000000 0.342285
0.436676 1.000000 0.436676
0.531067 1.000000 0.531067
0.625519 1.000000 0.625519
0.076813 0.034332 0.122345
0.119781 0.073364 0.147888
0.168854 0.111847 0.159515
0.221252 0.150635 0.160370
0.275757 0.189667 0.154480
0.331146 0.229095 0.143524
0.387939 0.268860 0.127441
0.445618 0.309357 0.104828
0.102173 0.141998 0.167999
0.151917 0.177124 0.195679
0.209442 0.210724 0.210602
0.269531 0.244843 0.215576
0.330261 0.280121 0.212860
0.390472 0.316681 0.204254
0.450165 0.354645 0.189423
0.510376 0.393829 0.167297
0.082520 0.273773 0.206726
0.123749 0.312225 0.240051
0.208862 0.332977 0.248474
0.286560 0.358246 0.252838
0.358765 0.387268 0.252136
0.427399 0.419189 0.245453
0.493988 0.453491 0.232056
0.559662 0.490051 0.208588
0.107391 0.389374 0.210876
0.144775 0.429260 0.246948
0.180054 0.470947 0.279205
0.257324 0.495758 0.286987
0.359985 0.511078 0.276978
0.442963 0.536224 0.267487
0.519928 0.566040 0.249542
0.593964 0.599884 0.218262
0.133148 0.508301 0.194977
0.170990 0.547974 0.231110
0.207520 0.589142 0.262421
0.242554 0.632172 0.287903
0.296387 0.668884 0.296204
0.434814 0.670959 0.259369
0.526611 0.690796 0.254578
0.607056 0.715118 0.256470
0.160461 0.629913 0.160461
0.198364 0.669159 0.198364
0.235016 0.709320 0.235016
0.270020 0.750549 0.270020
0.303345 0.793030 0.303345
0.334808 0.836761 0.334808
0.499115 0.824036 0.306793
0.599762 0.839111 0.303528
0.180664 0.744904 0.180664
0.218750 0.784027 0.218750
0.255798 0.823883 0.255798
0.291565 0.864624 0.291565
0.325928 0.906342 0.325928
0.358826 0.949158 0.358826
0.390076 0.992981 0.390076
0.560242 0.977722 0.359680
0.200714 0.859985 0.200714
0.238892 0.899078 0.238892
0.276215 0.938721 0.276215
0.312531 0.979095 0.312531
0.376892 1.000000 0.376892
0.471313 1.000000 0.471313
0.565796 1.000000 0.565796
0.660126 1.000000 0.660126
0.095398 0.043549 0.151337
0.137390 0.082489 0.179871
0.185028 0.120819 0.196381
0.235382 0.159698 0.202118
0.288574 0.198547 0.200897
0.342865 0.237701 0.194519
0.398560 0.276978 0.183990
0.455017 0.316620 0.169281
0.131195 0.145050 0.201569
0.177032 0.181702 0.231689
0.229553 0.217102 0.250519
0.285950 0.252350 0.259491
0.344147 0.288086 0.261139
0.402527 0.324768 0.256866
0.460999 0.362305 0.247955
0.519684 0.400604 0.234497
0.117889 0.272705 0.244781
0.173126 0.305084 0.272552
0.238647 0.334076 0.290344
0.307312 0.362946 0.300323
0.374695 0.393555 0.304077
0.440582 0.425964 0.302643
0.505035 0.460022 0.296021
0.568512 0.495514 0.284149
0.112549 0.399872 0.269623
0.149872 0.439667 0.306213
0.185089 0.481171 0.339417
0.291504 0.493164 0.336731
0.379089 0.514313 0.336487
0.457001 0.540680 0.334381
0.530304 0.570190 0.328094
0.600861 0.602112 0.316467
0.137329 0.516296 0.269775
0.175079 0.555878 0.306458
0.211334 0.596710 0.340302
0.245850 0.639160 0.370361
0.337952 0.657959 0.370453
0.449127 0.669647 0.356293
0.537445 0.692474 0.345062
0.618286 0.720123 0.328064
0.163239 0.635590 0.251434
0.201263 0.674957 0.288177
0.238373 0.715546 0.321503
0.274170 0.757538 0.350433
0.308746 0.801208 0.373901
0.374756 0.833038 0.374969
0.522430 0.832062 0.329132
0.620361 0.850952 0.312897
0.193481 0.760040 0.193481
0.231567 0.799164 0.231567
0.268616 0.838989 0.268616
0.304443 0.879761 0.304443
0.338806 0.921448 0.338806
0.371704 0.964233 0.371704
0.414673 1.000000 0.414673
0.585052 0.987701 0.367584
0.213745 0.874939 0.213745
0.251953 0.914032 0.251953
0.289307 0.953674 0.289307
0.325623 0.994049 0.325623
0.411530 1.000000 0.411530
0.505920 1.000000 0.505920
0.600372 1.000000 0.600372
0.694763 1.000000 0.694763
0.113739 0.052887 0.180237
0.155823 0.091400 0.210999
0.201294 0.130127 0.231018
0.250519 0.168823 0.241058
0.302399 0.207550 0.243896
0.355774 0.246460 0.241272
0.410431 0.285583 0.234589
0.465820 0.324921 0.224274
0.156738 0.149994 0.234344
0.200500 0.187408 0.265991
0.249695 0.223938 0.287964
0.303345 0.259949 0.300415
0.359253 0.296204 0.305450
0.416016 0.333069 0.304779
0.473358 0.370453 0.299591
0.530823 0.408569 0.290527
0.163025 0.268036 0.275818
0.210327 0.303741 0.307495
0.266846 0.336426 0.329681
0.328644 0.368011 0.343781
0.392090 0.399963 0.351257
0.455231 0.433136 0.353088
0.518005 0.467346 0.350281
0.579987 0.502747 0.343262
0.117310 0.411377 0.323883
0.154602 0.451141 0.360596
0.238708 0.471649 0.373352
0.323364 0.492737 0.381165
0.400391 0.518127 0.387085
0.473633 0.546051 0.389374
0.544098 0.576111 0.387848
0.612488 0.608002 0.382202
0.142426 0.526306 0.331116
0.180206 0.565796 0.368317
0.216370 0.606567 0.402802
0.250763 0.648804 0.434143
0.373444 0.654114 0.423248
0.469086 0.671875 0.419037
0.552094 0.695984 0.415375
0.629395 0.723480 0.408813
0.167236 0.643311 0.327972
0.205200 0.682648 0.365204
0.242157 0.722992 0.400269
0.277618 0.764587 0.432068
0.311646 0.807648 0.460358
0.417999 0.820526 0.453003
0.536804 0.829071 0.435120
0.629883 0.849762 0.422272
0.193329 0.762848 0.307861
0.231506 0.802063 0.345093
0.268890 0.842255 0.379517
0.305298 0.883575 0.410645
0.340637 0.926147 0.437775
0.374939 0.970276 0.459412
0.454254 0.996552 0.454041
0.608246 0.993286 0.403381
0.226074 0.889709 0.230133
0.264496 0.929047 0.266235
0.302063 0.968872 0.302063
0.351685 1.000000 0.351685
0.446136 1.000000 0.446136
0.540527 1.000000 0.540527
0.634979 1.000000 0.634979
0.729370 1.000000 0.729370
0.132538 0.061951 0.209229
0.173645 0.100708 0.241455
0.218414 0.139282 0.264313
0.266174 0.178040 0.277893
0.316833 0.216736 0.284302
0.369385 0.255432 0.284943
0.423004 0.294495 0.281433
0.477722 0.333527 0.274445
0.181000 0.155670 0.266541
0.223328 0.193695 0.299164
0.270294 0.230896 0.323486
0.321594 0.267487 0.339020
0.375214 0.304352 0.347168
0.430389 0.341461 0.349548
0.486389 0.378967 0.347443
0.542999 0.416901 0.341614
0.197388 0.268433 0.309387
0.242126 0.305115 0.342438
0.293640 0.339813 0.367584
0.350739 0.373199 0.384705
0.410461 0.406494 0.394989
0.471344 0.440277 0.399811
0.532166 0.474945 0.399872
0.592651 0.510468 0.396057
0.167938 0.403809 0.355408
0.220245 0.437134 0.385925
0.284302 0.466125 0.407806
0.352966 0.493927 0.423035
0.422913 0.522125 0.433167
0.491852 0.551575 0.438812
0.559601 0.582458 0.440521
0.625946 0.614746 0.438324
0.147400 0.537323 0.387421
0.185211 0.576813 0.424713
0.221436 0.617462 0.459686
0.303467 0.639160 0.471344
0.406342 0.652740 0.470032
0.490906 0.674896 0.472260
0.569336 0.700562 0.472839
0.643616 0.728760 0.470764
0.172272 0.652954 0.391632
0.210266 0.692261 0.429016
0.247101 0.732544 0.464447
0.282532 0.774017 0.497314
0.316437 0.816803 0.527252
0.454742 0.815552 0.508606
0.557404 0.830353 0.501007
0.644989 0.852448 0.495636
0.197235 0.770386 0.385956
0.235352 0.809601 0.423462
0.272583 0.849579 0.459045
0.308807 0.890625 0.492249
0.343750 0.932831 0.522430
0.377472 0.976288 0.549438
0.498108 0.983215 0.535065
0.623535 0.988953 0.513855
0.223419 0.890076 0.364471
0.261719 0.929291 0.401733
0.299316 0.969116 0.437134
0.351837 1.000000 0.480377
0.453339 1.000000 0.555542
0.554749 1.000000 0.630798
0.655884 1.000000 0.707031
0.763977 1.000000 0.763977
