projects/Intermediate Assingment 01/res/luts/CustomLut.cube
#Created by: Adobe Photoshop Export Color Lookup Plugin
TITLE "CustomLut"
#LUT size
LUT_3D_SIZE 32
#data domain
DOMAIN_MIN 0.0 0.0 0.0
DOMAIN_MAX 1.0 1.0 1.0
#LUT data points
0.000000 0.000000 0.000000
0.011993 0.009094 0.006409
0.025177 0.017639 0.012665
0.038116 0.026703 0.016724
0.054382 0.034271 0.019531
0.069427 0.042938 0.020172
0.084778 0.051605 0.020050
0.099792 0.060577 0.018921
0.113922 0.070068 0.017456
0.127502 0.079895 0.015656
0.141632 0.089355 0.014160
0.155426 0.099060 0.012543
0.169952 0.108337 0.011047
0.183685 0.118042 0.009491
0.197449 0.127747 0.007812
0.211761 0.137146 0.006287
0.225830 0.146729 0.004730
0.239838 0.156311 0.003235
0.253967 0.165802 0.001648
0.267853 0.175415 0.000061
0.281250 0.185059 0.000031
0.294556 0.194672 0.000031
0.308014 0.204224 0.000031
0.321259 0.213928 0.000031
0.334564 0.223541 0.000031
0.348053 0.233063 0.000031
0.361328 0.242798 0.000031
0.374664 0.252380 0.000031
0.388123 0.261932 0.000031
0.401520 0.271515 0.000031
0.414856 0.281158 0.000031
0.428223 0.290741 0.000031
0.009613 0.025604 0.009613
0.018158 0.036072 0.018158
0.030090 0.045227 0.024261
0.044098 0.053741 0.028564
0.058563 0.062225 0.031342
0.075714 0.069824 0.031830
0.091248 0.078430 0.031311
0.107758 0.086487 0.030945
0.123291 0.095123 0.030243
0.138550 0.103912 0.029388
0.153198 0.113129 0.028290
0.168121 0.122131 0.027344
0.182495 0.131409 0.026062
0.197174 0.140594 0.024902
0.211731 0.149811 0.023651
0.226227 0.159119 0.022278
0.240540 0.168457 0.021027
0.254852 0.177856 0.019592
0.269073 0.187317 0.018219
0.283417 0.196655 0.016815
0.297913 0.205933 0.015472
0.312103 0.215393 0.014069
0.326233 0.224884 0.012543
0.340271 0.234406 0.011078
0.354462 0.243896 0.009613
0.368713 0.253296 0.008148
0.382935 0.262756 0.006683
0.397003 0.272247 0.005188
0.411072 0.281799 0.003662
0.425201 0.291260 0.002136
0.439301 0.300812 0.000671
0.453094 0.310394 0.000031
0.018158 0.051880 0.018158
0.026215 0.062683 0.026215
0.034058 0.073639 0.034058
0.046600 0.082733 0.039124
0.062531 0.090515 0.041992
0.079529 0.098022 0.043365
0.097687 0.105133 0.043549
0.115845 0.112305 0.043549
0.132080 0.120514 0.043304
0.148376 0.128693 0.042938
0.164307 0.137054 0.042419
0.179626 0.145813 0.041748
0.194977 0.154510 0.040955
0.209961 0.163513 0.040009
0.225006 0.172455 0.039032
0.239899 0.181488 0.038055
0.254669 0.190582 0.036926
0.269470 0.199646 0.035767
0.284027 0.208862 0.034576
0.298615 0.218079 0.033325
0.313141 0.227356 0.032074
0.327576 0.236633 0.030762
0.341919 0.246033 0.029419
0.356171 0.255432 0.028076
0.370636 0.264709 0.026733
0.385040 0.274048 0.025391
0.399261 0.283508 0.023956
0.413483 0.292938 0.022552
0.427795 0.302307 0.021179
0.441895 0.311798 0.019714
0.456207 0.321198 0.018280
0.470276 0.330688 0.016785
0.023254 0.080627 0.023254
0.031647 0.091156 0.031647
0.039978 0.101776 0.039978
0.047852 0.112732 0.047852
0.061005 0.121521 0.052551
0.079773 0.128021 0.054474
0.099854 0.134125 0.055054
0.119415 0.140594 0.055115
0.137848 0.147614 0.055267
0.155487 0.155029 0.055328
0.172546 0.162750 0.055206
0.188751 0.170959 0.054901
0.205017 0.179169 0.054565
0.220917 0.187561 0.054016
0.236298 0.196289 0.053284
0.252045 0.204803 0.052582
0.266998 0.213806 0.051758
0.282349 0.222565 0.050873
0.297241 0.231567 0.049927
0.312195 0.240540 0.048859
0.327057 0.249603 0.047791
0.341736 0.258759 0.046692
0.356354 0.267944 0.045471
0.370819 0.277191 0.044281
0.385559 0.286316 0.043091
0.400146 0.295532 0.041840
0.414551 0.304901 0.040558
0.428955 0.314209 0.039276
0.443298 0.323547 0.037903
0.457794 0.332825 0.036621
0.471985 0.342255 0.035217
0.486328 0.351624 0.033875
0.027893 0.109650 0.027893
0.036652 0.119995 0.036652
0.045532 0.130219 0.045532
0.053772 0.140869 0.053772
0.061676 0.151794 0.061676
0.076233 0.159973 0.065948
0.097809 0.165253 0.066803
0.119446 0.170654 0.066742
0.140076 0.176544 0.066803
0.159424 0.183075 0.066956
0.177490 0.190308 0.067078
0.195587 0.197510 0.067139
0.212463 0.205322 0.066986
0.229279 0.213226 0.066803
0.245697 0.221344 0.066528
0.261749 0.229645 0.066101
0.277618 0.238068 0.065552
0.292999 0.246765 0.064880
0.308624 0.255402 0.064178
0.323853 0.264191 0.063385
0.339111 0.273010 0.062531
0.354187 0.281891 0.061615
0.369324 0.290771 0.060699
0.384277 0.299774 0.059692
0.399109 0.308807 0.058594
0.413818 0.317932 0.057495
0.428558 0.327057 0.056396
0.443085 0.336273 0.055206
0.457764 0.345428 0.054016
0.472351 0.354645 0.052795
0.486877 0.363922 0.051575
0.501373 0.373199 0.050293
0.032867 0.138458 0.032867
0.041992 0.148499 0.041992
0.050812 0.158752 0.050812
0.059357 0.169281 0.059357
0.067474 0.180023 0.067474
0.075348 0.190948 0.075348
0.090332 0.198975 0.079254
0.115021 0.202881 0.079041
0.138977 0.207214 0.078400
0.160461 0.212677 0.078339
0.180237 0.219025 0.078461
0.199310 0.225677 0.078735
0.217377 0.232880 0.078827
0.235138 0.240204 0.078827
0.252502 0.247864 0.078857
0.269379 0.255676 0.078735
0.285919 0.263702 0.078400
0.302185 0.271942 0.078033
0.318146 0.280273 0.077576
0.334290 0.288574 0.077087
0.349976 0.297089 0.076447
0.365540 0.305725 0.075806
0.380890 0.314514 0.075043
0.396057 0.323334 0.074219
0.411224 0.332184 0.073334
0.426422 0.341034 0.072449
0.441315 0.350006 0.071472
0.456360 0.358948 0.070496
0.471161 0.368042 0.069427
0.485840 0.377136 0.068298
0.500671 0.386200 0.067200
0.515411 0.395325 0.066101
0.037811 0.167297 0.037811
0.046844 0.177399 0.046844
0.055817 0.187561 0.055817
0.064545 0.197906 0.064545
0.072998 0.208405 0.072998
0.081085 0.219177 0.081085
0.088928 0.230133 0.088928
0.105011 0.237671 0.092773
0.131195 0.240967 0.091583
0.156952 0.244507 0.090393
0.179565 0.249451 0.090118
0.200562 0.255188 0.090088
0.220337 0.261505 0.090271
0.238983 0.268402 0.090393
0.257324 0.275421 0.090515
0.275085 0.282776 0.090607
0.292480 0.290375 0.090607
0.309418 0.298187 0.090485
0.326263 0.306061 0.090271
0.342590 0.314209 0.089996
0.358856 0.322418 0.089600
0.374847 0.330750 0.089142
0.390656 0.339233 0.088593
0.406433 0.347717 0.087982
0.422150 0.356232 0.087311
0.437408 0.365021 0.086578
0.452850 0.373749 0.085846
0.468201 0.382507 0.085022
0.483429 0.391327 0.084167
0.498383 0.400269 0.083221
0.513489 0.409180 0.082275
0.528351 0.418213 0.081268
0.042755 0.196106 0.042755
0.051849 0.206207 0.051849
0.061127 0.216125 0.061127
0.069916 0.226440 0.069916
0.078583 0.236816 0.078583
0.086731 0.247528 0.086731
0.094849 0.258301 0.094849
0.102631 0.269257 0.102631
0.118988 0.276703 0.106262
0.148865 0.278351 0.103760
0.175049 0.281677 0.102386
0.198700 0.286224 0.101837
0.220367 0.291595 0.101746
0.240784 0.297607 0.101868
0.260040 0.304169 0.101990
0.278870 0.310974 0.102203
0.297119 0.318054 0.102264
0.315094 0.325317 0.102356
0.332428 0.332886 0.102356
0.349670 0.340607 0.102295
0.366333 0.348541 0.102112
0.383057 0.356506 0.101868
0.399384 0.364655 0.101593
0.415466 0.372955 0.101135
0.431610 0.381195 0.100677
0.447418 0.389648 0.100159
0.463074 0.398224 0.099548
0.478790 0.406769 0.098907
0.494354 0.415375 0.098206
0.509644 0.424133 0.097443
0.525055 0.432892 0.096680
0.540161 0.441742 0.095795
0.047668 0.224945 0.047668
0.056793 0.234955 0.056793
0.066040 0.244934 0.066040
0.074982 0.255157 0.074982
0.083801 0.265472 0.083801
0.092285 0.275970 0.092285
0.100586 0.286591 0.100586
0.108521 0.297485 0.108521
0.116333 0.308441 0.116333
0.132843 0.315765 0.119995
0.164703 0.316559 0.116638
0.193054 0.318939 0.114441
0.217590 0.323029 0.113647
0.239716 0.328247 0.113403
0.260742 0.333923 0.113403
0.280762 0.340149 0.113617
0.300079 0.346680 0.113770
0.318756 0.353577 0.113983
0.337128 0.360626 0.114075
0.355011 0.367889 0.114105
0.372345 0.375458 0.114136
0.389526 0.383148 0.114075
0.406403 0.390991 0.113922
0.423218 0.398926 0.113739
0.439819 0.406921 0.113464
0.455994 0.415161 0.113098
0.472168 0.423431 0.112701
0.488281 0.431702 0.112213
0.504059 0.440186 0.111664
0.519806 0.448669 0.111115
0.535522 0.457214 0.110474
0.550964 0.465881 0.109772
0.052521 0.253845 0.052521
0.061829 0.263733 0.061829
0.071106 0.273682 0.071106
0.080109 0.283844 0.080109
0.089020 0.294067 0.089020
0.097626 0.304443 0.097626
0.106140 0.314941 0.106140
0.114288 0.325745 0.114288
0.122314 0.336548 0.122314
0.130035 0.347595 0.130035
0.145325 0.355438 0.134247
0.181183 0.354492 0.129242
0.210419 0.356537 0.126709
0.235809 0.360199 0.125580
0.258911 0.364929 0.125183
0.280518 0.370361 0.125122
0.301086 0.376312 0.125214
0.321075 0.382538 0.125366
0.340118 0.389221 0.125549
0.358856 0.396057 0.125702
0.376770 0.403320 0.125793
0.394623 0.410614 0.125885
0.412262 0.418060 0.125916
0.429596 0.425659 0.125854
0.446777 0.433350 0.125763
0.463348 0.441315 0.125549
0.480042 0.449310 0.125336
0.496582 0.457397 0.125061
0.512695 0.465668 0.124695
0.528809 0.473938 0.124237
0.544861 0.482239 0.123749
0.560760 0.490662 0.123260
0.057404 0.282684 0.057404
0.066833 0.292542 0.066833
0.076111 0.302490 0.076111
0.085236 0.312531 0.085236
0.094177 0.322723 0.094177
0.102997 0.333008 0.102997
0.111450 0.343506 0.111450
0.119843 0.354095 0.119843
0.128052 0.364777 0.128052
0.136017 0.375641 0.136017
0.143677 0.386719 0.143677
0.158112 0.394958 0.148315
0.196411 0.393005 0.142242
0.227570 0.394165 0.139069
0.253876 0.397461 0.137665
0.277649 0.401886 0.137085
0.299896 0.407013 0.136841
0.320984 0.412689 0.136780
0.341156 0.418793 0.136932
0.360870 0.425201 0.137115
0.379944 0.431854 0.137360
0.398712 0.438660 0.137482
0.416901 0.445801 0.137573
0.434662 0.453156 0.137665
0.452271 0.460602 0.137665
0.469513 0.468231 0.137665
0.486786 0.475830 0.137543
0.503662 0.483704 0.137421
0.520294 0.491669 0.137177
0.536713 0.499756 0.136902
0.553192 0.507874 0.136597
0.569427 0.516083 0.136261
0.062378 0.311462 0.062378
0.071686 0.321381 0.071686
0.081055 0.331268 0.081055
0.090240 0.341339 0.090240
0.099304 0.351440 0.099304
0.108154 0.361694 0.108154
0.116882 0.372040 0.116882
0.125305 0.382568 0.125305
0.133667 0.393158 0.133667
0.141785 0.403900 0.141785
0.149689 0.414795 0.149689
0.157410 0.425842 0.157410
0.170624 0.434570 0.162537
0.211975 0.431305 0.155151
0.244507 0.431854 0.151459
0.271698 0.434814 0.149811
0.296204 0.438904 0.148956
0.319000 0.443756 0.148529
0.340515 0.449249 0.148499
0.361511 0.454956 0.148529
0.381378 0.461212 0.148712
0.400818 0.467712 0.148895
0.419769 0.474426 0.149048
0.438385 0.481354 0.149200
0.456726 0.488403 0.149323
0.474487 0.495789 0.149414
0.492157 0.503174 0.149445
0.509644 0.510681 0.149414
0.526733 0.518402 0.149323
0.543701 0.526184 0.149231
0.560577 0.534027 0.149048
0.577087 0.542084 0.148804
0.067200 0.340393 0.067200
0.076660 0.350220 0.076660
0.086029 0.360107 0.086029
0.095276 0.370087 0.095276
0.104401 0.380157 0.104401
0.113312 0.390320 0.113312
0.122101 0.400635 0.122101
0.130707 0.411072 0.130707
0.139160 0.421600 0.139160
0.147369 0.432312 0.147369
0.155457 0.443085 0.155457
0.163300 0.454010 0.163300
0.171051 0.465057 0.171051
0.181671 0.474884 0.177277
0.226837 0.469940 0.168396
0.260986 0.469818 0.163971
0.289398 0.472198 0.161926
0.314301 0.476105 0.160919
0.337891 0.480652 0.160370
0.359894 0.485870 0.160217
0.381287 0.491394 0.160187
0.401550 0.497467 0.160278
0.421478 0.503693 0.160431
0.440887 0.510223 0.160614
0.459625 0.517029 0.160767
0.478302 0.523926 0.160950
0.496521 0.531006 0.161041
0.514343 0.538391 0.161163
0.532074 0.545776 0.161224
0.549500 0.553284 0.161163
0.566711 0.560974 0.161163
0.583832 0.568665 0.161041
0.072113 0.369232 0.072113
0.081604 0.379059 0.081604
0.091034 0.388916 0.091034
0.100281 0.398895 0.100281
0.109436 0.408905 0.109436
0.118469 0.419006 0.118469
0.127350 0.429260 0.127350
0.135986 0.439636 0.135986
0.144531 0.450104 0.144531
0.152954 0.460663 0.152954
0.161102 0.471405 0.161102
0.169250 0.482178 0.169250
0.177063 0.493134 0.177063
0.184784 0.504181 0.184784
0.193542 0.514801 0.191772
0.241547 0.508698 0.181702
0.277374 0.507782 0.176666
0.306763 0.509705 0.174164
0.332550 0.513214 0.172913
0.356506 0.517609 0.172241
0.378937 0.522644 0.171967
0.400787 0.527985 0.171844
0.421539 0.533813 0.171936
0.441833 0.539856 0.172028
0.461548 0.546204 0.172180
0.480713 0.552826 0.172394
0.499603 0.559570 0.172546
0.518127 0.566528 0.172668
0.536346 0.573639 0.172791
0.554199 0.580933 0.172882
0.571991 0.588318 0.172943
0.589417 0.595886 0.172974
0.077057 0.398071 0.077057
0.086487 0.407867 0.086487
0.095917 0.417755 0.095917
0.105225 0.427673 0.105225
0.114471 0.437683 0.114471
0.123535 0.447784 0.123535
0.132477 0.457947 0.132477
0.141296 0.468231 0.141296
0.149872 0.478668 0.149872
0.158386 0.489166 0.158386
0.166718 0.499756 0.166718
0.174866 0.510498 0.174866
0.182922 0.521271 0.182922
0.190704 0.532288 0.190704
0.198425 0.543335 0.198425
0.206024 0.554474 0.206024
0.256409 0.547302 0.194946
0.293457 0.545929 0.189423
0.323761 0.547424 0.186554
0.350220 0.550659 0.185089
0.374878 0.554688 0.184204
0.397980 0.559387 0.183746
0.420044 0.564636 0.183563
0.441406 0.570221 0.183563
0.461975 0.576141 0.183685
0.481934 0.582336 0.183777
0.501556 0.588745 0.183960
0.520691 0.595367 0.184143
0.539551 0.602142 0.184326
0.558044 0.609100 0.184448
0.576202 0.616272 0.184601
0.594177 0.623505 0.184662
0.081940 0.426910 0.081940
0.091431 0.436737 0.091431
0.100861 0.446594 0.100861
0.110199 0.456482 0.110199
0.119446 0.466461 0.119446
0.128571 0.476532 0.128571
0.137543 0.486664 0.137543
0.146393 0.496918 0.146393
0.155151 0.507263 0.155151
0.163757 0.517700 0.163757
0.172211 0.528229 0.172211
0.180481 0.538849 0.180481
0.188629 0.549622 0.188629
0.196594 0.560455 0.196594
0.204407 0.571411 0.204407
0.212158 0.582458 0.212158
0.219696 0.593628 0.219696
0.270203 0.586426 0.208618
0.309540 0.584045 0.202179
0.340393 0.585327 0.199066
0.367859 0.588074 0.197205
0.393036 0.591888 0.196198
0.416626 0.596375 0.195587
0.439209 0.601379 0.195312
0.460846 0.606750 0.195221
0.481750 0.612518 0.195251
0.502197 0.618530 0.195374
0.522064 0.624817 0.195557
0.541473 0.631317 0.195709
0.560669 0.637939 0.195892
0.579376 0.644775 0.196075
0.597870 0.651733 0.196198
0.086792 0.455811 0.086792
0.096313 0.465607 0.096313
0.105804 0.475433 0.105804
0.115143 0.485321 0.115143
0.124451 0.495270 0.124451
0.133636 0.505310 0.133636
0.142670 0.515411 0.142670
0.151550 0.525635 0.151550
0.160400 0.535919 0.160400
0.169067 0.546295 0.169067
0.177582 0.556763 0.177582
0.185944 0.567322 0.185944
0.194183 0.578003 0.194183
0.202362 0.588745 0.202362
0.210266 0.599609 0.210266
0.218109 0.610565 0.218109
0.225830 0.621674 0.225830
0.233398 0.632782 0.233398
0.283905 0.625580 0.222321
0.325012 0.622437 0.215118
0.356934 0.623260 0.211609
0.385284 0.625610 0.209442
0.411011 0.629150 0.208221
0.435059 0.633453 0.207520
0.458191 0.638214 0.207123
0.480042 0.643555 0.207001
0.501404 0.649078 0.206970
0.522247 0.654877 0.207031
0.542389 0.661011 0.207123
0.562134 0.667328 0.207306
0.581573 0.673828 0.207489
0.600494 0.680573 0.207672
0.091766 0.484650 0.091766
0.101257 0.494446 0.101257
0.110748 0.504272 0.110748
0.120178 0.514099 0.120178
0.129425 0.524078 0.129425
0.138611 0.534058 0.138611
0.147736 0.544159 0.147736
0.156708 0.554321 0.156708
0.165619 0.564514 0.165619
0.174316 0.574890 0.174316
0.182953 0.585297 0.182953
0.191406 0.595825 0.191406
0.199768 0.606415 0.199768
0.208008 0.617096 0.208008
0.216034 0.627899 0.216034
0.223999 0.638763 0.223999
0.231812 0.649719 0.231812
0.239563 0.660797 0.239563
0.247101 0.671967 0.247101
0.297455 0.664795 0.236115
0.340393 0.660828 0.228088
0.373566 0.661133 0.224152
0.402405 0.663300 0.221802
0.428802 0.666534 0.220398
0.453461 0.670532 0.219482
0.476990 0.675079 0.218964
0.499146 0.680237 0.218719
0.520935 0.685577 0.218597
0.541992 0.691345 0.218658
0.562469 0.697296 0.218781
0.582581 0.703430 0.218903
0.602112 0.709869 0.219055
0.096649 0.513489 0.096649
0.106201 0.523315 0.106201
0.115662 0.533112 0.115662
0.125122 0.542938 0.125122
0.134399 0.552887 0.134399
0.143707 0.562836 0.143707
0.152771 0.572906 0.152771
0.161835 0.583008 0.161835
0.170715 0.593231 0.170715
0.179565 0.603485 0.179565
0.188202 0.613861 0.188202
0.196747 0.624329 0.196747
0.205200 0.634857 0.205200
0.213531 0.645508 0.213531
0.221741 0.656189 0.221741
0.229767 0.667023 0.229767
0.237732 0.677887 0.237732
0.245514 0.688873 0.245514
0.253204 0.699951 0.253204
0.260773 0.711090 0.260773
0.310486 0.704193 0.250061
0.355438 0.699402 0.241241
0.389923 0.699127 0.236786
0.419434 0.700989 0.234192
0.446442 0.703979 0.232544
0.471680 0.707733 0.231506
0.495270 0.712250 0.230896
0.518250 0.717041 0.230530
0.540344 0.722229 0.230347
0.561554 0.727844 0.230316
0.582428 0.733582 0.230347
0.602631 0.739685 0.230469
0.101562 0.542328 0.101562
0.111115 0.552124 0.111115
0.120605 0.561920 0.120605
0.130005 0.571747 0.130005
0.139343 0.581665 0.139343
0.148651 0.591644 0.148651
0.157837 0.601685 0.157837
0.166931 0.611755 0.166931
0.175873 0.621948 0.175873
0.184723 0.632172 0.184723
0.193481 0.642487 0.193481
0.202087 0.652893 0.202087
0.210602 0.663361 0.210602
0.218964 0.673950 0.218964
0.227264 0.684601 0.227264
0.235443 0.695312 0.235443
0.243500 0.706146 0.243500
0.251434 0.717041 0.251434
0.259216 0.728027 0.259216
0.266907 0.739075 0.266907
0.274445 0.750214 0.274445
0.322998 0.743835 0.264282
0.370361 0.737976 0.254395
0.405640 0.737366 0.249573
0.436310 0.738708 0.246582
0.463898 0.741486 0.244751
0.489594 0.745056 0.243561
0.513824 0.749237 0.242798
0.536987 0.753937 0.242340
0.559357 0.759033 0.242126
0.581116 0.764374 0.242004
0.602234 0.770050 0.242004
0.106476 0.571198 0.106476
0.115997 0.580963 0.115997
0.125519 0.590759 0.125519
0.134979 0.600586 0.134979
0.144348 0.610474 0.144348
0.153625 0.620422 0.153625
0.162842 0.630432 0.162842
0.171936 0.640503 0.171936
0.180939 0.650635 0.180939
0.189880 0.660858 0.189880
0.198700 0.671143 0.198700
0.207367 0.681488 0.207367
0.215973 0.691925 0.215973
0.224426 0.702454 0.224426
0.232788 0.713043 0.232788
0.241058 0.723694 0.241058
0.249207 0.734436 0.249207
0.257233 0.745270 0.257233
0.265137 0.756165 0.265137
0.272919 0.767181 0.272919
0.280579 0.778229 0.280579
0.288147 0.789368 0.288147
0.334900 0.783783 0.278748
0.384766 0.776825 0.267792
0.421722 0.775452 0.262329
0.452942 0.776611 0.259094
0.481171 0.779022 0.257019
0.507294 0.782379 0.255646
0.531982 0.786407 0.254761
0.555725 0.790894 0.254211
0.578278 0.795868 0.253906
0.600433 0.801056 0.253754
0.111359 0.600037 0.111359
0.120911 0.609833 0.120911
0.130432 0.619598 0.130432
0.139923 0.629425 0.139923
0.149292 0.639313 0.149292
0.158630 0.649200 0.158630
0.167877 0.659210 0.167877
0.176971 0.669250 0.176971
0.186066 0.679352 0.186066
0.195007 0.689545 0.195007
0.203827 0.699799 0.203827
0.212585 0.710114 0.212585
0.221252 0.720490 0.221252
0.229828 0.730988 0.229828
0.238251 0.741486 0.238251
0.246582 0.752136 0.246582
0.254822 0.762787 0.254822
0.262909 0.773560 0.262909
0.270905 0.784393 0.270905
0.278809 0.795319 0.278809
0.286560 0.806305 0.286560
0.294281 0.817413 0.294281
0.301849 0.828552 0.301849
0.346527 0.823792 0.293335
0.399658 0.815460 0.281067
0.437378 0.813782 0.275238
0.469452 0.814514 0.271667
0.498352 0.816681 0.269348
0.524872 0.819855 0.267853
0.550049 0.823639 0.266785
0.574127 0.827942 0.266113
0.597107 0.832733 0.265717
0.116272 0.628876 0.116272
0.125824 0.638672 0.125824
0.135345 0.648407 0.135345
0.144836 0.658234 0.144836
0.154236 0.668121 0.154236
0.163605 0.678040 0.163605
0.172852 0.687988 0.172852
0.182037 0.698029 0.182037
0.191101 0.708099 0.191101
0.200104 0.718262 0.200104
0.209015 0.728455 0.209015
0.217804 0.738739 0.217804
0.226532 0.749084 0.226532
0.235138 0.759491 0.235138
0.243622 0.770020 0.243622
0.252014 0.780548 0.252014
0.260345 0.791199 0.260345
0.268585 0.801910 0.268585
0.276642 0.812683 0.276642
0.284637 0.823517 0.284637
0.292511 0.834473 0.292511
0.300293 0.845428 0.300293
0.307922 0.856537 0.307922
0.315491 0.867676 0.315491
0.357849 0.863922 0.308044
0.413635 0.854523 0.294647
0.452881 0.852173 0.288208
0.485931 0.852478 0.284271
0.515289 0.854401 0.281738
0.542450 0.857300 0.280029
0.568054 0.860931 0.278870
0.592407 0.865082 0.278107
0.121185 0.657776 0.121185
0.130737 0.667511 0.130737
0.140259 0.677277 0.140259
0.149750 0.687103 0.149750
0.159180 0.696930 0.159180
0.168549 0.706848 0.168549
0.177826 0.716766 0.177826
0.187042 0.726776 0.187042
0.196106 0.736847 0.196106
0.205200 0.747009 0.205200
0.214142 0.757172 0.214142
0.222992 0.767426 0.222992
0.231750 0.777710 0.231750
0.240387 0.788116 0.240387
0.248962 0.798553 0.248962
0.257446 0.809052 0.257446
0.265808 0.819641 0.265808
0.274139 0.830322 0.274139
0.282318 0.841034 0.282318
0.290375 0.851837 0.290375
0.298340 0.862701 0.298340
0.306213 0.873627 0.306213
0.313965 0.884613 0.313965
0.321625 0.895691 0.321625
0.329224 0.906830 0.329224
0.368011 0.904572 0.323242
0.427765 0.893433 0.308136
0.468506 0.890411 0.301086
0.502045 0.890533 0.296967
0.532166 0.892181 0.294189
0.559937 0.894806 0.292267
0.585846 0.898285 0.290985
0.126068 0.686584 0.126068
0.135620 0.696350 0.135620
0.145233 0.706116 0.145233
0.154724 0.715912 0.154724
0.164154 0.725739 0.164154
0.173523 0.735657 0.173523
0.182831 0.745575 0.182831
0.192047 0.755585 0.192047
0.201172 0.765594 0.201172
0.210266 0.775696 0.210266
0.219208 0.785858 0.219208
0.228149 0.796082 0.228149
0.236938 0.806366 0.236938
0.245667 0.816711 0.245667
0.254303 0.827118 0.254303
0.262878 0.837585 0.262878
0.271271 0.848114 0.271271
0.279633 0.858704 0.279633
0.287872 0.869385 0.287872
0.295990 0.880127 0.295990
0.304047 0.890930 0.304047
0.312042 0.901825 0.312042
0.319916 0.912750 0.319916
0.327667 0.923767 0.327667
0.335327 0.934845 0.335327
0.342896 0.945953 0.342896
0.377960 0.945343 0.338562
0.441620 0.932495 0.321777
0.483612 0.928955 0.314209
0.518188 0.928619 0.309631
0.548828 0.930023 0.306671
0.576935 0.932495 0.304596
0.130981 0.715424 0.130981
0.140564 0.725189 0.140564
0.150116 0.734955 0.150116
0.159607 0.744720 0.159607
0.169067 0.754578 0.169067
0.178436 0.764435 0.178436
0.187805 0.774384 0.187805
0.197021 0.784363 0.197021
0.206207 0.794373 0.206207
0.215332 0.804474 0.215332
0.224335 0.814575 0.224335
0.233276 0.824768 0.233276
0.242126 0.835022 0.242126
0.250885 0.845337 0.250885
0.259552 0.855682 0.259552
0.268158 0.866119 0.268158
0.276672 0.876648 0.276672
0.285095 0.887207 0.285095
0.293427 0.897827 0.293427
0.301636 0.908508 0.301636
0.309753 0.919250 0.309753
0.317810 0.930054 0.317810
0.325745 0.940948 0.325745
0.333588 0.951874 0.333588
0.341370 0.962891 0.341370
0.349030 0.973999 0.349030
0.356598 0.985138 0.356598
0.385956 0.986938 0.354706
0.455231 0.971710 0.335571
0.498749 0.967499 0.327362
0.533966 0.966888 0.322510
0.565491 0.967865 0.319183
0.135895 0.744293 0.135895
0.145477 0.754059 0.145477
0.155029 0.763794 0.155029
0.164551 0.773590 0.164551
0.173981 0.783417 0.173981
0.183411 0.793274 0.183411
0.192749 0.803162 0.192749
0.202026 0.813141 0.202026
0.211212 0.823120 0.211212
0.220337 0.833191 0.220337
0.229401 0.843323 0.229401
0.238373 0.853485 0.238373
0.247253 0.863708 0.247253
0.256104 0.873993 0.256104
0.264801 0.884308 0.264801
0.273438 0.894714 0.273438
0.281982 0.905182 0.281982
0.290466 0.915680 0.290466
0.298889 0.926300 0.298889
0.307190 0.936920 0.307190
0.315369 0.947601 0.315369
0.323486 0.958374 0.323486
0.331512 0.969177 0.331512
0.339447 0.980072 0.339447
0.347290 0.991028 0.347290
0.357971 1.000000 0.357971
0.381622 1.000000 0.381622
0.405212 1.000000 0.405212
0.434540 1.000000 0.413025
0.482910 1.000000 0.369293
0.521179 1.000000 0.352997
0.555908 1.000000 0.346344
0.140778 0.773132 0.140778
0.150360 0.782867 0.150360
0.159973 0.792664 0.159973
0.169464 0.802429 0.169464
0.178955 0.812256 0.178955
0.188385 0.822113 0.188385
0.197723 0.832001 0.197723
0.207001 0.841949 0.207001
0.216217 0.851929 0.216217
0.225372 0.861969 0.225372
0.234436 0.872070 0.234436
0.243469 0.882202 0.243469
0.252380 0.892395 0.252380
0.261230 0.902618 0.261230
0.270050 0.912964 0.270050
0.278717 0.923340 0.278717
0.287354 0.933746 0.287354
0.295868 0.944214 0.295868
