projects/Intermediate Assingment 01/res/luts/CustomLut.cube
#Created by: Adobe Photoshop Export Color Lookup Plugin
TITLE "CustomLut"
#LUT size
LUT_3D_SIZE 5
#data domain
#LUT data points
DOMAIN_MIN 0.000000 0.000000 0.000000
DOMAIN_MAX 0.903226 0.903226 0.903226
0.000000 0.000000 0.000000
0.099792 0.060577 0.018921
0.197449 0.127747 0.007812
0.294556 0.194672 0.000031
0.388123 0.261932 0.000031
0.042755 0.196106 0.042755
0.102631 0.269257 0.102631
0.260040 0.304169 0.101990
0.383057 0.356506 0.101868
0.494354 0.415375 0.098206
0.077057 0.398071 0.077057
0.141296 0.468231 0.141296
0.198425 0.543335 0.198425
0.397980 0.559387 0.183746
0.539551 0.602142 0.184326
0.111359 0.600037 0.111359
0.176971 0.669250 0.176971
0.238251 0.741486 0.238251
0.294281 0.817413 0.294281
0.524872 0.819855 0.267853
0.145691 0.802002 0.145691
0.211975 0.870758 0.211975
0.275208 0.941589 0.275208
0.356415 1.000000 0.356415
0.521698 1.000000 0.521698
0.030151 0.017731 0.048462
0.123901 0.081818 0.064636
0.222870 0.150940 0.040039
0.321564 0.219391 0.019440
0.419556 0.286285 0.009247
0.064392 0.220886 0.076447
0.129028 0.293060 0.129028
0.288208 0.327942 0.123596
0.409210 0.381042 0.124634
0.519928 0.440094 0.121521
0.101105 0.423431 0.101105
0.165314 0.493622 0.165314
0.222565 0.568665 0.222565
0.425629 0.583221 0.206482
0.565735 0.626587 0.207794
0.135712 0.625214 0.135712
0.201385 0.694427 0.201385
0.262604 0.766632 0.262604
0.318665 0.842529 0.318665
0.552094 0.843781 0.291107
0.170197 0.827057 0.170197
0.236481 0.895782 0.236481
0.299744 0.966675 0.299744
0.417023 1.000000 0.417023
0.582306 1.000000 0.582306
0.067261 0.029938 0.107788
0.148621 0.097504 0.139099
0.242004 0.165710 0.134460
0.340149 0.235016 0.110901
0.442291 0.306946 0.062195
0.073761 0.239410 0.177246
0.180298 0.292969 0.215332
0.312469 0.340027 0.218231
0.431122 0.397797 0.200653
0.546295 0.463562 0.149597
0.118164 0.444641 0.166748
0.183044 0.515472 0.225525
0.257446 0.586365 0.258209
0.458252 0.605286 0.225098
0.594330 0.650269 0.228363
0.159088 0.651093 0.159088
0.224731 0.720276 0.224731
0.286041 0.792450 0.286041
0.342163 0.868286 0.342163
0.583832 0.866028 0.311188
0.194061 0.852600 0.194061
0.260315 0.921326 0.260315
0.323578 0.992188 0.323578
0.477600 1.000000 0.477600
0.642822 1.000000 0.642822
0.099731 0.046021 0.158447
0.176666 0.113617 0.201874
0.265381 0.181335 0.212738
0.359741 0.249695 0.204468
0.457520 0.318665 0.183655
0.138824 0.236633 0.240631
0.231476 0.295776 0.286682
0.341614 0.351105 0.305237
0.452271 0.409821 0.304352
0.560638 0.472504 0.288544
0.126221 0.460388 0.286072
0.190826 0.530670 0.348602
0.324493 0.573914 0.368011
0.481110 0.610413 0.360870
0.613800 0.660583 0.345551
0.170746 0.667389 0.265503
0.236816 0.736938 0.328064
0.299500 0.810425 0.378784
0.395142 0.873688 0.394531
0.620758 0.886292 0.327484
0.216980 0.878723 0.216980
0.283295 0.947479 0.283295
0.372955 1.000000 0.372955
0.538208 1.000000 0.538208
0.703400 1.000000 0.703400
0.132538 0.061951 0.209229
0.206909 0.129639 0.259460
0.291260 0.197327 0.281952
0.382690 0.265167 0.284485
0.477722 0.333527 0.274445
0.196259 0.238586 0.299316
0.277313 0.302338 0.351898
0.374695 0.362396 0.380066
0.477905 0.423126 0.388794
0.581787 0.486084 0.383698
0.134674 0.480194 0.382324
0.227478 0.538300 0.433655
0.380249 0.572815 0.447601
0.512726 0.618622 0.456573
0.636749 0.670502 0.455597
0.178467 0.682129 0.391205
0.244324 0.751465 0.455536
0.306366 0.824097 0.512665
0.466064 0.856995 0.516632
0.642151 0.885193 0.500671
0.223419 0.890076 0.364471
0.289978 0.959106 0.428589
0.402527 1.000000 0.517883
0.580017 1.000000 0.649689
0.763977 1.000000 0.763977
