projects/Intermediate Assingment 01/res/luts/WarmLut.3DL
#Created by: Adobe Photoshop Export Color Lookup Plugin
#Description: Sigh.PNG
0 33 66 99 132 165 198 231 264 297 330 363 396 429 462 495 528 561 594 627 660 693 726 759 792 825 858 891 924 957 990 1023
0 0 0
29 6 22
54 12 49
89 14 79
134 9 114
183 1 154
220 0 192
256 0 226
292 0 260
328 0 294
364 0 328
400 0 361
436 0 396
472 0 429
509 0 463
544 0 497
580 0 530
616 0 564
652 0 598
689 0 631
725 0 665
761 0 699
797 0 733
833 0 766
869 0 800
905 0 833
941 0 867
977 0 901
1013 0 935
1049 0 968
1086 0 1002
1122 0 1035
56 96 40
83 103 62
118 105 88
155 105 120
202 98 159
257 86 205
309 74 259
364 61 313
420 47 366
469 38 414
519 28 461
568 19 508
620 9 555
669 0 601
705 0 635
741 0 670
776 0 705
812 0 739
848 0 773
884 0 807
920 0 841
956 0 875
992 0 909
1028 0 943
1064 0 977
1100 0 1010
1136 0 1044
1172 0 1079
1208 0 1112
1244 0 1146
1280 0 1180
1316 0 1213
110 194 76
143 199 91
170 206 116
214 201 151
256 197 190
309 186 237
364 173 291
413 162 347
471 147 403
529 131 461
587 115 519
650 96 579
702 85 629
752 76 676
802 66 724
853 56 770
902 47 818
953 37 864
1003 28 912
1053 18 958
1104 8 1005
1152 0 1050
1187 0 1084
1223 0 1118
1260 0 1153
1295 0 1187
1331 0 1221
1367 0 1255
1403 0 1289
1439 0 1323
1475 0 1357
1511 0 1391
158 299 93
187 307 103
217 311 127
257 310 159
299 306 199
348 296 247
398 286 301
451 272 361
507 258 418
563 242 477
620 227 536
681 210 597
745 190 659
807 172 720
875 150 785
935 133 844
986 123 891
1035 114 939
1085 104 986
1135 94 1033
1185 85 1080
1236 75 1127
1286 65 1174
1336 56 1221
1386 46 1268
1437 36 1315
1487 27 1362
1537 17 1409
1588 7 1455
1634 0 1498
1670 0 1533
1706 0 1567
206 404 107
238 411 116
273 415 127
305 417 161
350 412 199
389 408 247
436 398 305
486 386 363
535 375 421
587 362 479
645 346 539
702 331 597
760 315 657
822 296 719
888 276 784
954 254 850
1024 231 918
1094 207 986
1166 182 1056
1219 170 1106
1268 161 1154
1318 151 1201
1368 142 1248
1418 132 1295
1468 123 1343
1518 113 1389
1569 103 1436
1619 94 1484
1669 84 1531
1719 74 1577
1770 64 1624
1820 55 1671
270 502 115
295 512 125
329 518 134
359 522 156
397 520 197
438 515 245
479 508 304
525 498 364
570 488 424
620 477 482
674 464 540
725 451 597
782 436 656
839 421 716
897 405 775
959 386 837
1021 368 901
1088 346 966
1158 322 1035
1233 295 1108
1307 268 1180
1385 239 1256
1451 218 1322
1501 208 1369
1551 199 1417
1601 189 1464
1651 180 1511
1701 170 1558
1751 160 1605
1801 151 1652
1852 141 1699
1902 131 1746
331 601 123
357 611 133
385 619 143
418 626 151
453 626 189
490 622 241
528 616 298
568 609 362
612 599 424
659 589 484
707 578 543
758 566 601
810 553 659
863 540 716
919 526 776
977 510 835
1034 494 894
1094 477 955
1156 458 1018
1222 438 1082
1289 416 1148
1359 392 1218
1433 365 1291
1514 334 1369
1597 301 1451
1682 267 1533
1734 256 1584
1785 246 1631
1834 237 1679
1884 227 1726
1934 217 1773
1984 208 1820
393 701 131
418 711 141
446 719 151
474 728 161
510 730 180
543 729 231
578 725 290
617 717 358
656 709 423
701 699 485
748 689 545
794 679 603
844 667 662
894 656 719
947 643 778
1001 629 836
1057 615 894
1113 600 953
1171 583 1013
1232 566 1074
1292 549 1135
1356 529 1198
1421 508 1263
1489 486 1329
1560 462 1400
1635 434 1474
1715 403 1553
1803 367 1639
1893 330 1726
1968 303 1799
2018 293 1846
2067 284 1894
456 799 137
479 810 149
504 820 160
534 827 169
566 834 177
600 835 215
633 831 277
668 825 347
706 817 417
747 809 482
789 800 544
834 791 605
881 781 663
931 769 723
981 757 781
1031 745 838
1084 733 896
1138 719 955
1194 704 1013
1250 689 1071
1308 673 1131
1367 657 1191
1428 639 1253
1490 620 1315
1553 601 1378
1620 579 1444
1689 557 1512
1759 533 1581
1836 504 1656
1915 474 1734
2003 438 1820
2098 397 1913
521 897 144
541 909 157
566 919 168
593 928 178
624 935 187
659 940 198
689 938 260
721 933 330
757 926 406
794 918 476
835 910 541
878 901 603
922 891 665
969 881 724
1017 870 783
1067 859 841
1117 847 900
1169 834 957
1222 822 1015
1276 808 1073
1331 794 1132
1388 778 1191
1445 763 1250
1504 746 1310
1564 729 1371
1626 710 1433
1689 692 1495
1754 671 1560
1820 650 1626
1888 627 1693
1960 602 1764
2036 575 1838
583 996 152
604 1008 164
627 1019 176
654 1028 186
682 1036 196
715 1042 204
748 1044 237
777 1041 308
810 1034 389
845 1026 465
883 1018 536
923 1010 601
966 1002 664
1011 992 725
1056 982 785
1105 971 844
1153 961 902
1203 949 960
1253 937 1018
1306 924 1076
1359 911 1134
1413 897 1192
1469 883 1250
1525 868 1309
1583 852 1369
1642 836 1428
1701 819 1489
1762 801 1550
1824 783 1612
1887 763 1676
1953 742 1741
2021 720 1807
648 1094 159
668 1106 171
689 1118 183
712 1128 194
742 1136 204
772 1144 213
805 1150 221
837 1147 285
865 1142 367
898 1134 449
935 1126 525
972 1119 594
1013 1110 660
1055 1102 723
1099 1093 785
1145 1083 845
1192 1072 904
1240 1062 963
1289 1050 1021
1340 1038 1079
1391 1026 1137
1444 1014 1195
1496 1001 1253
1552 986 1311
1606 972 1369
1663 957 1428
1720 942 1487
1778 925 1547
1837 909 1607
1899 891 1668
1960 873 1730
2022 854 1793
710 1193 166
731 1205 178
750 1217 191
774 1228 202
802 1236 213
831 1244 222
863 1251 230
897 1254 254
924 1250 336
955 1242 429
987 1234 510
1024 1227 584
1061 1219 653
1102 1211 719
1144 1202 783
1187 1193 844
1233 1183 905
1279 1174 965
1326 1163 1023
1375 1152 1082
1425 1140 1140
1476 1128 1198
1528 1116 1256
1581 1103 1314
1634 1089 1372
1689 1075 1430
1745 1061 1488
1800 1047 1547
1857 1031 1606
1916 1015 1666
1975 998 1726
2035 981 1787
773 1292 173
793 1304 186
814 1316 198
836 1327 210
862 1336 221
890 1345 231
920 1352 239
954 1358 248
985 1357 303
1013 1350 397
1042 1342 490
1076 1335 571
1111 1328 644
1150 1320 713
1190 1312 778
1232 1303 842
1275 1294 904
1320 1285 965
1367 1274 1025
1414 1264 1084
1462 1253 1143
1511 1242 1201
1562 1230 1259
1613 1218 1317
1666 1205 1375
1718 1192 1432
1772 1179 1490
1827 1165 1549
1881 1151 1607
1938 1135 1666
1995 1120 1724
2053 1104 1784
836 1391 181
857 1402 193
876 1415 206
898 1426 218
923 1436 229
950 1445 239
980 1453 248
1012 1459 257
1046 1465 264
1073 1458 359
1100 1450 461
1131 1443 551
1164 1435 630
1201 1428 704
1239 1421 772
1280 1412 838
1321 1403 902
1364 1395 964
1409 1385 1025
1455 1375 1085
1501 1365 1144
1549 1354 1203
1598 1343 1261
1648 1332 1320
1698 1320 1378
1750 1308 1436
1803 1295 1494
1856 1281 1551
1909 1268 1609
1964 1254 1668
2019 1240 1725
2076 1225 1785
900 1489 188
918 1502 201
938 1514 213
960 1525 226
984 1536 237
1010 1545 247
1038 1553 257
1070 1560 266
1103 1566 274
1134 1567 316
1159 1559 422
1187 1551 525
1219 1543 612
1254 1536 690
1290 1528 762
1328 1521 831
1368 1513 897
1410 1504 961
1453 1495 1024
1497 1486 1085
1542 1476 1145
1589 1466 1205
1637 1455 1264
1685 1445 1322
1734 1433 1380
1785 1421 1439
1836 1409 1497
1887 1397 1554
1940 1384 1612
1993 1371 1670
2047 1357 1728
2102 1343 1786
963 1588 195
982 1600 208
1000 1613 221
1021 1625 233
1045 1635 245
1070 1645 255
1098 1654 265
1127 1661 275
1160 1668 283
1194 1674 291
1221 1669 375
1246 1659 490
1276 1651 588
1307 1644 672
1342 1636 750
1378 1629 821
1417 1621 890
1458 1613 956
1499 1605 1021
1541 1596 1083
1586 1586 1144
1631 1577 1205
1677 1567 1265
1724 1556 1324
1772 1546 1383
1821 1535 1441
1871 1523 1500
1921 1511 1557
1972 1499 1615
2024 1487 1673
2077 1474 1731
2130 1460 1789
1027 1686 202
1044 1699 215
1063 1712 228
1084 1724 241
1106 1735 253
1130 1745 263
1158 1753 274
1187 1762 283
1218 1769 292
1251 1775 300
1285 1779 322
1307 1770 442
1334 1759 556
1363 1752 651
1396 1744 733
1431 1737 809
1468 1729 881
1506 1722 950
1546 1713 1016
1588 1705 1080
1630 1696 1142
1674 1687 1204
1719 1678 1265
1765 1668 1325
1812 1658 1385
1859 1647 1443
1908 1636 1502
1957 1625 1560
2007 1613 1618
2058 1601 1676
2109 1589 1734
2162 1576 1792
1089 1785 209
1107 1798 222
1126 1811 236
1146 1823 248
1168 1834 260
1192 1844 271
1218 1854 282
1247 1862 291
1276 1870 301
1308 1877 310
1343 1882 317
1371 1880 385
1394 1869 514
1421 1860 621
1451 1852 711
1484 1845 793
1519 1837 869
1556 1830 940
1595 1822 1009
1635 1814 1075
1677 1806 1139
1719 1797 1202
1763 1788 1264
1807 1779 1325
1853 1769 1385
1899 1758 1445
1947 1748 1504
1995 1737 1562
2044 1726 1621
2094 1714 1679
2143 1703 1737
2194 1691 1795
1153 1883 216
1170 1897 230
1189 1910 243
1208 1922 256
1231 1933 268
1254 1944 279
1279 1953 290
1306 1962 300
1335 1970 309
1367 1977 318
1400 1984 327
1434 1989 334
1457 1980 456
1480 1969 584
1508 1960 685
1539 1953 773
1573 1945 853
1608 1938 928
1645 1930 999
1684 1923 1068
1724 1914 1134
1765 1906 1199
1808 1897 1262
1851 1888 1324
1896 1879 1385
1941 1870 1445
1987 1859 1505
2034 1849 1564
2082 1838 1623
2130 1827 1681
2179 1816 1740
2230 1804 1798
1216 1982 224
1233 1995 237
1251 2008 250
1271 2021 263
1292 2032 275
1315 2043 287
1340 2053 298
1367 2062 308
1395 2071 318
1425 2078 327
1458 2084 336
1491 2091 344
1522 2091 388
1542 2079 533
1567 2069 650
1596 2060 748
1628 2053 834
1662 2046 913
1697 2038 988
1734 2031 1059
1773 2023 1127
1813 2015 1193
1854 2007 1258
1896 1998 1321
1940 1989 1383
1984 1980 1444
2029 1970 1505
2075 1960 1565
2122 1950 1624
2169 1939 1683
2218 1929 1742
2266 1918 1800
1279 2081 231
1297 2094 244
1314 2107 258
1334 2119 270
1354 2131 283
1377 2142 295
1401 2152 306
1427 2162 317
1455 2170 326
1484 2179 336
1515 2186 345
1548 2192 353
1582 2198 361
1607 2191 462
1628 2178 606
1654 2169 716
1684 2161 810
1716 2153 895
1750 2146 973
1786 2139 1047
1823 2131 1118
1862 2123 1186
1902 2115 1252
1943 2107 1317
1985 2099 1381
2028 2090 1443
2072 2080 1504
2117 2071 1565
2163 2061 1625
2209 2051 1685
2257 2040 1744
2304 2030 1803
1343 2179 238
1360 2193 252
1377 2206 265
1396 2218 278
1417 2230 290
1439 2241 302
1462 2252 314
1488 2262 325
1515 2271 335
1543 2279 344
1573 2287 354
1606 2293 362
1639 2299 370
1673 2304 384
1692 2289 543
1714 2278 676
1741 2269 781
1772 2261 872
1804 2254 955
1839 2247 1033
1875 2239 1106
1912 2232 1177
1951 2224 1245
1991 2216 1312
2032 2207 1376
2074 2199 1440
2117 2190 1502
2161 2181 1564
2206 2171 1625
2251 2162 1685
2297 2151 1745
2344 2141 1804
1406 2278 245
1423 2291 259
1440 2304 272
1459 2317 285
1479 2329 298
1501 2340 310
1524 2351 322
1548 2362 333
1575 2371 343
1603 2379 353
1632 2387 362
1664 2394 371
1696 2401 380
1730 2407 387
1758 2403 462
1776 2388 624
1801 2378 744
1829 2370 845
1860 2362 934
1893 2354 1016
1928 2347 1093
1964 2340 1166
2001 2332 1237
2040 2324 1304
2080 2316 1371
2120 2308 1436
2162 2300 1500
2206 2291 1562
2249 2282 1624
2294 2272 1685
2339 2262 1745
2385 2253 1805
1469 2376 252
1486 2390 266
1503 2403 280
1522 2416 293
1541 2428 305
1563 2440 318
1585 2451 329
1609 2461 340
1635 2470 351
1663 2479 361
1692 2487 371
1722 2495 380
1754 2502 389
1787 2508 397
1822 2513 404
1842 2501 547
1862 2488 698
1887 2478 811
1917 2470 908
1948 2462 995
1981 2455 1076
2016 2448 1152
2052 2440 1225
2090 2433 1296
2129 2425 1364
2168 2417 1430
2209 2409 1495
2251 2400 1559
2294 2391 1622
2338 2382 1684
2382 2373 1744
2427 2363 1805
1533 2475 259
1549 2489 273
1567 2502 287
1585 2515 300
1604 2527 313
1625 2539 325
1648 2550 337
1671 2560 348
1696 2570 359
1723 2579 370
1752 2587 379
1781 2595 389
1812 2602 397
1845 2609 406
1879 2615 414
1911 2616 453
1925 2599 635
1948 2587 769
1975 2578 876
2005 2570 970
2036 2563 1056
2070 2555 1136
2104 2548 1212
2141 2541 1285
2179 2533 1355
2218 2525 1423
2257 2517 1489
2298 2509 1554
2340 2501 1618
2383 2492 1681
2426 2483 1743
2470 2474 1804
1596 2574 267
1612 2587 280
1629 2601 294
1647 2614 307
1667 2626 320
1687 2638 333
1709 2649 345
1733 2659 356
1757 2670 367
1783 2679 378
1811 2688 388
1840 2696 397
1871 2703 406
1903 2710 415
1936 2716 423
1970 2722 431
1994 2714 543
2010 2698 714
2034 2687 838
2062 2679 941
2092 2671 1032
2125 2663 1117
2159 2656 1196
2194 2648 1272
2230 2641 1344
2268 2634 1414
2307 2625 1482
2347 2618 1548
2387 2609 1614
2429 2601 1677
2472 2592 1741
2515 2583 1803
1659 2672 274
1676 2686 288
1693 2699 301
1710 2712 315
1729 2725 328
1750 2737 340
1771 2748 352
1795 2759 364
1818 2769 375
1844 2779 386
1871 2788 396
1900 2796 406
1930 2804 415
1960 2811 424
1993 2817 432
2027 2823 440
2062 2829 448
2076 2811 639
2096 2797 789
2121 2787 904
2150 2779 1005
2181 2771 1094
2213 2764 1177
2247 2756 1256
2283 2749 1331
2319 2742 1403
2357 2734 1473
2396 2726 1541
2436 2718 1608
2476 2710 1673
2518 2701 1737
2560 2693 1800
1722 2771 281
1738 2784 295
1755 2798 309
1773 2811 322
